; generated by Slic3r 0.9.1 on 2012-08-25 at 13:35:50

; layer_height = 0.4
; perimeters = 2
; solid_layers = 1
; fill_density = 0.8
; perimeter_speed = 40
; infill_speed = 100
; travel_speed = 100
; scale = 1
; nozzle_diameter = 0.5
; filament_diameter = 3
; extrusion_multiplier = 1
; single wall width = 0.53mm
; first layer single wall width = 0.80mm

M107
G28 ; go home
G92 E0 ; reset extruder distance to zero
G1 Z20 F300 ;  go up 20 mm
G1 E20 F100 ; extrude 20 mm filament
G4 S5 ; pause for 5 seconds, give user time to wipe
G1 Z0 F300 ; go back to zero
G92 E0 ; reset extruder distance to zero
M107 ; Make sure fan is off
G90 ; use absolute coordinates
G21 ; set units to millimeters
G92 E0
M82 ; use absolute distances for extrusion
G1 Z0.400 F6000.000
G1 X77.130 Y79.643
G1 F1800.000 E2.00000
G1 X77.480 Y79.163 F960.000 E2.02473
G1 X77.870 Y78.723 E2.04920
G1 X78.300 Y78.313 E2.07394
G1 X78.760 Y77.943 E2.09851
G1 X80.740 Y76.623 E2.19757
G1 X81.260 Y76.343 E2.22216
G1 X82.080 Y76.003 E2.25911
G1 X82.650 Y75.843 E2.28375
G1 X84.990 Y75.383 E2.38303
G1 X85.510 Y75.323 E2.40482
G1 X86.030 Y75.303 E2.42648
G1 X104.480 Y75.323 E3.19451
G1 X105.000 Y75.383 E3.21630
G1 X107.340 Y75.843 E3.31557
G1 X107.910 Y76.003 E3.34021
G1 X108.730 Y76.343 E3.37717
G1 X109.250 Y76.623 E3.40175
G1 X111.230 Y77.943 E3.50081
G1 X111.690 Y78.313 E3.52539
G1 X112.120 Y78.723 E3.55012
G1 X112.510 Y79.163 E3.57459
G1 X114.020 Y81.383 E3.68636
G1 X114.310 Y81.903 E3.71114
G1 X114.550 Y82.443 E3.73574
G1 X114.740 Y83.003 E3.76036
G1 X115.230 Y85.343 E3.85988
G1 X115.340 Y86.133 E3.89308
G1 X115.340 Y103.863 E4.63114
G1 X115.230 Y104.663 E4.66475
G1 X114.740 Y106.983 E4.76346
G1 X114.650 Y107.263 E4.77570
G1 X114.430 Y107.823 E4.80075
G1 X114.170 Y108.353 E4.82532
G1 X112.690 Y110.583 E4.93674
G1 X112.330 Y111.043 E4.96105
G1 X111.710 Y111.663 E4.99755
G1 X111.010 Y112.193 E5.03410
G1 X109.020 Y113.503 E5.13328
G1 X108.490 Y113.763 E5.15785
G1 X107.940 Y113.973 E5.18236
G1 X107.370 Y114.143 E5.20712
G1 X104.760 Y114.653 E5.31782
G1 X104.500 Y114.683 E5.32872
G1 X103.960 Y114.703 E5.35121
G1 X85.490 Y114.683 E6.12007
G1 X84.960 Y114.613 E6.14233
G1 X82.620 Y114.143 E6.24168
G1 X82.050 Y113.973 E6.26644
G1 X81.500 Y113.763 E6.29095
G1 X80.970 Y113.503 E6.31552
G1 X78.740 Y112.023 E6.42694
G1 X78.280 Y111.663 E6.45125
G1 X77.660 Y111.043 E6.48775
G1 X77.130 Y110.343 E6.52430
G1 X75.820 Y108.353 E6.62348
G1 X75.560 Y107.823 E6.64805
G1 X75.340 Y107.263 E6.67310
G1 X75.250 Y106.983 E6.68534
G1 X74.760 Y104.663 E6.78405
G1 X74.650 Y103.863 E6.81766
G1 X74.650 Y86.133 E7.55572
G1 X74.760 Y85.343 E7.58892
G1 X75.250 Y83.003 E7.68844
G1 X75.440 Y82.443 E7.71306
G1 X75.680 Y81.903 E7.73766
G1 X75.970 Y81.383 E7.76245
G1 X77.063 Y79.743 E7.84450
G1 F1800.000 E5.84450
G92 E0
G1 X101.558 Y103.333 F6000.000
G1 F1800.000 E2.00000
G1 X102.478 Y101.424 F720.000 E2.08821
G1 X104.543 Y100.953 E2.17641
G1 X105.914 Y102.046 E2.24938
G1 X105.914 Y102.046 E2.24938
G1 X106.200 Y102.274 E2.26462
G1 X106.200 Y104.393 E2.35282
G1 X105.914 Y104.621 E2.36806
G1 X105.914 Y104.621 E2.36806
G1 X104.543 Y105.714 E2.44103
G1 X102.478 Y105.242 E2.52923
G1 X101.610 Y103.441 E2.61245
G1 F1800.000 E0.61245
G92 E0
G1 X88.200 Y104.393 F6000.000
G1 F1800.000 E2.00000
G1 X86.543 Y105.714 F720.000 E2.08821
G1 X84.478 Y105.242 E2.17641
G1 X83.558 Y103.333 E2.26462
G1 X84.478 Y101.424 E2.35282
G1 X86.543 Y100.953 E2.44103
G1 X88.200 Y102.274 E2.52923
G1 X88.200 Y104.273 E2.61245
G1 F1800.000 E0.61245
G92 E0
G1 X86.507 Y107.166 F6000.000
G1 F1800.000 E2.00000
G1 X86.386 Y106.821 F960.000 E2.01519
G1 X88.968 Y104.763 E2.15263
G1 X88.968 Y101.904 E2.27162
G1 X86.386 Y99.846 E2.40906
G1 X86.507 Y99.501 E2.42425
G1 X103.885 Y99.501 E3.14766
G1 X104.637 Y99.651 E3.17958
G1 X104.644 Y100.142 E3.20004
G1 X101.946 Y100.758 E3.31524
G1 X100.706 Y103.333 E3.43423
G1 X101.627 Y105.246 E3.52259
G1 X101.627 Y105.246 E3.52259
G1 X101.946 Y105.909 E3.55322
G1 X104.016 Y106.381 E3.64158
G1 X104.016 Y106.381 E3.64158
G1 X104.644 Y106.524 E3.66841
G1 X104.637 Y107.016 E3.68887
G1 X103.885 Y107.166 E3.72080
G1 X86.627 Y107.166 E4.43921
G1 X85.985 Y107.140 F6000.000
G1 X84.542 Y106.853 F720.000 E4.50044
G1 X83.906 Y106.427 E4.53232
G1 X84.113 Y105.947 E4.55410
G1 X86.141 Y106.410 E4.64070
G1 X86.010 Y107.022 E4.66678
G1 F1800.000 E2.66678
G92 E0
G1 X105.160 Y106.204 F6000.000
G1 F1800.000 E2.00000
G1 X106.773 Y104.918 F720.000 E2.08591
G1 X107.183 Y105.294 E2.10907
G1 X106.694 Y106.027 E2.14575
G1 X105.576 Y106.774 E2.20171
G1 X105.231 Y106.301 E2.22607
G1 F1800.000 E0.22607
G92 E0
G1 X83.740 Y105.481 F6000.000
G1 F1800.000 E2.00000
G1 X83.162 Y105.811 F720.000 E2.02771
G1 X82.481 Y104.791 E2.07879
G1 X82.286 Y103.814 E2.12026
G1 X82.847 Y103.626 E2.14488
G1 X83.688 Y105.373 E2.22558
G1 F1800.000 E0.22558
G92 E0
G1 X106.968 Y104.362 F6000.000
G1 F1800.000 E2.00000
G1 X106.968 Y102.305 F720.000 E2.08563
G1 X107.592 Y102.243 E2.11176
G1 X107.809 Y103.333 E2.15803
G1 X107.592 Y104.423 E2.20429
G1 X107.087 Y104.374 E2.22543
G1 F1800.000 E0.22543
G92 E0
G1 X83.740 Y101.185 F6000.000
G1 F1800.000 E2.00000
G1 X82.847 Y103.040 F720.000 E2.08569
G1 X82.286 Y102.853 E2.11031
G1 X82.481 Y101.876 E2.15178
G1 X83.162 Y100.855 E2.20286
G1 X83.636 Y101.126 E2.22558
G1 F1800.000 E0.22558
G92 E0
G1 X105.160 Y100.462 F6000.000
G1 F1800.000 E2.00000
G1 X105.576 Y99.893 F720.000 E2.02936
G1 X106.694 Y100.640 E2.08531
G1 X107.183 Y101.372 E2.12199
G1 X106.773 Y101.749 E2.14516
G1 X105.254 Y100.537 E2.22607
G1 F1800.000 E0.22607
G92 E0
G1 X86.141 Y100.257 F6000.000
G1 F1800.000 E2.00000
G1 X84.113 Y100.720 F720.000 E2.08660
G1 X83.906 Y100.239 E2.10838
G1 X84.542 Y99.814 E2.14026
G1 X85.985 Y99.527 E2.20149
G1 X86.116 Y100.140 E2.22757
G1 X85.887 Y98.764 F6000.000
G1 X86.039 Y98.733 F960.000 E2.23405
G1 X103.961 Y98.733 E2.98007
G1 X105.644 Y99.068 E3.05152
G1 X105.644 Y99.068 E3.05152
G1 X105.757 Y99.091 E3.05632
G1 X107.247 Y100.086 E3.13091
G1 X108.243 Y101.576 E3.20550
G1 X108.592 Y103.333 E3.28009
G1 X108.243 Y105.091 E3.35467
G1 X107.247 Y106.580 E3.42926
G1 X105.757 Y107.576 E3.50385
G1 X103.961 Y107.933 E3.58011
G1 X86.039 Y107.933 E4.32612
G1 X84.243 Y107.576 E4.40238
G1 X82.753 Y106.580 E4.47697
G1 X81.757 Y105.091 E4.55156
G1 X81.408 Y103.333 E4.62614
G1 X81.757 Y101.576 E4.70073
G1 X82.753 Y100.086 E4.77532
G1 X84.243 Y99.091 E4.84990
G1 X85.769 Y98.787 E4.91469
G1 F1800.000 E2.91469
G92 E0
G1 X89.509 Y104.351 F6000.000
G1 F1800.000 E2.00000
G1 X91.783 Y106.624 F2160.000 E2.13950
G1 X92.919 Y106.624 E2.18879
G1 X89.509 Y103.215 E2.39798
G1 X89.509 Y102.079 E2.44727
G1 X94.055 Y106.624 E2.72617
G1 X95.190 Y106.624 E2.77544
G1 X88.609 Y100.043 E3.17928
G1 X89.745 Y100.043 E3.22856
G1 X96.326 Y106.624 E3.63240
G1 X97.462 Y106.624 E3.68169
G1 X90.881 Y100.043 E4.08553
G1 X92.016 Y100.043 E4.13481
G1 X98.598 Y106.624 E4.53865
G1 X99.734 Y106.624 E4.58793
G1 X93.152 Y100.043 E4.99178
G1 X94.288 Y100.043 E5.04106
G1 X100.870 Y106.624 E5.44490
G1 X101.138 Y105.757 E5.48428
G1 X95.424 Y100.043 E5.83492
G1 X96.560 Y100.043 E5.88420
G1 X100.083 Y103.566 E6.10041
G1 X100.448 Y102.795 F6000.000
G1 X97.696 Y100.043 F2160.000 E6.26932
G1 X98.831 Y100.043 E6.31860
G1 X100.817 Y102.029 E6.44046
G1 X101.187 Y101.262 F6000.000
G1 X99.967 Y100.043 F2160.000 E6.51528
G1 X101.103 Y100.043 E6.56456
G1 X101.556 Y100.495 E6.59234
G1 F1800.000 E4.59234
G92 E0
G1 X89.186 Y105.164 F6000.000
G1 F1800.000 E2.00000
G1 X90.647 Y106.624 F2160.000 E2.08962
G1 X89.511 Y106.624 E2.13890
G1 X88.554 Y105.667 E2.19760
G1 X87.922 Y106.171 F6000.000
G1 X88.375 Y106.624 F2160.000 E2.22538
G1 F1800.000 E0.22538
G92 E0
G1 X83.684 Y105.970 F6000.000
G1 F1800.000 E2.00000
G1 X83.796 Y106.089 F2160.000 E2.00680
G1 F1800.000 E0.00680
G92 E0
G1 X82.593 Y103.333 F6000.000
G1 F1800.000 E2.00000
G1 X82.593 Y103.333 F2160.000 E2.00000
G1 X82.578 Y103.333 F6000.000
G1 X82.593 Y103.333 F2160.000 E2.00065
G1 X82.516 Y103.273 F6000.000
G1 X82.516 Y103.394 F2160.000 E2.00566
G1 F1800.000 E0.00566
G92 E0
G1 X104.935 Y106.692 F6000.000
G1 F1800.000 E2.00000
G1 X104.943 Y106.665 F2160.000 E2.00117
G1 X105.265 Y106.707 E2.01470
G1 F1800.000 E0.01470
G92 E0
G1 X107.142 Y104.929 F6000.000
G1 F1800.000 E2.00000
G1 X107.241 Y104.828 F2160.000 E2.00586
G1 X107.224 Y104.662 E2.01281
G1 F1800.000 E0.01281
G92 E0
G1 X107.142 Y101.738 F6000.000
G1 F1800.000 E2.00000
G1 X107.224 Y102.004 F2160.000 E2.01161
G1 F1800.000 E0.01161
G92 E0
G1 X105.023 Y100.068 F6000.000
G1 F1800.000 E2.00000
G1 X104.870 Y99.934 F2160.000 E2.00845
G1 F1800.000 E0.00845
G92 E0
G1 X104.543 Y84.286 F6000.000
G1 F1800.000 E2.00000
G1 X105.914 Y85.379 F720.000 E2.07297
G1 X105.914 Y85.379 E2.07297
G1 X106.200 Y85.607 E2.08821
G1 X106.200 Y87.726 E2.17641
G1 X105.914 Y87.954 E2.19165
G1 X105.914 Y87.954 E2.19165
G1 X104.543 Y89.047 E2.26462
G1 X102.478 Y88.576 E2.35282
G1 X101.558 Y86.667 E2.44103
G1 X102.478 Y84.758 E2.52923
G1 X104.426 Y84.313 E2.61245
G1 F1800.000 E0.61245
G92 E0
G1 X88.200 Y85.607 F6000.000
G1 F1800.000 E2.00000
G1 X88.200 Y87.726 F720.000 E2.08821
G1 X86.543 Y89.047 E2.17641
G1 X84.478 Y88.576 E2.26462
G1 X83.558 Y86.667 E2.35282
G1 X84.478 Y84.758 E2.44103
G1 X86.543 Y84.286 E2.52923
G1 X88.106 Y85.532 E2.61245
G1 F1800.000 E0.61245
G92 E0
G1 X86.507 Y90.499 F6000.000
G1 F1800.000 E2.00000
G1 X86.386 Y90.154 F960.000 E2.01519
G1 X88.968 Y88.096 E2.15263
G1 X88.968 Y85.237 E2.27162
G1 X86.386 Y83.179 E2.40906
G1 X86.507 Y82.834 E2.42425
G1 X103.885 Y82.834 E3.14766
G1 X104.637 Y82.984 E3.17958
G1 X104.644 Y83.476 E3.20004
G1 X101.946 Y84.091 E3.31524
G1 X100.706 Y86.667 E3.43423
G1 X101.627 Y88.579 E3.52259
G1 X101.627 Y88.579 E3.52259
G1 X101.946 Y89.242 E3.55322
G1 X104.016 Y89.714 E3.64158
G1 X104.016 Y89.714 E3.64158
G1 X104.644 Y89.858 E3.66841
G1 X104.637 Y90.349 E3.68887
G1 X103.885 Y90.499 E3.72080
G1 X86.627 Y90.499 E4.43921
G1 X85.985 Y90.473 F6000.000
G1 X84.542 Y90.186 F720.000 E4.50044
G1 X83.906 Y89.761 E4.53232
G1 X84.113 Y89.280 E4.55410
G1 X86.141 Y89.743 E4.64070
G1 X86.010 Y90.356 E4.66678
G1 F1800.000 E2.66678
G92 E0
G1 X105.160 Y89.538 F6000.000
G1 F1800.000 E2.00000
G1 X106.773 Y88.251 F720.000 E2.08591
G1 X107.183 Y88.628 E2.10907
G1 X106.694 Y89.360 E2.14575
G1 X105.576 Y90.107 E2.20171
G1 X105.231 Y89.635 E2.22607
G1 F1800.000 E0.22607
G92 E0
G1 X83.740 Y88.815 F6000.000
G1 F1800.000 E2.00000
G1 X83.162 Y89.145 F720.000 E2.02771
G1 X82.481 Y88.124 E2.07879
G1 X82.286 Y87.147 E2.12026
G1 X82.847 Y86.960 E2.14488
G1 X83.688 Y88.706 E2.22558
G1 F1800.000 E0.22558
G92 E0
G1 X106.968 Y87.695 F6000.000
G1 F1800.000 E2.00000
G1 X106.968 Y85.638 F720.000 E2.08563
G1 X107.592 Y85.577 E2.11176
G1 X107.809 Y86.667 E2.15803
G1 X107.592 Y87.757 E2.20429
G1 X107.087 Y87.707 E2.22543
G1 F1800.000 E0.22543
G92 E0
G1 X83.740 Y84.519 F6000.000
G1 F1800.000 E2.00000
G1 X82.847 Y86.374 F720.000 E2.08569
G1 X82.286 Y86.186 E2.11031
G1 X82.481 Y85.209 E2.15178
G1 X83.162 Y84.189 E2.20286
G1 X83.636 Y84.459 E2.22558
G1 F1800.000 E0.22558
G92 E0
G1 X105.160 Y83.796 F6000.000
G1 F1800.000 E2.00000
G1 X105.576 Y83.226 F720.000 E2.02936
G1 X106.694 Y83.973 E2.08531
G1 X107.183 Y84.706 E2.12199
G1 X106.773 Y85.082 E2.14516
G1 X105.254 Y83.871 E2.22607
G1 F1800.000 E0.22607
G92 E0
G1 X86.141 Y83.590 F6000.000
G1 F1800.000 E2.00000
G1 X84.113 Y84.053 F720.000 E2.08660
G1 X83.906 Y83.573 E2.10838
G1 X84.542 Y83.147 E2.14026
G1 X85.985 Y82.860 E2.20149
G1 X86.116 Y83.473 E2.22757
G1 X85.887 Y82.097 F6000.000
G1 X86.039 Y82.067 F960.000 E2.23405
G1 X103.961 Y82.067 E2.98007
G1 X105.644 Y82.402 E3.05152
G1 X105.644 Y82.402 E3.05152
G1 X105.757 Y82.424 E3.05632
G1 X107.247 Y83.420 E3.13091
G1 X108.243 Y84.909 E3.20550
G1 X108.592 Y86.667 E3.28009
G1 X108.243 Y88.424 E3.35467
G1 X107.247 Y89.914 E3.42926
G1 X105.757 Y90.909 E3.50385
G1 X103.961 Y91.267 E3.58011
G1 X86.039 Y91.267 E4.32612
G1 X84.243 Y90.909 E4.40238
G1 X82.753 Y89.914 E4.47697
G1 X81.757 Y88.424 E4.55156
G1 X81.408 Y86.667 E4.62614
G1 X81.757 Y84.909 E4.70073
G1 X82.753 Y83.420 E4.77532
G1 X84.243 Y82.424 E4.84990
G1 X85.769 Y82.120 E4.91469
G1 F1800.000 E2.91469
G92 E0
G1 X89.509 Y87.684 F6000.000
G1 F1800.000 E2.00000
G1 X91.783 Y89.957 F2160.000 E2.13950
G1 X92.919 Y89.957 E2.18879
G1 X89.509 Y86.548 E2.39798
G1 X89.509 Y85.412 E2.44727
G1 X94.055 Y89.957 E2.72617
G1 X95.190 Y89.957 E2.77544
G1 X88.609 Y83.376 E3.17928
G1 X89.745 Y83.376 E3.22856
G1 X96.326 Y89.957 E3.63240
G1 X97.462 Y89.957 E3.68169
G1 X90.881 Y83.376 E4.08553
G1 X92.016 Y83.376 E4.13481
G1 X98.598 Y89.957 E4.53865
G1 X99.734 Y89.957 E4.58793
G1 X93.152 Y83.376 E4.99178
G1 X94.288 Y83.376 E5.04106
G1 X100.870 Y89.957 E5.44490
G1 X101.138 Y89.090 E5.48428
G1 X95.424 Y83.376 E5.83492
G1 X96.560 Y83.376 E5.88420
G1 X100.083 Y86.899 E6.10041
G1 X100.448 Y86.129 F6000.000
G1 X97.696 Y83.376 F2160.000 E6.26932
G1 X98.831 Y83.376 E6.31860
G1 X100.817 Y85.362 E6.44046
G1 X101.187 Y84.595 F6000.000
G1 X99.967 Y83.376 F2160.000 E6.51528
G1 X101.103 Y83.376 E6.56456
G1 X101.556 Y83.829 E6.59234
G1 F1800.000 E4.59234
G92 E0
G1 X89.186 Y88.497 F6000.000
G1 F1800.000 E2.00000
G1 X90.647 Y89.957 F2160.000 E2.08962
G1 X89.511 Y89.957 E2.13890
G1 X88.554 Y89.001 E2.19760
G1 X87.922 Y89.505 F6000.000
G1 X88.375 Y89.957 F2160.000 E2.22538
G1 F1800.000 E0.22538
G92 E0
G1 X83.684 Y89.303 F6000.000
G1 F1800.000 E2.00000
G1 X83.796 Y89.422 F2160.000 E2.00680
G1 F1800.000 E0.00680
G92 E0
G1 X82.593 Y86.667 F6000.000
G1 F1800.000 E2.00000
G1 X82.593 Y86.667 F2160.000 E2.00000
G1 X82.578 Y86.667 F6000.000
G1 X82.593 Y86.667 F2160.000 E2.00065
G1 X82.516 Y86.606 F6000.000
G1 X82.516 Y86.727 F2160.000 E2.00566
G1 F1800.000 E0.00566
G92 E0
G1 X104.935 Y90.026 F6000.000
G1 F1800.000 E2.00000
G1 X104.943 Y89.999 F2160.000 E2.00117
G1 X105.265 Y90.041 E2.01470
G1 F1800.000 E0.01470
G92 E0
G1 X107.142 Y88.262 F6000.000
G1 F1800.000 E2.00000
G1 X107.241 Y88.162 F2160.000 E2.00586
G1 X107.224 Y87.996 E2.01281
G1 F1800.000 E0.01281
G92 E0
G1 X107.142 Y85.071 F6000.000
G1 F1800.000 E2.00000
G1 X107.224 Y85.338 F2160.000 E2.01161
G1 F1800.000 E0.01161
G92 E0
G1 X105.023 Y83.401 F6000.000
G1 F1800.000 E2.00000
G1 X104.870 Y83.267 F2160.000 E2.00845
G1 F1800.000 E0.00845
G92 E0
G1 Z0.800 F6000.000
G1 X88.585 Y102.089
G1 F1800.000 E2.00000
G1 X88.585 Y104.578 F1356.075 E2.07321
G1 X86.638 Y106.130 E2.14641
G1 X85.444 Y105.858 E2.18245
G1 X85.444 Y105.858 E2.18245
G1 X84.211 Y105.576 E2.21962
G1 X83.131 Y103.333 E2.29283
G1 X84.211 Y101.090 E2.36603
G1 X85.444 Y100.809 E2.40320
G1 X85.444 Y100.809 E2.40320
G1 X86.638 Y100.536 E2.43924
G1 X88.523 Y102.039 E2.51013
G1 X88.062 Y102.340 F6000.000
G1 X88.062 Y104.327 F1356.075 E2.56854
G1 X86.509 Y105.565 E2.62696
G1 X84.573 Y105.123 E2.68537
G1 X83.711 Y103.333 E2.74378
G1 X84.573 Y101.544 E2.80220
G1 X86.509 Y101.102 E2.86061
G1 X88.001 Y102.291 E2.91671
G1 F1800.000 E0.91671
G92 E0
G1 X101.131 Y103.333 F6000.000
G1 F1800.000 E2.00000
G1 X102.211 Y101.090 F1356.075 E2.07321
G1 X103.444 Y100.809 E2.11038
G1 X103.444 Y100.809 E2.11038
G1 X104.638 Y100.536 E2.14641
G1 X106.585 Y102.089 E2.21962
G1 X106.585 Y104.578 E2.29283
G1 X104.638 Y106.130 E2.36603
G1 X103.444 Y105.858 E2.40207
G1 X103.444 Y105.858 E2.40207
G1 X102.211 Y105.576 E2.43924
G1 X101.165 Y103.404 E2.51013
G1 X101.711 Y103.333 F6000.000
G1 X102.573 Y101.544 F1356.075 E2.56854
G1 X104.509 Y101.102 E2.62696
G1 X106.062 Y102.340 E2.68537
G1 X106.062 Y104.327 E2.74378
G1 X104.509 Y105.565 E2.80220
G1 X102.573 Y105.123 E2.86061
G1 X101.745 Y103.404 E2.91671
G1 F1800.000 E0.91671
G92 E0
G1 X107.880 Y104.941 F6000.000
G1 F1800.000 E2.00000
G1 X106.970 Y106.303 F1808.100 E2.04819
G1 X105.607 Y107.213 E2.09637
G1 X103.923 Y107.549 E2.14688
G1 X86.077 Y107.549 E2.67163
G1 X85.579 Y107.449 E2.68656
G1 X85.579 Y107.449 E2.68656
G1 X84.393 Y107.213 E2.72213
G1 X83.030 Y106.303 E2.77031
G1 X82.120 Y104.941 E2.81850
G1 X81.800 Y103.333 E2.86669
G1 X82.120 Y101.726 E2.91487
G1 X83.030 Y100.364 E2.96306
G1 X84.296 Y99.518 E3.00783
G1 X84.296 Y99.518 E3.00783
G1 X84.393 Y99.453 E3.01125
