; generated by Slic3r 0.9.1 on 2012-08-25 at 12:14:22

; layer_height = 0.4
; perimeters = 2
; solid_layers = 1
; fill_density = 0.6
; perimeter_speed = 40
; infill_speed = 100
; travel_speed = 100
; scale = 1
; nozzle_diameter = 0.5
; filament_diameter = 3
; extrusion_multiplier = 1
; single wall width = 0.53mm
; first layer single wall width = 0.80mm

M107
G28 ; go home
G92 E0 ; reset extruder distance to zero
G1 Z20 F300 ;  go up 20 mm
G1 E20 F100 ; extrude 20 mm filament
G4 S5 ; pause for 5 seconds, give user time to wipe
G1 Z0 F300 ; go back to zero
G92 E0 ; reset extruder distance to zero
M107 ; Make sure fan is off
G90 ; use absolute coordinates
G21 ; set units to millimeters
G92 E0
M82 ; use absolute distances for extrusion
G1 Z0.400 F6000.000
G1 X60.860 Y63.070
G1 F1800.000 E2.00000
G1 X61.280 Y62.660 F960.000 E2.02443
G1 X61.980 Y62.130 E2.06098
G1 X63.720 Y60.970 E2.14803
G1 X64.240 Y60.680 E2.17282
G1 X64.790 Y60.440 E2.19780
G1 X65.360 Y60.250 E2.22281
G1 X65.650 Y60.170 E2.23533
G1 X67.990 Y59.710 E2.33461
G1 X68.510 Y59.650 E2.35640
G1 X69.030 Y59.630 E2.37806
G1 X121.480 Y59.650 E4.56142
G1 X122.000 Y59.710 E4.58321
G1 X124.340 Y60.170 E4.68249
G1 X124.920 Y60.340 E4.70765
G1 X125.470 Y60.550 E4.73215
G1 X125.750 Y60.680 E4.74500
G1 X126.270 Y60.970 E4.76979
G1 X128.250 Y62.300 E4.86908
G1 X128.710 Y62.660 E4.89340
G1 X129.330 Y63.280 E4.92990
G1 X129.860 Y63.980 E4.96644
G1 X131.170 Y65.970 E5.06562
G1 X131.430 Y66.500 E5.09020
G1 X131.650 Y67.060 E5.11524
G1 X131.740 Y67.340 E5.12748
G1 X132.230 Y69.660 E5.22619
G1 X132.340 Y70.460 E5.25981
G1 X132.340 Y119.520 E7.30205
G1 X132.230 Y120.310 E7.33526
G1 X131.740 Y122.650 E7.43478
G1 X131.550 Y123.210 E7.45939
G1 X131.310 Y123.750 E7.48399
G1 X131.020 Y124.270 E7.50878
G1 X129.690 Y126.250 E7.60807
G1 X129.330 Y126.710 E7.63239
G1 X128.710 Y127.330 E7.66888
G1 X128.010 Y127.860 E7.70543
G1 X126.270 Y129.020 E7.79249
G1 X125.750 Y129.310 E7.81727
G1 X125.200 Y129.550 E7.84225
G1 X124.630 Y129.740 E7.86726
G1 X124.340 Y129.820 E7.87979
G1 X122.000 Y130.280 E7.97906
G1 X121.480 Y130.340 E8.00085
G1 X120.960 Y130.360 E8.02251
G1 X68.510 Y130.340 E10.20588
G1 X67.990 Y130.280 E10.22767
G1 X65.650 Y129.820 E10.32694
G1 X65.070 Y129.650 E10.35210
G1 X64.520 Y129.440 E10.37661
G1 X64.240 Y129.310 E10.38946
G1 X63.720 Y129.020 E10.41424
G1 X61.740 Y127.690 E10.51353
G1 X61.280 Y127.330 E10.53785
G1 X60.660 Y126.710 E10.57435
G1 X60.130 Y126.010 E10.61090
G1 X58.970 Y124.270 E10.69795
G1 X58.680 Y123.750 E10.72273
G1 X58.440 Y123.210 E10.74733
G1 X58.250 Y122.650 E10.77195
G1 X57.760 Y120.310 E10.87147
G1 X57.650 Y119.520 E10.90467
G1 X57.650 Y70.460 E12.94692
G1 X57.760 Y69.660 E12.98054
G1 X58.250 Y67.340 E13.07924
G1 X58.340 Y67.060 E13.09149
G1 X58.560 Y66.500 E13.11653
G1 X58.820 Y65.970 E13.14111
G1 X60.300 Y63.740 E13.25252
G1 X60.660 Y63.280 E13.27684
G1 X60.777 Y63.157 E13.28391
G1 F1800.000 E11.28391
G92 E0
G1 X84.558 Y103.000 F6000.000
G1 F1800.000 E2.00000
G1 X85.478 Y101.091 F720.000 E2.08821
G1 X87.543 Y100.619 E2.17641
G1 X89.200 Y101.940 E2.26462
G1 X89.200 Y104.060 E2.35283
G1 X87.543 Y105.381 E2.44103
G1 X85.478 Y104.909 E2.52923
G1 X84.610 Y103.108 E2.61244
G1 F1800.000 E0.61244
G92 E0
G1 X71.200 Y104.059 F6000.000
G1 F1800.000 E2.00000
G1 X69.543 Y105.381 F720.000 E2.08820
G1 X67.478 Y104.909 E2.17641
G1 X66.558 Y103.000 E2.26462
G1 X67.478 Y101.091 E2.35282
G1 X69.543 Y100.619 E2.44103
G1 X71.200 Y101.941 E2.52924
G1 X71.200 Y103.939 E2.61245
G1 F1800.000 E0.61245
G92 E0
G1 X69.507 Y106.832 F6000.000
G1 F1800.000 E2.00000
G1 X69.386 Y106.488 F960.000 E2.01519
G1 X71.968 Y104.429 E2.15263
G1 X71.968 Y101.571 E2.27162
G1 X69.386 Y99.512 E2.40906
G1 X69.507 Y99.168 E2.42425
G1 X86.885 Y99.168 E3.14766
G1 X87.637 Y99.317 E3.17959
G1 X87.644 Y99.809 E3.20004
G1 X84.947 Y100.425 E3.31522
G1 X84.681 Y100.976 E3.34070
G1 X84.681 Y100.976 E3.34070
G1 X83.706 Y103.000 E3.43422
G1 X84.947 Y105.575 E3.55322
G1 X87.644 Y106.191 E3.66840
G1 X87.637 Y106.683 E3.68886
G1 X86.885 Y106.832 E3.72079
G1 X69.627 Y106.832 E4.43920
G1 X68.985 Y106.806 F6000.000
G1 X67.542 Y106.519 F720.000 E4.50043
G1 X66.906 Y106.094 E4.53231
G1 X67.113 Y105.613 E4.55409
G1 X69.141 Y106.076 E4.64069
G1 X69.010 Y106.689 E4.66677
G1 F1800.000 E2.66677
G92 E0
G1 X88.160 Y105.871 F6000.000
G1 F1800.000 E2.00000
G1 X89.773 Y104.584 F720.000 E2.08591
G1 X90.183 Y104.961 E2.10908
G1 X89.694 Y105.694 E2.14575
G1 X88.576 Y106.440 E2.20171
G1 X88.231 Y105.968 E2.22607
G1 F1800.000 E0.22607
G92 E0
G1 X66.740 Y105.148 F6000.000
G1 F1800.000 E2.00000
G1 X66.162 Y105.478 F720.000 E2.02771
G1 X65.481 Y104.458 E2.07879
G1 X65.286 Y103.481 E2.12026
G1 X65.847 Y103.293 E2.14488
G1 X66.688 Y105.040 E2.22558
G1 F1800.000 E0.22558
G92 E0
G1 X89.968 Y104.029 F6000.000
G1 F1800.000 E2.00000
G1 X89.968 Y101.971 F720.000 E2.08563
G1 X90.592 Y101.910 E2.11176
G1 X90.809 Y103.000 E2.15803
G1 X90.592 Y104.090 E2.20430
G1 X90.087 Y104.040 E2.22543
G1 F1800.000 E0.22543
G92 E0
G1 X66.740 Y100.852 F6000.000
G1 F1800.000 E2.00000
G1 X65.847 Y102.707 F720.000 E2.08569
G1 X65.286 Y102.519 E2.11031
G1 X65.481 Y101.542 E2.15178
G1 X66.162 Y100.522 E2.20286
G1 X66.636 Y100.793 E2.22558
G1 F1800.000 E0.22558
G92 E0
G1 X88.160 Y100.129 F6000.000
G1 F1800.000 E2.00000
G1 X88.576 Y99.560 F720.000 E2.02936
G1 X89.694 Y100.306 E2.08531
G1 X90.183 Y101.039 E2.12199
G1 X89.773 Y101.416 E2.14516
G1 X88.254 Y100.204 E2.22607
G1 F1800.000 E0.22607
G92 E0
G1 X69.141 Y99.924 F6000.000
G1 F1800.000 E2.00000
G1 X67.113 Y100.387 F720.000 E2.08660
G1 X66.906 Y99.906 E2.10838
G1 X67.542 Y99.481 E2.14026
G1 X68.985 Y99.194 E2.20149
G1 X69.116 Y99.806 E2.22757
G1 X69.039 Y98.400 F6000.000
G1 X86.961 Y98.400 F960.000 E2.97359
G1 X88.757 Y98.757 E3.04985
G1 X90.247 Y99.753 E3.12443
G1 X91.243 Y101.243 E3.19902
G1 X91.592 Y103.000 E3.27361
G1 X91.243 Y104.757 E3.34819
G1 X90.247 Y106.247 E3.42278
G1 X88.757 Y107.243 E3.49737
G1 X86.961 Y107.600 E3.57363
G1 X69.039 Y107.600 E4.31964
G1 X67.243 Y107.243 E4.39590
G1 X65.753 Y106.247 E4.47049
G1 X64.757 Y104.757 E4.54508
G1 X64.408 Y103.000 E4.61966
G1 X64.757 Y101.243 E4.69425
G1 X65.753 Y99.753 E4.76884
G1 X67.243 Y98.757 E4.84343
G1 X68.922 Y98.423 E4.91469
G1 F1800.000 E2.91469
G92 E0
G1 X72.509 Y104.017 F6000.000
G1 F1800.000 E2.00000
G1 X74.783 Y106.291 F2160.000 E2.13951
G1 X75.918 Y106.291 E2.18879
G1 X72.509 Y102.882 E2.39800
G1 X72.510 Y101.745 E2.44731
G1 X77.055 Y106.290 E2.72621
G1 X78.191 Y106.291 E2.77549
G1 X71.609 Y99.709 E3.17934
G1 X72.745 Y99.709 E3.22862
G1 X79.326 Y106.291 E3.63247
G1 X80.462 Y106.291 E3.68175
G1 X73.881 Y99.709 E4.08560
G1 X75.016 Y99.709 E4.13488
G1 X81.598 Y106.291 E4.53873
G1 X82.734 Y106.291 E4.58801
G1 X76.152 Y99.710 E4.99186
G1 X77.289 Y99.709 E5.04117
G1 X83.870 Y106.291 E5.44502
G1 X84.139 Y105.424 E5.48440
G1 X78.424 Y99.709 E5.83505
G1 X79.560 Y99.709 E5.88433
G1 X83.083 Y103.232 E6.10049
G1 X83.448 Y102.462 F6000.000
G1 X80.696 Y99.709 F2160.000 E6.26939
G1 X81.832 Y99.710 E6.31867
G1 X83.817 Y101.695 E6.44053
G1 X84.187 Y100.928 F6000.000
G1 X82.968 Y99.709 F2160.000 E6.51534
G1 X84.104 Y99.709 E6.56462
G1 X84.556 Y100.162 E6.59240
G1 F1800.000 E4.59240
G92 E0
G1 X72.186 Y104.830 F6000.000
G1 F1800.000 E2.00000
G1 X73.647 Y106.291 F2160.000 E2.08962
G1 X72.511 Y106.291 E2.13890
G1 X71.555 Y105.334 E2.19761
G1 X70.923 Y105.838 F6000.000
G1 X71.376 Y106.291 F2160.000 E2.22539
G1 F1800.000 E0.22539
G92 E0
G1 X65.432 Y103.141 F6000.000
G1 F1800.000 E2.00000
G1 X65.481 Y102.862 F2160.000 E2.01179
G1 F1800.000 E0.01179
G92 E0
G1 X87.870 Y106.399 F6000.000
G1 F1800.000 E2.00000
G1 X88.090 Y106.345 F2160.000 E2.00945
G1 F1800.000 E0.00945
G92 E0
G1 X90.066 Y104.507 F6000.000
G1 F1800.000 E2.00000
G1 X90.151 Y104.309 F2160.000 E2.00898
G1 F1800.000 E0.00898
G92 E0
G1 X123.200 Y88.060 F6000.000
G1 F1800.000 E2.00000
G1 X121.543 Y89.381 F720.000 E2.08820
G1 X119.478 Y88.909 E2.17640
G1 X118.558 Y87.000 E2.26461
G1 X119.478 Y85.091 E2.35282
G1 X121.543 Y84.619 E2.44102
G1 X123.200 Y85.940 E2.52923
G1 X123.200 Y87.940 E2.61244
G1 F1800.000 E0.61244
G92 E0
G1 X105.200 Y88.059 F6000.000
G1 F1800.000 E2.00000
G1 X103.543 Y89.381 F720.000 E2.08820
G1 X101.478 Y88.909 E2.17641
G1 X100.558 Y87.000 E2.26462
G1 X101.478 Y85.091 E2.35282
G1 X103.543 Y84.619 E2.44103
G1 X105.200 Y85.941 E2.52924
G1 X105.200 Y87.939 E2.61245
G1 F1800.000 E0.61245
G92 E0
G1 X103.507 Y90.832 F6000.000
G1 F1800.000 E2.00000
G1 X103.386 Y90.488 F960.000 E2.01519
G1 X105.968 Y88.429 E2.15263
G1 X105.968 Y85.571 E2.27162
G1 X103.386 Y83.512 E2.40906
G1 X103.507 Y83.168 E2.42425
G1 X120.885 Y83.168 E3.14766
G1 X121.637 Y83.317 E3.17959
G1 X121.644 Y83.809 E3.20004
G1 X118.947 Y84.425 E3.31522
G1 X118.681 Y84.976 E3.34070
G1 X118.681 Y84.976 E3.34070
G1 X117.706 Y87.000 E3.43422
G1 X118.947 Y89.575 E3.55322
G1 X121.644 Y90.191 E3.66840
G1 X121.637 Y90.683 E3.68886
G1 X120.885 Y90.832 E3.72079
G1 X103.627 Y90.832 E4.43920
G1 X102.985 Y90.806 F6000.000
G1 X101.542 Y90.519 F720.000 E4.50043
G1 X100.906 Y90.094 E4.53231
G1 X101.113 Y89.613 E4.55409
G1 X103.141 Y90.076 E4.64069
G1 X103.010 Y90.689 E4.66677
G1 F1800.000 E2.66677
G92 E0
G1 X122.160 Y89.871 F6000.000
G1 F1800.000 E2.00000
G1 X123.773 Y88.584 F720.000 E2.08591
G1 X124.183 Y88.961 E2.10908
G1 X123.694 Y89.694 E2.14575
G1 X122.576 Y90.440 E2.20171
G1 X122.231 Y89.968 E2.22607
G1 F1800.000 E0.22607
G92 E0
G1 X100.740 Y89.148 F6000.000
G1 F1800.000 E2.00000
G1 X100.162 Y89.478 F720.000 E2.02771
G1 X99.481 Y88.458 E2.07879
G1 X99.286 Y87.481 E2.12026
G1 X99.847 Y87.293 E2.14488
G1 X100.688 Y89.040 E2.22558
G1 F1800.000 E0.22558
G92 E0
G1 X123.968 Y88.029 F6000.000
G1 F1800.000 E2.00000
G1 X123.968 Y85.971 F720.000 E2.08563
G1 X124.592 Y85.910 E2.11176
G1 X124.809 Y87.000 E2.15803
G1 X124.592 Y88.090 E2.20430
G1 X124.087 Y88.040 E2.22543
G1 F1800.000 E0.22543
G92 E0
G1 X100.740 Y84.852 F6000.000
G1 F1800.000 E2.00000
G1 X99.847 Y86.707 F720.000 E2.08569
G1 X99.286 Y86.519 E2.11031
G1 X99.481 Y85.542 E2.15178
G1 X100.162 Y84.522 E2.20286
G1 X100.636 Y84.793 E2.22558
G1 F1800.000 E0.22558
G92 E0
G1 X122.160 Y84.129 F6000.000
G1 F1800.000 E2.00000
G1 X122.576 Y83.560 F720.000 E2.02936
G1 X123.694 Y84.306 E2.08531
G1 X124.183 Y85.039 E2.12199
G1 X123.773 Y85.416 E2.14516
G1 X122.254 Y84.204 E2.22607
G1 F1800.000 E0.22607
G92 E0
G1 X103.141 Y83.924 F6000.000
G1 F1800.000 E2.00000
G1 X101.113 Y84.387 F720.000 E2.08660
G1 X100.906 Y83.906 E2.10838
G1 X101.542 Y83.481 E2.14026
G1 X102.985 Y83.194 E2.20149
G1 X103.116 Y83.806 E2.22757
G1 X103.039 Y82.400 F6000.000
G1 X120.961 Y82.400 F960.000 E2.97359
G1 X122.757 Y82.757 E3.04985
G1 X124.247 Y83.753 E3.12443
G1 X125.243 Y85.243 E3.19902
G1 X125.592 Y87.000 E3.27361
G1 X125.243 Y88.757 E3.34819
G1 X124.247 Y90.247 E3.42278
G1 X122.757 Y91.243 E3.49737
G1 X120.961 Y91.600 E3.57363
G1 X103.039 Y91.600 E4.31964
G1 X101.243 Y91.243 E4.39590
G1 X99.753 Y90.247 E4.47049
G1 X98.757 Y88.757 E4.54508
G1 X98.408 Y87.000 E4.61966
G1 X98.757 Y85.243 E4.69425
G1 X99.753 Y83.753 E4.76884
G1 X101.243 Y82.757 E4.84343
G1 X102.922 Y82.423 E4.91469
G1 F1800.000 E2.91469
G92 E0
G1 X106.509 Y88.017 F6000.000
G1 F1800.000 E2.00000
G1 X108.783 Y90.291 F2160.000 E2.13951
G1 X109.918 Y90.291 E2.18879
G1 X106.509 Y86.882 E2.39800
G1 X106.510 Y85.745 E2.44731
G1 X111.055 Y90.290 E2.72621
G1 X112.191 Y90.291 E2.77549
G1 X105.609 Y83.709 E3.17934
G1 X106.745 Y83.709 E3.22862
G1 X113.326 Y90.291 E3.63247
G1 X114.462 Y90.291 E3.68175
G1 X107.881 Y83.709 E4.08560
G1 X109.016 Y83.709 E4.13488
G1 X115.598 Y90.291 E4.53873
G1 X116.734 Y90.291 E4.58801
G1 X110.152 Y83.710 E4.99186
G1 X111.289 Y83.709 E5.04117
G1 X117.870 Y90.291 E5.44502
G1 X118.139 Y89.424 E5.48440
G1 X112.424 Y83.709 E5.83505
G1 X113.560 Y83.709 E5.88433
G1 X117.083 Y87.232 E6.10049
G1 X117.448 Y86.462 F6000.000
G1 X114.696 Y83.709 F2160.000 E6.26939
G1 X115.832 Y83.710 E6.31867
G1 X117.817 Y85.695 E6.44053
G1 X118.187 Y84.928 F6000.000
G1 X116.968 Y83.709 F2160.000 E6.51534
G1 X118.104 Y83.709 E6.56462
G1 X118.556 Y84.162 E6.59240
G1 F1800.000 E4.59240
G92 E0
G1 X106.186 Y88.830 F6000.000
G1 F1800.000 E2.00000
G1 X107.647 Y90.291 F2160.000 E2.08962
G1 X106.511 Y90.291 E2.13890
G1 X105.555 Y89.334 E2.19761
G1 X104.923 Y89.838 F6000.000
G1 X105.376 Y90.291 F2160.000 E2.22539
G1 F1800.000 E0.22539
G92 E0
G1 X99.432 Y87.141 F6000.000
G1 F1800.000 E2.00000
G1 X99.481 Y86.862 F2160.000 E2.01179
G1 F1800.000 E0.01179
G92 E0
G1 X121.870 Y90.399 F6000.000
G1 F1800.000 E2.00000
G1 X122.090 Y90.345 F2160.000 E2.00945
G1 F1800.000 E0.00945
G92 E0
G1 X124.066 Y88.507 F6000.000
G1 F1800.000 E2.00000
G1 X124.151 Y88.309 F2160.000 E2.00898
G1 F1800.000 E0.00898
G92 E0
G1 X123.200 Y104.060 F6000.000
G1 F1800.000 E2.00000
G1 X121.543 Y105.381 F720.000 E2.08820
G1 X119.478 Y104.909 E2.17640
G1 X118.558 Y103.000 E2.26461
G1 X119.478 Y101.091 E2.35282
G1 X121.543 Y100.619 E2.44102
G1 X123.200 Y101.940 E2.52923
G1 X123.200 Y103.940 E2.61244
G1 F1800.000 E0.61244
G92 E0
G1 X105.200 Y104.059 F6000.000
G1 F1800.000 E2.00000
G1 X103.543 Y105.381 F720.000 E2.08820
G1 X101.478 Y104.909 E2.17641
G1 X100.558 Y103.000 E2.26462
G1 X101.478 Y101.091 E2.35282
G1 X103.543 Y100.619 E2.44103
G1 X105.200 Y101.941 E2.52924
G1 X105.200 Y103.939 E2.61245
G1 F1800.000 E0.61245
G92 E0
G1 X103.507 Y106.832 F6000.000
G1 F1800.000 E2.00000
G1 X103.386 Y106.488 F960.000 E2.01519
G1 X105.968 Y104.429 E2.15263
G1 X105.968 Y101.571 E2.27162
G1 X103.386 Y99.512 E2.40906
G1 X103.507 Y99.168 E2.42425
G1 X120.885 Y99.168 E3.14766
G1 X121.637 Y99.317 E3.17959
G1 X121.644 Y99.809 E3.20004
G1 X118.947 Y100.425 E3.31522
G1 X118.681 Y100.976 E3.34070
G1 X118.681 Y100.976 E3.34070
G1 X117.706 Y103.000 E3.43422
G1 X118.947 Y105.575 E3.55322
G1 X121.644 Y106.191 E3.66840
G1 X121.637 Y106.683 E3.68886
G1 X120.885 Y106.832 E3.72079
G1 X103.627 Y106.832 E4.43920
G1 X102.985 Y106.806 F6000.000
G1 X101.542 Y106.519 F720.000 E4.50043
G1 X100.906 Y106.094 E4.53231
G1 X101.113 Y105.613 E4.55409
G1 X103.141 Y106.076 E4.64069
G1 X103.010 Y106.689 E4.66677
G1 F1800.000 E2.66677
G92 E0
G1 X122.160 Y105.871 F6000.000
G1 F1800.000 E2.00000
G1 X123.773 Y104.584 F720.000 E2.08591
G1 X124.183 Y104.961 E2.10908
G1 X123.694 Y105.694 E2.14575
G1 X122.576 Y106.440 E2.20171
G1 X122.231 Y105.968 E2.22607
G1 F1800.000 E0.22607
G92 E0
G1 X100.740 Y105.148 F6000.000
G1 F1800.000 E2.00000
G1 X100.162 Y105.478 F720.000 E2.02771
G1 X99.481 Y104.458 E2.07879
G1 X99.286 Y103.481 E2.12026
G1 X99.847 Y103.293 E2.14488
G1 X100.688 Y105.040 E2.22558
G1 F1800.000 E0.22558
G92 E0
G1 X123.968 Y104.029 F6000.000
G1 F1800.000 E2.00000
G1 X123.968 Y101.971 F720.000 E2.08563
G1 X124.592 Y101.910 E2.11176
G1 X124.809 Y103.000 E2.15803
G1 X124.592 Y104.090 E2.20430
G1 X124.087 Y104.040 E2.22543
G1 F1800.000 E0.22543
G92 E0
G1 X100.740 Y100.852 F6000.000
G1 F1800.000 E2.00000
G1 X99.847 Y102.707 F720.000 E2.08569
G1 X99.286 Y102.519 E2.11031
G1 X99.481 Y101.542 E2.15178
G1 X100.162 Y100.522 E2.20286
G1 X100.636 Y100.793 E2.22558
G1 F1800.000 E0.22558
G92 E0
G1 X122.160 Y100.129 F6000.000
G1 F1800.000 E2.00000
G1 X122.576 Y99.560 F720.000 E2.02936
G1 X123.694 Y100.306 E2.08531
G1 X124.183 Y101.039 E2.12199
G1 X123.773 Y101.416 E2.14516
G1 X122.254 Y100.204 E2.22607
G1 F1800.000 E0.22607
G92 E0
G1 X103.141 Y99.924 F6000.000
G1 F1800.000 E2.00000
G1 X101.113 Y100.387 F720.000 E2.08660
G1 X100.906 Y99.906 E2.10838
G1 X101.542 Y99.481 E2.14026
G1 X102.985 Y99.194 E2.20149
G1 X103.116 Y99.806 E2.22757
G1 X103.039 Y98.400 F6000.000
G1 X120.961 Y98.400 F960.000 E2.97359
G1 X122.757 Y98.757 E3.04985
G1 X124.247 Y99.753 E3.12443
G1 X125.243 Y101.243 E3.19902
G1 X125.592 Y103.000 E3.27361
G1 X125.243 Y104.757 E3.34819
G1 X124.247 Y106.247 E3.42278
G1 X122.757 Y107.243 E3.49737
G1 X120.961 Y107.600 E3.57363
G1 X103.039 Y107.600 E4.31964
G1 X101.243 Y107.243 E4.39590
G1 X99.753 Y106.247 E4.47049
G1 X98.757 Y104.757 E4.54508
G1 X98.408 Y103.000 E4.61966
G1 X98.757 Y101.243 E4.69425
G1 X99.753 Y99.753 E4.76884
G1 X101.243 Y98.757 E4.84343
