; generated by Slic3r 0.9.1 on 2012-11-04 at 12:00:18

; layer_height = 0.4
; perimeters = 2
; solid_layers = 1
; fill_density = 0.2
; perimeter_speed = 60
; infill_speed = 80
; travel_speed = 150
; scale = 1
; nozzle_diameter = 0.5
; filament_diameter = 3
; extrusion_multiplier = 1
; single wall width = 0.53mm
; first layer single wall width = 0.80mm

M107
M106 ; Make sure fan is on
G28 X Y; go home
G92 Z0 E0 ; reset extruder distance to zero
G1 Z20 F1100 ;  go up 20 mm
G1 E20 F100 ; extrude 20 mm filament
G4 S5 ; pause for 5 seconds, give user time to wipe
G1 Z0 F1100 ; go back to zero
G92 E0 ; reset extruder distance to zero
G90 ; use absolute coordinates
G21 ; set units to millimeters
G92 E0
M82 ; use absolute distances for extrusion
G1 Z0.400 F9000.000
G1 X39.330 Y27.027
G1 F600.000 E2.00000
G1 X39.350 Y26.487 F1080.000 E2.02249
G1 X39.420 Y25.937 E2.04557
G1 X39.530 Y25.407 E2.06811
G1 X39.680 Y24.887 E2.09064
G1 X39.870 Y24.377 E2.11329
G1 X40.110 Y23.877 E2.13638
G1 X40.380 Y23.407 E2.15894
G1 X40.690 Y22.957 E2.18169
G1 X41.030 Y22.537 E2.20418
G1 X41.610 Y21.957 E2.23833
G1 X42.030 Y21.617 E2.26082
G1 X42.480 Y21.307 E2.28357
G1 X42.950 Y21.037 E2.30613
G1 X43.450 Y20.797 E2.32922
G1 X43.960 Y20.607 E2.35188
G1 X44.480 Y20.457 E2.37440
G1 X45.010 Y20.347 E2.39694
G1 X45.560 Y20.277 E2.42002
G1 X46.100 Y20.257 E2.44251
G1 X154.360 Y22.027 E6.94971
G1 X154.630 Y22.047 E6.96098
G1 X155.160 Y22.127 E6.98329
G1 X155.680 Y22.247 E7.00551
G1 X156.190 Y22.407 E7.02776
G1 X156.920 Y22.727 E7.06094
G1 X157.620 Y23.127 E7.09450
G1 X157.840 Y23.277 E7.10559
G1 X158.260 Y23.607 E7.12782
G1 X158.840 Y24.157 E7.16109
G1 X159.190 Y24.567 E7.18353
G1 X159.350 Y24.777 E7.19452
G1 X159.790 Y25.457 E7.22824
G1 X160.030 Y25.927 E7.25021
G1 X160.140 Y26.177 E7.26158
G1 X160.400 Y26.927 E7.29462
G1 X160.530 Y27.447 E7.31693
G1 X160.640 Y28.247 E7.35055
G1 X159.650 Y171.407 E13.31009
G1 X159.600 Y171.947 E13.33267
G1 X159.510 Y172.477 E13.35504
G1 X159.380 Y172.997 E13.37736
G1 X159.100 Y173.757 E13.41107
G1 X158.990 Y174.007 E13.42244
G1 X158.590 Y174.717 E13.45637
G1 X158.280 Y175.157 E13.47877
G1 X157.940 Y175.577 E13.50127
G1 X157.560 Y175.967 E13.52393
G1 X157.160 Y176.317 E13.54606
G1 X156.500 Y176.797 E13.58003
G1 X152.710 Y178.977 E13.76203
G1 X152.440 Y179.107 E13.77451
G1 X151.620 Y179.427 E13.81115
G1 X151.050 Y179.577 E13.83569
G1 X150.760 Y179.637 E13.84801
G1 X150.180 Y179.707 E13.87233
G1 X149.590 Y179.737 E13.89693
G1 X86.760 Y179.727 E16.51238
G1 X86.090 Y179.657 E16.54043
G1 X85.430 Y179.527 E16.56843
G1 X75.970 Y177.097 E16.97501
G1 X43.360 Y165.657 E18.41359
G1 X43.120 Y165.547 E18.42458
G1 X42.420 Y165.147 E18.45814
G1 X42.190 Y164.997 E18.46957
G1 X41.560 Y164.487 E18.50332
G1 X41.370 Y164.307 E18.51421
G1 X40.820 Y163.707 E18.54809
G1 X40.500 Y163.277 E18.57041
G1 X40.090 Y162.577 E18.60418
G1 X39.860 Y162.087 E18.62671
G1 X39.670 Y161.587 E18.64897
G1 X39.520 Y161.067 E18.67150
G1 X39.380 Y160.277 E18.70490
G1 X39.350 Y160.007 E18.71621
G1 X39.330 Y27.147 E24.24685
G1 F600.000 E22.24685
G92 E0
G1 X137.083 Y118.276 F9000.000
G1 F600.000 E2.00000
G1 X138.787 Y118.276 F1080.000 E2.07093
G1 X140.935 Y117.494 E2.16608
G1 X140.935 Y117.594 E2.17025
G1 X152.132 Y117.594 E2.63635
G1 X152.132 Y119.309 E2.70772
G1 X148.831 Y119.309 E2.84514
G1 X148.831 Y121.209 E2.92423
G1 X145.169 Y121.209 E3.07666
G1 X145.169 Y119.309 E3.15576
G1 X137.892 Y119.309 E3.45869
G1 X137.083 Y119.181 E3.49276
G1 X137.083 Y118.396 E3.52543
G1 F600.000 E1.52543
G92 E0
G1 X104.168 Y107.709 F9000.000
G1 F600.000 E2.00000
G1 X104.168 Y106.044 F1080.000 E2.06928
G1 X152.132 Y106.044 E4.06592
G1 X152.132 Y107.759 E4.13729
G1 X140.660 Y107.759 E4.61484
G1 X138.787 Y107.077 E4.69781
G1 X136.813 Y107.077 E4.78000
G1 X134.957 Y107.753 E4.86221
G1 X133.444 Y109.022 E4.94441
G1 X133.326 Y109.227 E4.95428
G1 X133.326 Y109.227 E4.95428
G1 X132.457 Y110.732 E5.02661
G1 X132.416 Y110.966 E5.03648
G1 X132.416 Y110.966 E5.03648
G1 X132.114 Y112.677 E5.10881
G1 X132.416 Y114.388 E5.18114
G1 X132.416 Y114.388 E5.18114
G1 X132.457 Y114.621 E5.19101
G1 X133.444 Y116.331 E5.27321
G1 X134.912 Y117.563 E5.35299
G1 X134.912 Y117.563 E5.35299
G1 X134.957 Y117.601 E5.35541
G1 X136.813 Y118.276 E5.43761
G1 X136.813 Y118.276 E5.43761
G1 X137.913 Y118.677 E5.48637
G1 X137.756 Y119.287 E5.51262
G1 X135.755 Y118.970 E5.59694
G1 X133.910 Y118.030 E5.68313
G1 X132.446 Y116.566 E5.76932
G1 X131.506 Y114.722 E5.85550
G1 X131.182 Y112.677 E5.94169
G1 X131.506 Y110.632 E6.02788
G1 X132.996 Y107.709 E6.16443
G1 X104.288 Y107.709 E7.35946
G1 X103.400 Y108.477 F9000.000
G1 X103.400 Y105.277 F1080.000 E7.49267
G1 X152.900 Y105.277 E9.55324
G1 X152.900 Y108.527 E9.68853
G1 X140.371 Y108.527 E10.21008
G1 X140.253 Y108.428 E10.21648
G1 X138.652 Y107.845 E10.28741
G1 X136.948 Y107.845 E10.35834
G1 X135.347 Y108.428 E10.42927
G1 X134.042 Y109.523 E10.50020
G1 X133.190 Y110.999 E10.57113
G1 X132.894 Y112.677 E10.64206
G1 X133.190 Y114.355 E10.71299
G1 X134.042 Y115.830 E10.78392
G1 X135.347 Y116.926 E10.85484
G1 X136.316 Y117.278 E10.89776
G1 X136.316 Y117.278 E10.89776
G1 X136.948 Y117.508 E10.92577
G1 X138.652 Y117.508 E10.99670
G1 X140.253 Y116.926 E11.06763
G1 X140.371 Y116.827 E11.07403
G1 X152.900 Y116.827 E11.59559
G1 X152.900 Y120.077 E11.73088
G1 X149.599 Y120.077 E11.86830
G1 X149.599 Y121.977 E11.94740
G1 X144.401 Y121.977 E12.16375
G1 X144.401 Y120.077 E12.24284
G1 X137.831 Y120.077 E12.51633
G1 X135.515 Y119.710 E12.61397
G1 X133.453 Y118.659 E12.71028
G1 X131.817 Y117.023 E12.80659
G1 X130.767 Y114.962 E12.90291
G1 X130.405 Y112.677 E12.99922
G1 X130.767 Y110.391 E13.09553
G1 X131.743 Y108.477 E13.18499
G1 X103.520 Y108.477 E14.35983
G1 F600.000 E12.35983
G92 E0
G1 X140.531 Y118.767 F9000.000
G1 F600.000 E2.00000
G1 X140.078 Y118.314 F1440.000 E2.02754
G1 X141.023 Y118.136 E2.06885
G1 X141.654 Y118.767 E2.10722
G1 X142.147 Y118.136 E2.14163
G1 X142.778 Y118.767 E2.18000
G1 X143.271 Y118.136 E2.21442
G1 X143.903 Y118.767 E2.25279
G1 X144.394 Y118.136 E2.28717
G1 X145.026 Y118.767 E2.32554
G1 X145.518 Y118.136 E2.35996
G1 X146.150 Y118.767 E2.39832
G1 X145.710 Y118.328 F9000.000
G1 X148.050 Y120.667 F1440.000 E2.54050
G1 X148.290 Y119.783 E2.57988
G1 X146.643 Y118.136 E2.67995
G1 X147.766 Y118.135 E2.72823
G1 X148.399 Y118.767 E2.76664
G1 X148.890 Y118.136 E2.80102
G1 X149.521 Y118.767 E2.83939
G1 X150.014 Y118.136 E2.87380
G1 X150.646 Y118.767 E2.91217
G1 X151.139 Y118.136 E2.94659
G1 X151.591 Y118.589 E2.97409
G1 F600.000 E0.97409
G92 E0
G1 X146.926 Y120.667 F9000.000
G1 F600.000 E2.00000
G1 X145.710 Y119.452 F1440.000 E2.07386
G1 F600.000 E0.07386
G92 E0
G1 X140.531 Y107.039 F9000.000
G1 F600.000 E2.00000
G1 X140.078 Y106.586 F1440.000 E2.02710
G1 X141.184 Y106.586 E2.07392
G1 X141.815 Y107.218 E2.11172
G1 X142.290 Y106.586 E2.14516
G1 X142.921 Y107.218 E2.18297
G1 X143.396 Y106.586 E2.21641
G1 X144.027 Y107.218 E2.25422
G1 X144.502 Y106.586 E2.28766
G1 X145.133 Y107.218 E2.32546
G1 X145.608 Y106.586 E2.35890
G1 X146.239 Y107.218 E2.39671
G1 X146.714 Y106.585 E2.43019
G1 X147.346 Y107.217 E2.46800
G1 X147.820 Y106.585 E2.50144
G1 X148.452 Y107.217 E2.53925
G1 X148.926 Y106.585 E2.57269
G1 X149.557 Y107.217 E2.61049
G1 X150.032 Y106.585 E2.64393
G1 X150.663 Y107.217 E2.68174
G1 X151.138 Y106.585 E2.71518
G1 X151.591 Y107.039 E2.74232
G1 F600.000 E0.74232
G92 E0
G1 X135.521 Y107.039 F9000.000
G1 F600.000 E2.00000
G1 X135.069 Y106.586 F1440.000 E2.02671
G1 X133.981 Y106.585 E2.07213
G1 X134.742 Y107.347 E2.11708
G1 X134.150 Y107.844 F9000.000
G1 X133.684 Y107.378 F1440.000 E2.14458
G1 X133.474 Y107.167 F9000.000
G1 X132.892 Y106.585 F1440.000 E2.17893
G1 X132.385 Y107.167 E2.21114
G1 X131.803 Y106.585 E2.24549
G1 X131.296 Y107.167 E2.27770
G1 X130.714 Y106.585 E2.31204
G1 X130.207 Y107.167 E2.34426
G1 X129.625 Y106.585 E2.37860
G1 X129.118 Y107.167 E2.41082
G1 X128.536 Y106.585 E2.44516
G1 X128.029 Y107.167 E2.47737
G1 X127.447 Y106.585 E2.51172
G1 X126.940 Y107.167 E2.54393
G1 X126.358 Y106.585 E2.57828
G1 X125.851 Y107.167 E2.61049
G1 X125.270 Y106.586 E2.64480
G1 X124.762 Y107.167 E2.67701
G1 X124.181 Y106.586 E2.71131
G1 X123.673 Y107.167 E2.74352
G1 X123.092 Y106.586 E2.77783
G1 X122.584 Y107.167 E2.81004
G1 X122.003 Y106.586 E2.84434
G1 X121.495 Y107.167 E2.87655
G1 X120.914 Y106.586 E2.91086
G1 X120.406 Y107.167 E2.94307
G1 X119.825 Y106.586 E2.97739
G1 X119.317 Y107.168 E3.00960
G1 X118.736 Y106.586 E3.04392
G1 X118.229 Y107.168 E3.07613
G1 X117.647 Y106.586 E3.11045
G1 X117.140 Y107.168 E3.14266
G1 X116.558 Y106.586 E3.17699
G1 X116.051 Y107.168 E3.20920
G1 X115.469 Y106.586 E3.24352
G1 X114.962 Y107.168 E3.27573
G1 X114.380 Y106.586 E3.31005
G1 X113.873 Y107.168 E3.34226
G1 X113.291 Y106.586 E3.37659
G1 X112.784 Y107.168 E3.40880
G1 X112.202 Y106.586 E3.44312
G1 X111.695 Y107.168 E3.47533
G1 X111.113 Y106.586 E3.50965
G1 X110.606 Y107.168 E3.54186
G1 X110.025 Y106.586 E3.57618
G1 X109.517 Y107.168 E3.60839
G1 X108.936 Y106.586 E3.64272
G1 X108.428 Y107.168 E3.67493
G1 X107.847 Y106.586 E3.70925
G1 X107.340 Y107.167 E3.74142
G1 X106.759 Y106.586 E3.77574
G1 X106.251 Y107.167 E3.80795
G1 X105.670 Y106.586 E3.84227
G1 X104.710 Y106.714 E3.88270
G1 X105.162 Y107.167 E3.90942
G1 F600.000 E1.90942
G92 E0
G1 X79.783 Y118.276 F9000.000
G1 F600.000 E2.00000
G1 X81.487 Y118.276 F1080.000 E2.07093
G1 X83.635 Y117.494 E2.16608
G1 X83.635 Y117.594 E2.17025
G1 X94.832 Y117.594 E2.63635
G1 X94.832 Y119.309 E2.70772
G1 X91.531 Y119.309 E2.84514
G1 X91.531 Y121.209 E2.92423
G1 X87.869 Y121.209 E3.07666
G1 X87.869 Y119.309 E3.15576
G1 X80.592 Y119.309 E3.45869
G1 X79.783 Y119.181 E3.49276
G1 X79.783 Y118.396 E3.52543
G1 F600.000 E1.52543
G92 E0
G1 X46.868 Y107.709 F9000.000
G1 F600.000 E2.00000
G1 X46.868 Y106.044 F1080.000 E2.06928
G1 X94.832 Y106.044 E4.06592
G1 X94.832 Y107.759 E4.13729
G1 X83.360 Y107.759 E4.61484
G1 X81.487 Y107.077 E4.69781
G1 X79.513 Y107.077 E4.78000
G1 X77.657 Y107.753 E4.86221
G1 X76.144 Y109.022 E4.94441
G1 X76.026 Y109.227 E4.95428
G1 X76.026 Y109.227 E4.95428
G1 X75.157 Y110.732 E5.02661
G1 X75.116 Y110.966 E5.03648
G1 X75.116 Y110.966 E5.03648
G1 X74.814 Y112.677 E5.10881
G1 X75.116 Y114.388 E5.18114
G1 X75.116 Y114.388 E5.18114
G1 X75.157 Y114.621 E5.19101
G1 X76.144 Y116.331 E5.27321
G1 X77.612 Y117.563 E5.35299
G1 X77.612 Y117.563 E5.35299
G1 X77.657 Y117.601 E5.35541
G1 X79.513 Y118.276 E5.43761
G1 X79.513 Y118.276 E5.43761
G1 X80.613 Y118.677 E5.48637
G1 X80.456 Y119.287 E5.51262
G1 X78.455 Y118.970 E5.59694
G1 X76.610 Y118.030 E5.68313
G1 X75.146 Y116.566 E5.76932
G1 X74.206 Y114.722 E5.85550
G1 X73.882 Y112.677 E5.94169
G1 X74.206 Y110.632 E6.02788
G1 X75.696 Y107.709 E6.16443
G1 X46.988 Y107.709 E7.35946
G1 X46.100 Y108.477 F9000.000
G1 X46.100 Y105.277 F1080.000 E7.49267
G1 X95.600 Y105.277 E9.55324
G1 X95.600 Y108.527 E9.68853
G1 X83.071 Y108.527 E10.21008
G1 X82.953 Y108.428 E10.21648
G1 X81.352 Y107.845 E10.28741
G1 X79.648 Y107.845 E10.35834
G1 X78.047 Y108.428 E10.42927
G1 X76.742 Y109.523 E10.50020
G1 X75.890 Y110.999 E10.57113
G1 X75.594 Y112.677 E10.64206
G1 X75.890 Y114.355 E10.71299
G1 X76.742 Y115.830 E10.78392
G1 X78.047 Y116.926 E10.85484
G1 X79.016 Y117.278 E10.89776
G1 X79.016 Y117.278 E10.89776
G1 X79.648 Y117.508 E10.92577
G1 X81.352 Y117.508 E10.99670
G1 X82.953 Y116.926 E11.06763
G1 X83.071 Y116.827 E11.07403
G1 X95.600 Y116.827 E11.59559
G1 X95.600 Y120.077 E11.73088
G1 X92.299 Y120.077 E11.86830
G1 X92.299 Y121.977 E11.94740
G1 X87.101 Y121.977 E12.16375
G1 X87.101 Y120.077 E12.24284
G1 X80.531 Y120.077 E12.51633
G1 X78.215 Y119.710 E12.61397
G1 X76.153 Y118.659 E12.71028
G1 X74.517 Y117.023 E12.80659
G1 X73.467 Y114.962 E12.90291
G1 X73.105 Y112.677 E12.99922
G1 X73.467 Y110.391 E13.09553
G1 X74.443 Y108.477 E13.18499
G1 X46.220 Y108.477 E14.35983
G1 F600.000 E12.35983
G92 E0
G1 X83.231 Y118.767 F9000.000
G1 F600.000 E2.00000
G1 X82.778 Y118.314 F1440.000 E2.02754
G1 X83.723 Y118.136 E2.06885
G1 X84.354 Y118.767 E2.10722
G1 X84.847 Y118.136 E2.14163
G1 X85.478 Y118.767 E2.18000
G1 X85.971 Y118.136 E2.21442
G1 X86.603 Y118.767 E2.25279
G1 X87.094 Y118.136 E2.28717
G1 X87.726 Y118.767 E2.32554
G1 X88.218 Y118.136 E2.35996
G1 X88.850 Y118.767 E2.39832
G1 X88.410 Y118.328 F9000.000
G1 X90.750 Y120.667 F1440.000 E2.54050
G1 X90.990 Y119.783 E2.57988
G1 X89.343 Y118.136 E2.67995
G1 X90.466 Y118.135 E2.72823
G1 X91.099 Y118.767 E2.76664
G1 X91.590 Y118.136 E2.80102
G1 X92.221 Y118.767 E2.83939
G1 X92.714 Y118.136 E2.87380
G1 X93.346 Y118.767 E2.91217
G1 X93.839 Y118.136 E2.94659
G1 X94.291 Y118.589 E2.97409
G1 F600.000 E0.97409
G92 E0
G1 X89.626 Y120.667 F9000.000
G1 F600.000 E2.00000
G1 X88.410 Y119.452 F1440.000 E2.07386
G1 F600.000 E0.07386
G92 E0
G1 X83.231 Y107.039 F9000.000
G1 F600.000 E2.00000
G1 X82.778 Y106.586 F1440.000 E2.02710
G1 X83.884 Y106.586 E2.07392
G1 X84.515 Y107.218 E2.11172
G1 X84.990 Y106.586 E2.14516
G1 X85.621 Y107.218 E2.18297
G1 X86.096 Y106.586 E2.21641
G1 X86.727 Y107.218 E2.25422
G1 X87.202 Y106.586 E2.28766
G1 X87.833 Y107.218 E2.32546
G1 X88.308 Y106.586 E2.35890
G1 X88.939 Y107.218 E2.39671
G1 X89.414 Y106.585 E2.43019
G1 X90.046 Y107.217 E2.46800
G1 X90.520 Y106.585 E2.50144
G1 X91.152 Y107.217 E2.53925
G1 X91.626 Y106.585 E2.57269
G1 X92.257 Y107.217 E2.61049
G1 X92.732 Y106.585 E2.64393
G1 X93.363 Y107.217 E2.68174
G1 X93.838 Y106.585 E2.71518
G1 X94.291 Y107.039 E2.74232
G1 F600.000 E0.74232
G92 E0
G1 X78.221 Y107.039 F9000.000
G1 F600.000 E2.00000
G1 X77.769 Y106.586 F1440.000 E2.02671
G1 X76.681 Y106.585 E2.07213
G1 X77.442 Y107.347 E2.11708
G1 X76.850 Y107.844 F9000.000
G1 X76.384 Y107.378 F1440.000 E2.14458
G1 X76.174 Y107.167 F9000.000
G1 X75.592 Y106.585 F1440.000 E2.17893
G1 X75.085 Y107.167 E2.21114
G1 X74.503 Y106.585 E2.24549
G1 X73.996 Y107.167 E2.27770
G1 X73.414 Y106.585 E2.31204
G1 X72.907 Y107.167 E2.34426
G1 X72.325 Y106.585 E2.37860
G1 X71.818 Y107.167 E2.41082
G1 X71.236 Y106.585 E2.44516
G1 X70.729 Y107.167 E2.47737
G1 X70.147 Y106.585 E2.51172
G1 X69.640 Y107.167 E2.54393
G1 X69.058 Y106.585 E2.57828
G1 X68.551 Y107.167 E2.61049
G1 X67.970 Y106.586 E2.64480
G1 X67.462 Y107.167 E2.67701
G1 X66.881 Y106.586 E2.71131
G1 X66.373 Y107.167 E2.74352
G1 X65.792 Y106.586 E2.77783
G1 X65.284 Y107.167 E2.81004
G1 X64.703 Y106.586 E2.84434
G1 X64.195 Y107.167 E2.87655
G1 X63.614 Y106.586 E2.91086
G1 X63.106 Y107.167 E2.94307
G1 X62.525 Y106.586 E2.97739
G1 X62.017 Y107.168 E3.00960
G1 X61.436 Y106.586 E3.04392
G1 X60.929 Y107.168 E3.07613
G1 X60.347 Y106.586 E3.11045
G1 X59.840 Y107.168 E3.14266
G1 X59.258 Y106.586 E3.17699
G1 X58.751 Y107.168 E3.20920
G1 X58.169 Y106.586 E3.24352
G1 X57.662 Y107.168 E3.27573
G1 X57.080 Y106.586 E3.31005
G1 X56.573 Y107.168 E3.34226
G1 X55.991 Y106.586 E3.37659
G1 X55.484 Y107.168 E3.40880
G1 X54.902 Y106.586 E3.44312
G1 X54.395 Y107.168 E3.47533
G1 X53.813 Y106.586 E3.50965
G1 X53.306 Y107.168 E3.54186
G1 X52.725 Y106.586 E3.57618
G1 X52.217 Y107.168 E3.60839
G1 X51.636 Y106.586 E3.64272
G1 X51.128 Y107.168 E3.67493
G1 X50.547 Y106.586 E3.70925
G1 X50.040 Y107.167 E3.74142
G1 X49.459 Y106.586 E3.77574
G1 X48.951 Y107.167 E3.80795
G1 X48.370 Y106.586 E3.84227
G1 X47.410 Y106.714 E3.88270
G1 X47.862 Y107.167 E3.90942
G1 F600.000 E1.90942
G92 E0
G1 X137.083 Y143.776 F9000.000
G1 F600.000 E2.00000
G1 X138.787 Y143.776 F1080.000 E2.07093
G1 X140.935 Y142.994 E2.16608
G1 X140.935 Y143.094 E2.17025
G1 X152.132 Y143.094 E2.63635
G1 X152.132 Y144.809 E2.70772
G1 X148.831 Y144.809 E2.84514
G1 X148.831 Y146.709 E2.92423
G1 X145.169 Y146.709 E3.07666
G1 X145.169 Y144.809 E3.15576
G1 X137.892 Y144.809 E3.45869
G1 X137.083 Y144.681 E3.49276
G1 X137.083 Y143.896 E3.52543
G1 F600.000 E1.52543
G92 E0
G1 X104.168 Y133.209 F9000.000
G1 F600.000 E2.00000
G1 X104.168 Y131.544 F1080.000 E2.06928
G1 X152.132 Y131.544 E4.06592
G1 X152.132 Y133.259 E4.13729
G1 X140.660 Y133.259 E4.61484
G1 X138.787 Y132.577 E4.69781
G1 X136.813 Y132.577 E4.78000
G1 X134.957 Y133.253 E4.86221
G1 X133.444 Y134.522 E4.94441
G1 X133.326 Y134.727 E4.95428
