; generated by Slic3r 0.9.1 on 2012-11-04 at 12:15:42

; layer_height = 0.4
; perimeters = 2
; solid_layers = 1
; fill_density = 0.2
; perimeter_speed = 60
; infill_speed = 80
; travel_speed = 150
; scale = 1
; nozzle_diameter = 0.5
; filament_diameter = 3
; extrusion_multiplier = 1
; single wall width = 0.53mm
; first layer single wall width = 0.80mm

M107
M106 ; Make sure fan is on
G28 X Y; go home
G92 Z0 E0 ; reset extruder distance to zero
G1 Z20 F1100 ;  go up 20 mm
G1 E20 F100 ; extrude 20 mm filament
G4 S5 ; pause for 5 seconds, give user time to wipe
G1 Z0 F1100 ; go back to zero
G92 E0 ; reset extruder distance to zero
G90 ; use absolute coordinates
G21 ; set units to millimeters
G92 E0
M82 ; use absolute distances for extrusion
G1 Z0.400 F9000.000
G1 X69.870 Y47.710
G1 F600.000 E2.00000
G1 X70.260 Y47.330 F1080.000 E2.02267
G1 X70.680 Y46.990 E2.04516
G1 X71.130 Y46.680 E2.06791
G1 X71.600 Y46.410 E2.09047
G1 X72.100 Y46.170 E2.11356
G1 X72.610 Y45.980 E2.13621
G1 X73.130 Y45.830 E2.15874
G1 X73.660 Y45.720 E2.18128
G1 X74.210 Y45.650 E2.20436
G1 X74.750 Y45.630 E2.22685
G1 X125.790 Y45.650 E4.35152
G1 X126.340 Y45.720 E4.37460
G1 X126.870 Y45.830 E4.39713
G1 X127.390 Y45.980 E4.41966
G1 X127.900 Y46.170 E4.44232
G1 X128.400 Y46.410 E4.46540
G1 X128.870 Y46.680 E4.48797
G1 X129.320 Y46.990 E4.51072
G1 X129.740 Y47.330 E4.53321
G1 X130.320 Y47.910 E4.56735
G1 X130.660 Y48.330 E4.58985
G1 X130.970 Y48.780 E4.61260
G1 X131.240 Y49.250 E4.63516
G1 X131.480 Y49.750 E4.65825
G1 X131.670 Y50.260 E4.68090
G1 X131.820 Y50.780 E4.70343
G1 X131.930 Y51.310 E4.72596
G1 X132.000 Y51.860 E4.74904
G1 X132.000 Y146.240 E8.67785
G1 X131.830 Y147.300 E8.72254
G1 X131.680 Y147.820 E8.74507
G1 X131.490 Y148.330 E8.76773
G1 X131.130 Y149.050 E8.80123
G1 X130.690 Y149.730 E8.83495
G1 X130.170 Y150.350 E8.86864
G1 X129.780 Y150.730 E8.89130
G1 X129.370 Y151.070 E8.91347
G1 X128.930 Y151.380 E8.93588
G1 X128.460 Y151.660 E8.95865
G1 X123.380 Y153.910 E9.18994
G1 X123.090 Y154.020 E9.20285
G1 X122.490 Y154.190 E9.22881
G1 X121.560 Y154.340 E9.26802
G1 X120.940 Y154.370 E9.29386
G1 X115.440 Y154.360 E9.52281
G1 X115.130 Y154.340 E9.53574
G1 X114.510 Y154.250 E9.56182
G1 X114.210 Y154.190 E9.57456
G1 X105.020 Y151.560 E9.97247
G1 X71.970 Y138.260 E11.45548
G1 X71.470 Y138.010 E11.47875
G1 X70.770 Y137.570 E11.51317
G1 X70.130 Y137.040 E11.54776
G1 X69.740 Y136.640 E11.57102
G1 X69.390 Y136.220 E11.59378
G1 X69.220 Y135.990 E11.60568
G1 X68.780 Y135.290 E11.64010
G1 X68.540 Y134.790 E11.66319
G1 X68.340 Y134.270 E11.68638
G1 X68.120 Y133.470 E11.72092
G1 X68.030 Y132.920 E11.74412
G1 X68.000 Y132.640 E11.75584
G1 X68.000 Y51.860 E15.11851
G1 X68.070 Y51.310 E15.14159
G1 X68.180 Y50.780 E15.16413
G1 X68.330 Y50.260 E15.18666
G1 X68.520 Y49.750 E15.20931
G1 X68.760 Y49.250 E15.23240
G1 X69.030 Y48.780 E15.25496
G1 X69.340 Y48.330 E15.27771
G1 X69.680 Y47.910 E15.30020
G1 X69.787 Y47.797 E15.30669
G1 F600.000 E13.30669
G92 E0
G1 X75.518 Y105.832 F9000.000
G1 F600.000 E2.00000
G1 X75.518 Y104.168 F1080.000 E2.06928
G1 X124.482 Y104.168 E4.10755
G1 X124.482 Y105.882 E4.17892
G1 X113.142 Y105.882 E4.65098
G1 X111.311 Y105.216 E4.73209
G1 X108.989 Y105.216 E4.82875
G1 X108.760 Y105.299 E4.83891
G1 X108.760 Y105.299 E4.83891
G1 X106.807 Y106.010 E4.92541
G1 X105.028 Y107.502 E5.02207
G1 X104.906 Y107.714 E5.03223
G1 X104.906 Y107.714 E5.03223
G1 X103.867 Y109.513 E5.11872
G1 X103.464 Y111.800 E5.21538
G1 X103.867 Y114.087 E5.31204
G1 X104.906 Y115.886 E5.39853
G1 X104.906 Y115.886 E5.39853
G1 X105.028 Y116.098 E5.40870
G1 X106.807 Y117.590 E5.50535
G1 X108.989 Y118.384 E5.60201
G1 X111.311 Y118.384 E5.69867
G1 X113.142 Y117.718 E5.77978
G1 X124.482 Y117.718 E6.25185
G1 X124.482 Y119.432 E6.32321
G1 X120.181 Y119.432 E6.50226
G1 X120.181 Y121.332 E6.58136
G1 X116.519 Y121.332 E6.73379
G1 X116.519 Y119.432 E6.81288
G1 X110.242 Y119.432 E7.07418
G1 X107.796 Y119.045 E7.17727
G1 X105.672 Y117.963 E7.27648
G1 X103.987 Y116.278 E7.37569
G1 X102.905 Y114.154 E7.47491
G1 X102.532 Y111.800 E7.57412
G1 X102.905 Y109.446 E7.67333
G1 X104.747 Y105.832 E7.84217
G1 X75.638 Y105.832 E9.05389
G1 X74.750 Y106.600 F9000.000
G1 X74.750 Y103.400 F1080.000 E9.18710
G1 X125.250 Y103.400 E11.28929
G1 X125.250 Y106.650 E11.42458
G1 X113.007 Y106.650 E11.93424
G1 X111.176 Y105.984 E12.01535
G1 X109.124 Y105.984 E12.10074
G1 X107.197 Y106.685 E12.18613
G1 X105.626 Y108.004 E12.27151
G1 X104.600 Y109.780 E12.35690
G1 X104.244 Y111.800 E12.44228
G1 X104.600 Y113.820 E12.52767
G1 X105.626 Y115.596 E12.61306
G1 X107.197 Y116.915 E12.69844
G1 X109.124 Y117.616 E12.78383
G1 X111.176 Y117.616 E12.86921
G1 X113.007 Y116.950 E12.95033
G1 X125.250 Y116.950 E13.45999
G1 X125.250 Y120.200 E13.59528
G1 X120.949 Y120.200 E13.77433
G1 X120.949 Y122.100 E13.85342
G1 X115.751 Y122.100 E14.06978
G1 X115.751 Y120.200 E14.14887
G1 X110.181 Y120.200 E14.38073
G1 X107.556 Y119.784 E14.49139
G1 X105.216 Y118.592 E14.60073
G1 X103.358 Y116.734 E14.71006
G1 X102.166 Y114.394 E14.81940
G1 X101.755 Y111.800 E14.92874
G1 X102.166 Y109.206 E15.03807
G1 X103.494 Y106.600 E15.15982
G1 X74.870 Y106.600 E16.35135
G1 F600.000 E14.35135
G92 E0
G1 X113.013 Y118.891 F9000.000
G1 F600.000 E2.00000
G1 X112.560 Y118.438 F1440.000 E2.02721
G1 X113.492 Y118.259 E2.06756
G1 X114.124 Y118.890 E2.10552
G1 X114.603 Y118.259 E2.13919
G1 X115.234 Y118.891 E2.17715
G1 X115.713 Y118.259 E2.21083
G1 X116.345 Y118.891 E2.24879
G1 X116.824 Y118.259 E2.28251
G1 X117.456 Y118.891 E2.32047
G1 X117.061 Y118.496 F9000.000
G1 X119.356 Y120.790 F1440.000 E2.45840
G1 X119.639 Y119.964 F9000.000
G1 X117.935 Y118.259 F1440.000 E2.56088
G1 X119.045 Y118.260 E2.60808
G1 X119.676 Y118.891 E2.64604
G1 X120.156 Y118.259 E2.67976
G1 X120.788 Y118.891 E2.71772
G1 X121.266 Y118.259 F9000.000
G1 X121.898 Y118.891 F1440.000 E2.75571
G1 X122.378 Y118.259 E2.78944
G1 X123.009 Y118.890 E2.82739
G1 X123.488 Y118.259 E2.86107
G1 X123.941 Y118.712 E2.88831
G1 F600.000 E0.88831
G92 E0
G1 X118.245 Y120.791 F9000.000
G1 F600.000 E2.00000
G1 X117.060 Y119.607 F1440.000 E2.07118
G1 F600.000 E0.07118
G92 E0
G1 X113.013 Y105.162 F9000.000
G1 F600.000 E2.00000
G1 X112.560 Y104.709 F1440.000 E2.02681
G1 X113.653 Y104.709 E2.07257
G1 X114.284 Y105.340 E2.10997
G1 X114.745 Y104.709 E2.14269
G1 X115.377 Y105.341 E2.18009
G1 X115.838 Y104.709 E2.21285
G1 X116.470 Y105.341 E2.25024
G1 X116.931 Y104.709 E2.28300
G1 X117.563 Y105.341 E2.32040
G1 X118.024 Y104.709 E2.35316
G1 X118.656 Y105.340 E2.39055
G1 X119.117 Y104.709 E2.42327
G1 X119.748 Y105.341 E2.46067
G1 X120.210 Y104.709 E2.49342
G1 X120.841 Y105.341 E2.53082
G1 X121.303 Y104.709 E2.56358
G1 X121.934 Y105.341 E2.60097
G1 X122.395 Y104.710 E2.63369
G1 X123.026 Y105.341 E2.67109
G1 X123.488 Y104.709 E2.70385
G1 X123.941 Y105.162 E2.73066
G1 F600.000 E0.73066
G92 E0
G1 X107.740 Y105.162 F9000.000
G1 F600.000 E2.00000
G1 X107.288 Y104.709 F1440.000 E2.02741
G1 X106.168 Y104.709 E2.07538
G1 X106.919 Y105.461 E2.12090
G1 X106.239 Y105.900 F9000.000
G1 X105.572 Y105.233 F1440.000 E2.16131
G1 X105.629 Y105.291 F9000.000
G1 X105.048 Y104.709 F1440.000 E2.19653
G1 X104.509 Y105.291 E2.23047
G1 X103.928 Y104.709 E2.26569
G1 X103.389 Y105.291 E2.29964
G1 X102.808 Y104.709 E2.33486
G1 X102.269 Y105.291 E2.36880
G1 X101.688 Y104.709 E2.40402
G1 X101.149 Y105.291 E2.43796
G1 X100.568 Y104.710 E2.47318
G1 X100.029 Y105.291 E2.50713
G1 X99.448 Y104.710 E2.54235
G1 X98.910 Y105.290 E2.57625
G1 X98.329 Y104.709 E2.61147
G1 X97.790 Y105.291 E2.64541
G1 X97.209 Y104.709 E2.68063
G1 X96.670 Y105.291 E2.71457
G1 X96.089 Y104.709 E2.74980
G1 X95.550 Y105.291 E2.78374
G1 X94.969 Y104.709 E2.81896
G1 X94.430 Y105.291 E2.85291
G1 X93.849 Y104.709 E2.88813
G1 X93.310 Y105.291 E2.92207
G1 X92.729 Y104.709 E2.95729
G1 X92.190 Y105.291 E2.99123
G1 X91.609 Y104.709 E3.02645
G1 X91.070 Y105.291 E3.06040
G1 X90.489 Y104.710 E3.09562
G1 X89.951 Y105.290 E3.12952
G1 X89.370 Y104.709 E3.16474
G1 X88.831 Y105.291 E3.19868
G1 X88.250 Y104.709 E3.23390
G1 X87.711 Y105.291 E3.26784
G1 X87.130 Y104.709 E3.30306
G1 X86.591 Y105.291 E3.33701
G1 X86.010 Y104.709 E3.37223
G1 X85.471 Y105.291 E3.40617
G1 X84.890 Y104.709 E3.44139
G1 X84.351 Y105.291 E3.47533
G1 X83.770 Y104.709 E3.51055
G1 X83.231 Y105.291 E3.54450
G1 X82.650 Y104.709 E3.57972
G1 X82.111 Y105.291 E3.61366
G1 X81.530 Y104.710 E3.64888
G1 X80.991 Y105.291 E3.68282
G1 X80.410 Y104.710 E3.71805
G1 X79.872 Y105.290 E3.75195
G1 X79.290 Y104.709 E3.78717
G1 X78.752 Y105.291 E3.82111
G1 X78.170 Y104.709 E3.85633
G1 X77.632 Y105.291 E3.89027
G1 X77.050 Y104.709 E3.92549
G1 X76.059 Y104.838 E3.96830
G1 X76.512 Y105.291 E3.99572
G1 F600.000 E1.99572
G92 E0
G1 X75.518 Y80.332 F9000.000
G1 F600.000 E2.00000
G1 X75.518 Y78.668 F1080.000 E2.06928
G1 X124.482 Y78.668 E4.10755
G1 X124.482 Y80.382 E4.17892
G1 X113.142 Y80.382 E4.65098
G1 X111.311 Y79.716 E4.73209
G1 X108.989 Y79.716 E4.82875
G1 X108.760 Y79.799 E4.83891
G1 X108.760 Y79.799 E4.83891
G1 X106.807 Y80.510 E4.92541
G1 X105.028 Y82.002 E5.02207
G1 X104.906 Y82.214 E5.03223
G1 X104.906 Y82.214 E5.03223
G1 X103.867 Y84.013 E5.11872
G1 X103.464 Y86.300 E5.21538
G1 X103.867 Y88.587 E5.31204
G1 X104.906 Y90.386 E5.39853
G1 X104.906 Y90.386 E5.39853
G1 X105.028 Y90.598 E5.40870
G1 X106.807 Y92.090 E5.50535
G1 X108.989 Y92.884 E5.60201
G1 X111.311 Y92.884 E5.69867
G1 X113.142 Y92.218 E5.77978
G1 X124.482 Y92.218 E6.25185
G1 X124.482 Y93.932 E6.32321
G1 X120.181 Y93.932 E6.50226
G1 X120.181 Y95.832 E6.58136
G1 X116.519 Y95.832 E6.73379
G1 X116.519 Y93.932 E6.81288
G1 X110.242 Y93.932 E7.07418
G1 X107.796 Y93.545 E7.17727
G1 X105.672 Y92.463 E7.27648
G1 X103.987 Y90.778 E7.37569
G1 X102.905 Y88.654 E7.47491
G1 X102.532 Y86.300 E7.57412
G1 X102.905 Y83.946 E7.67333
G1 X104.747 Y80.332 E7.84217
G1 X75.638 Y80.332 E9.05389
G1 X74.750 Y81.100 F9000.000
G1 X74.750 Y77.900 F1080.000 E9.18710
G1 X125.250 Y77.900 E11.28929
G1 X125.250 Y81.150 E11.42458
G1 X113.007 Y81.150 E11.93424
G1 X111.176 Y80.484 E12.01535
G1 X109.124 Y80.484 E12.10074
G1 X107.197 Y81.185 E12.18613
G1 X105.626 Y82.504 E12.27151
G1 X104.600 Y84.280 E12.35690
G1 X104.244 Y86.300 E12.44228
G1 X104.600 Y88.320 E12.52767
G1 X105.626 Y90.096 E12.61306
G1 X107.197 Y91.415 E12.69844
G1 X109.124 Y92.116 E12.78383
G1 X111.176 Y92.116 E12.86921
G1 X113.007 Y91.450 E12.95033
G1 X125.250 Y91.450 E13.45999
G1 X125.250 Y94.700 E13.59528
G1 X120.949 Y94.700 E13.77433
G1 X120.949 Y96.600 E13.85342
G1 X115.751 Y96.600 E14.06978
G1 X115.751 Y94.700 E14.14887
G1 X110.181 Y94.700 E14.38073
G1 X107.556 Y94.284 E14.49139
G1 X105.216 Y93.092 E14.60073
G1 X103.358 Y91.234 E14.71006
G1 X102.166 Y88.894 E14.81940
G1 X101.755 Y86.300 E14.92874
G1 X102.166 Y83.706 E15.03807
G1 X103.494 Y81.100 E15.15982
G1 X74.870 Y81.100 E16.35135
G1 F600.000 E14.35135
G92 E0
G1 X113.013 Y93.391 F9000.000
G1 F600.000 E2.00000
G1 X112.560 Y92.938 F1440.000 E2.02721
G1 X113.492 Y92.759 E2.06756
G1 X114.124 Y93.390 E2.10552
G1 X114.603 Y92.759 E2.13919
G1 X115.234 Y93.391 E2.17715
G1 X115.713 Y92.759 E2.21083
G1 X116.345 Y93.391 E2.24879
G1 X116.824 Y92.759 E2.28251
G1 X117.456 Y93.391 E2.32047
G1 X117.061 Y92.996 F9000.000
G1 X119.356 Y95.290 F1440.000 E2.45840
G1 X119.639 Y94.464 F9000.000
G1 X117.935 Y92.759 F1440.000 E2.56088
G1 X119.045 Y92.760 E2.60808
G1 X119.676 Y93.391 E2.64604
G1 X120.156 Y92.759 E2.67976
G1 X120.788 Y93.391 E2.71772
G1 X121.266 Y92.759 F9000.000
G1 X121.898 Y93.391 F1440.000 E2.75571
G1 X122.378 Y92.759 E2.78944
G1 X123.009 Y93.390 E2.82739
G1 X123.488 Y92.759 E2.86107
G1 X123.941 Y93.212 E2.88831
G1 F600.000 E0.88831
G92 E0
G1 X118.245 Y95.291 F9000.000
G1 F600.000 E2.00000
G1 X117.060 Y94.107 F1440.000 E2.07118
G1 F600.000 E0.07118
G92 E0
G1 X113.013 Y79.662 F9000.000
G1 F600.000 E2.00000
G1 X112.560 Y79.209 F1440.000 E2.02681
G1 X113.653 Y79.209 E2.07257
G1 X114.284 Y79.840 E2.10997
G1 X114.745 Y79.209 E2.14269
G1 X115.377 Y79.841 E2.18009
G1 X115.838 Y79.209 E2.21285
G1 X116.470 Y79.841 E2.25024
G1 X116.931 Y79.209 E2.28300
G1 X117.563 Y79.841 E2.32040
G1 X118.024 Y79.209 E2.35316
G1 X118.656 Y79.840 E2.39055
G1 X119.117 Y79.209 E2.42327
G1 X119.748 Y79.841 E2.46067
G1 X120.210 Y79.209 E2.49342
G1 X120.841 Y79.841 E2.53082
G1 X121.303 Y79.209 E2.56358
G1 X121.934 Y79.841 E2.60097
G1 X122.395 Y79.210 E2.63369
G1 X123.026 Y79.841 E2.67109
G1 X123.488 Y79.209 E2.70385
G1 X123.941 Y79.662 E2.73066
G1 F600.000 E0.73066
G92 E0
G1 X107.740 Y79.662 F9000.000
G1 F600.000 E2.00000
G1 X107.288 Y79.209 F1440.000 E2.02741
G1 X106.168 Y79.209 E2.07538
G1 X106.919 Y79.961 E2.12090
G1 X106.239 Y80.400 F9000.000
G1 X105.572 Y79.733 F1440.000 E2.16131
G1 X105.629 Y79.791 F9000.000
G1 X105.048 Y79.209 F1440.000 E2.19653
G1 X104.509 Y79.791 E2.23047
G1 X103.928 Y79.209 E2.26569
G1 X103.389 Y79.791 E2.29964
G1 X102.808 Y79.209 E2.33486
G1 X102.269 Y79.791 E2.36880
G1 X101.688 Y79.209 E2.40402
G1 X101.149 Y79.791 E2.43796
G1 X100.568 Y79.210 E2.47318
G1 X100.029 Y79.791 E2.50713
G1 X99.448 Y79.210 E2.54235
G1 X98.910 Y79.790 E2.57625
G1 X98.329 Y79.209 E2.61147
G1 X97.790 Y79.791 E2.64541
G1 X97.209 Y79.209 E2.68063
G1 X96.670 Y79.791 E2.71457
G1 X96.089 Y79.209 E2.74980
G1 X95.550 Y79.791 E2.78374
G1 X94.969 Y79.209 E2.81896
G1 X94.430 Y79.791 E2.85291
G1 X93.849 Y79.209 E2.88813
G1 X93.310 Y79.791 E2.92207
G1 X92.729 Y79.209 E2.95729
G1 X92.190 Y79.791 E2.99123
G1 X91.609 Y79.209 E3.02645
G1 X91.070 Y79.791 E3.06040
G1 X90.489 Y79.210 E3.09562
G1 X89.951 Y79.790 E3.12952
G1 X89.370 Y79.209 E3.16474
G1 X88.831 Y79.791 E3.19868
G1 X88.250 Y79.209 E3.23390
G1 X87.711 Y79.791 E3.26784
G1 X87.130 Y79.209 E3.30306
G1 X86.591 Y79.791 E3.33701
G1 X86.010 Y79.209 E3.37223
G1 X85.471 Y79.791 E3.40617
G1 X84.890 Y79.209 E3.44139
G1 X84.351 Y79.791 E3.47533
G1 X83.770 Y79.209 E3.51055
G1 X83.231 Y79.791 E3.54450
G1 X82.650 Y79.209 E3.57972
G1 X82.111 Y79.791 E3.61366
G1 X81.530 Y79.210 E3.64888
G1 X80.991 Y79.791 E3.68282
G1 X80.410 Y79.210 E3.71805
G1 X79.872 Y79.790 E3.75195
G1 X79.290 Y79.209 E3.78717
G1 X78.752 Y79.791 E3.82111
G1 X78.170 Y79.209 E3.85633
G1 X77.632 Y79.791 E3.89027
G1 X77.050 Y79.209 E3.92549
G1 X76.059 Y79.338 E3.96830
G1 X76.512 Y79.791 E3.99572
G1 F600.000 E1.99572
G92 E0
G1 X75.518 Y131.332 F9000.000
G1 F600.000 E2.00000
G1 X75.518 Y129.668 F1080.000 E2.06928
G1 X124.482 Y129.668 E4.10755
G1 X124.482 Y131.382 E4.17892
G1 X113.142 Y131.382 E4.65098
G1 X111.311 Y130.716 E4.73209
G1 X108.989 Y130.716 E4.82875
G1 X108.760 Y130.799 E4.83891
G1 X108.760 Y130.799 E4.83891
G1 X106.807 Y131.510 E4.92541
G1 X105.028 Y133.002 E5.02207
G1 X104.906 Y133.214 E5.03223
G1 X104.906 Y133.214 E5.03223
G1 X103.867 Y135.013 E5.11872
G1 X103.464 Y137.300 E5.21538
G1 X103.867 Y139.587 E5.31204
G1 X104.906 Y141.386 E5.39853
G1 X104.906 Y141.386 E5.39853
G1 X105.028 Y141.598 E5.40870
G1 X106.807 Y143.090 E5.50535
G1 X108.989 Y143.884 E5.60201
G1 X111.311 Y143.884 E5.69867
G1 X113.142 Y143.218 E5.77978
G1 X124.482 Y143.218 E6.25185
G1 X124.482 Y144.932 E6.32321
G1 X120.181 Y144.932 E6.50226
G1 X120.181 Y146.832 E6.58136
G1 X116.519 Y146.832 E6.73379
G1 X116.519 Y144.932 E6.81288
G1 X110.242 Y144.932 E7.07418
G1 X107.796 Y144.545 E7.17727
G1 X105.672 Y143.463 E7.27648
G1 X103.987 Y141.778 E7.37569
G1 X102.905 Y139.654 E7.47491
G1 X102.532 Y137.300 E7.57412
G1 X102.905 Y134.946 E7.67333
G1 X104.747 Y131.332 E7.84217
G1 X75.638 Y131.332 E9.05389
G1 X74.750 Y132.100 F9000.000
G1 X74.750 Y128.900 F1080.000 E9.18710
G1 X125.250 Y128.900 E11.28929
G1 X125.250 Y132.150 E11.42458
G1 X113.007 Y132.150 E11.93424
G1 X111.176 Y131.484 E12.01535
G1 X109.124 Y131.484 E12.10074
G1 X107.197 Y132.185 E12.18613
G1 X105.626 Y133.504 E12.27151
G1 X104.600 Y135.280 E12.35690
G1 X104.244 Y137.300 E12.44228
G1 X104.600 Y139.320 E12.52767
G1 X105.626 Y141.096 E12.61306
G1 X107.197 Y142.415 E12.69844
G1 X109.124 Y143.116 E12.78383
G1 X111.176 Y143.116 E12.86921
G1 X113.007 Y142.450 E12.95033
G1 X125.250 Y142.450 E13.45999
G1 X125.250 Y145.700 E13.59528
G1 X120.949 Y145.700 E13.77433
G1 X120.949 Y147.600 E13.85342
