; generated by Slic3r 0.9.1 on 2012-08-25 at 15:08:09

; layer_height = 0.2
; perimeters = 3
; solid_layers = 1
; fill_density = 0.3
; perimeter_speed = 40
; infill_speed = 100
; travel_speed = 100
; scale = 1
; nozzle_diameter = 0.5
; filament_diameter = 3
; extrusion_multiplier = 1
; single wall width = 0.70mm
; first layer single wall width = 0.40mm

M107
G28 ; go home
G92 E0 ; reset extruder distance to zero
G1 Z20 F300 ;  go up 20 mm
G1 E20 F100 ; extrude 20 mm filament
G4 S5 ; pause for 5 seconds, give user time to wipe
; G1 Z0 F300 ; go back to zero
G1 X40 Y40 F3000 ; go inside the plate printable area
M107 ; Make sure fan is off
G90 ; use absolute coordinates
G21 ; set units to millimeters
G92 E0
M82 ; use absolute distances for extrusion
G1 Z0.200 F6000.000
G1 X58.064 Y57.707
G1 F1800.000 E2.00000
G1 X58.424 Y57.357 F960.000 E2.00599
G1 X60.244 Y55.867 E2.03404
G1 X60.484 Y55.697 E2.03754
G1 X61.004 Y55.387 E2.04476
G1 X61.554 Y55.117 E2.05207
G1 X89.994 Y42.997 E2.42073
G1 X90.504 Y42.827 E2.42714
G1 X90.764 Y42.757 E2.43035
G1 X93.954 Y42.147 E2.46908
G1 X94.254 Y42.107 E2.47269
G1 X94.844 Y42.077 E2.47973
G1 X95.144 Y42.077 E2.48331
G1 X95.444 Y42.097 E2.48689
G1 X96.034 Y42.177 E2.49399
G1 X96.324 Y42.237 E2.49752
G1 X99.584 Y43.147 E2.53789
G1 X100.324 Y43.397 E2.54720
G1 X128.674 Y55.227 E2.91352
G1 X129.224 Y55.517 E2.92094
G1 X129.744 Y55.867 E2.92841
G1 X131.564 Y57.357 E2.95646
G1 X132.094 Y57.887 E2.96540
G1 X133.604 Y59.727 E2.99378
G1 X133.964 Y60.287 E3.00172
G1 X134.124 Y60.577 E3.00567
G1 X134.404 Y61.187 E3.01368
G1 X146.794 Y92.847 E3.41910
G1 X147.074 Y93.777 E3.43068
G1 X147.514 Y95.747 E3.45475
G1 X147.584 Y96.227 E3.46054
G1 X147.684 Y98.837 E3.49168
G1 X147.674 Y99.157 E3.49550
G1 X147.644 Y99.477 E3.49933
G1 X147.074 Y102.167 E3.53212
G1 X146.884 Y102.747 E3.53940
G1 X146.644 Y103.307 E3.54667
G1 X133.794 Y126.677 E3.86470
G1 X133.204 Y127.557 E3.87734
G1 X131.894 Y129.207 E3.90246
G1 X131.474 Y129.647 E3.90971
G1 X131.014 Y130.047 E3.91698
G1 X128.454 Y131.727 E3.95350
G1 X100.554 Y146.767 E4.33146
G1 X99.964 Y147.017 E4.33910
G1 X99.664 Y147.117 E4.34288
G1 X96.044 Y147.847 E4.38691
G1 X95.744 Y147.887 E4.39052
G1 X95.154 Y147.917 E4.39757
G1 X94.854 Y147.917 E4.40114
G1 X94.554 Y147.897 E4.40473
G1 X93.964 Y147.817 E4.41183
G1 X93.664 Y147.757 E4.41548
G1 X90.144 Y146.767 E4.45908
G1 X89.634 Y146.577 E4.46557
G1 X89.134 Y146.347 E4.47213
G1 X62.014 Y132.007 E4.83796
G1 X59.224 Y130.237 E4.87737
G1 X58.514 Y129.657 E4.88830
G1 X58.094 Y129.217 E4.89555
G1 X56.784 Y127.557 E4.92077
G1 X56.194 Y126.677 E4.93340
G1 X43.344 Y103.307 E5.25144
G1 X42.994 Y102.437 E5.26262
G1 X42.454 Y100.077 E5.29149
G1 X42.354 Y99.477 E5.29874
G1 X42.324 Y99.167 E5.30246
G1 X42.374 Y96.487 E5.33442
G1 X42.474 Y95.727 E5.34356
G1 X42.944 Y93.657 E5.36888
G1 X43.224 Y92.747 E5.38023
G1 X55.714 Y60.877 E5.78842
G1 X56.024 Y60.287 E5.79637
G1 X56.194 Y60.007 E5.80027
G1 X57.894 Y57.887 E5.83268
G1 X58.023 Y57.750 E5.83491
G1 F1800.000 E3.83491
G92 E0
G1 X72.823 Y122.414 F6000.000
G1 F1800.000 E2.00000
G1 X73.282 Y120.364 F960.000 E2.02505
G1 X73.117 Y117.302 E2.06162
G1 X72.165 Y114.634 E2.09541
G1 X72.165 Y114.634 E2.09541
G1 X70.919 Y111.329 E2.13752
G1 X70.632 Y107.785 E2.17993
G1 X71.496 Y105.264 E2.21170
G1 X74.329 Y102.383 E2.25988
G1 X82.813 Y97.059 E2.37933
G1 X83.704 Y95.577 E2.39995
G1 X82.573 Y94.390 E2.41950
G1 X80.521 Y93.761 E2.44509
G1 X76.415 Y93.707 E2.49406
G1 X73.639 Y94.139 E2.52756
G1 X71.106 Y94.878 E2.55903
G1 X69.424 Y95.681 E2.58125
G1 X64.535 Y100.409 E2.66235
G1 X64.268 Y100.148 E2.66681
G1 X65.464 Y98.805 E2.68825
G1 X67.209 Y96.589 E2.72189
G1 X69.266 Y94.624 E2.75582
G1 X69.266 Y94.612 E2.75596
G1 X71.663 Y92.986 E2.79049
G1 X74.145 Y91.683 E2.82392
G1 X76.933 Y90.517 E2.85996
G1 X80.560 Y89.421 E2.90514
G1 X80.935 Y89.367 E2.90966
G1 X80.935 Y89.367 E2.90966
G1 X83.134 Y89.048 E2.93616
G1 X83.449 Y87.566 E2.95422
G1 X81.816 Y86.537 E2.97724
G1 X81.536 Y86.443 E2.98076
G1 X81.536 Y86.443 E2.98076
G1 X78.345 Y85.377 E3.02088
G1 X78.255 Y85.327 E3.02211
G1 X78.255 Y85.327 E3.02211
G1 X74.880 Y83.465 E3.06807
G1 X72.807 Y81.925 E3.09887
G1 X71.792 Y79.534 E3.12984
G1 X71.652 Y77.428 E3.15501
G1 X72.322 Y75.067 E3.18427
G1 X72.918 Y72.448 E3.21631
G1 X72.918 Y72.448 E3.21631
G1 X73.325 Y70.952 E3.23480
G1 X73.690 Y71.035 E3.23927
G1 X73.426 Y72.494 E3.25695
G1 X73.459 Y77.259 E3.31377
G1 X74.005 Y79.176 E3.33754
G1 X74.005 Y79.176 E3.33754
G1 X74.018 Y79.223 E3.33813
G1 X75.288 Y80.606 E3.36052
G1 X76.683 Y81.309 E3.37914
G1 X78.934 Y81.804 E3.40663
G1 X78.934 Y81.804 E3.40663
G1 X79.482 Y81.925 E3.41332
G1 X79.482 Y81.801 E3.41480
G1 X81.435 Y81.788 E3.43809
G1 X81.435 Y81.806 E3.43831
G1 X85.873 Y81.652 E3.49126
G1 X87.079 Y81.472 E3.50580
G1 X87.079 Y81.878 E3.51064
G1 X88.288 Y81.293 E3.52666
G1 X88.288 Y81.293 E3.52666
G1 X90.852 Y80.051 E3.56064
G1 X93.127 Y78.715 E3.59209
G1 X93.127 Y78.715 E3.59209
G1 X94.392 Y77.987 E3.60950
G1 X94.392 Y77.987 E3.60950
G1 X95.075 Y77.597 E3.61888
G1 X95.449 Y77.352 E3.62421
G1 X95.449 Y77.352 E3.62421
G1 X98.300 Y75.486 E3.66485
G1 X100.046 Y72.561 E3.70547
G1 X99.837 Y70.000 E3.73611
G1 X99.229 Y68.153 E3.75930
G1 X98.665 Y67.652 E3.76830
G1 X98.665 Y67.652 E3.76830
G1 X97.521 Y66.635 E3.78655
G1 X97.402 Y66.555 E3.78825
G1 X97.402 Y66.555 E3.78825
G1 X96.492 Y65.950 E3.80128
G1 X96.508 Y65.935 E3.80155
G1 X91.327 Y63.065 E3.87218
G1 X89.563 Y61.335 E3.90164
G1 X88.600 Y59.120 E3.93044
G1 X88.339 Y57.017 E3.95571
G1 X88.339 Y57.017 E3.95571
G1 X88.308 Y56.769 E3.95869
G1 X88.461 Y55.736 E3.97115
G1 X88.821 Y55.766 E3.97547
G1 X88.799 Y56.736 E3.98704
G1 X89.248 Y58.433 E4.00797
G1 X90.463 Y60.020 E4.03180
G1 X92.357 Y61.736 E4.06227
G1 X97.260 Y63.984 E4.12660
G1 X99.216 Y65.047 E4.15315
G1 X101.426 Y66.554 E4.18504
G1 X103.629 Y68.977 E4.22410
G1 X104.447 Y72.107 E4.26267
G1 X104.251 Y75.512 E4.30334
G1 X103.575 Y78.421 E4.33896
G1 X104.223 Y80.055 E4.35992
G1 X107.947 Y81.716 E4.40854
G1 X111.240 Y82.090 E4.44806
G1 X111.756 Y81.966 E4.45439
G1 X111.756 Y81.966 E4.45439
G1 X113.396 Y81.572 E4.47451
G1 X114.703 Y80.846 E4.49233
G1 X115.960 Y79.479 E4.51448
G1 X116.519 Y77.488 E4.53914
G1 X116.545 Y72.532 E4.59823
G1 X116.285 Y71.003 E4.61673
G1 X116.652 Y70.923 E4.62120
G1 X118.326 Y77.630 E4.70364
G1 X118.185 Y79.800 E4.72957
G1 X117.185 Y82.271 E4.76136
G1 X115.477 Y83.864 E4.78921
G1 X112.212 Y85.582 E4.83321
G1 X108.276 Y86.526 E4.88147
G1 X106.567 Y87.537 E4.90515
G1 X106.865 Y89.047 E4.92352
G1 X109.440 Y89.421 E4.95454
G1 X113.067 Y90.517 E4.99972
G1 X115.855 Y91.683 E5.03576
G1 X118.337 Y92.986 E5.06919
G1 X120.691 Y94.583 E5.10310
G1 X122.791 Y96.589 E5.13774
G1 X124.536 Y98.805 E5.17138
G1 X125.732 Y100.148 E5.19282
G1 X125.465 Y100.409 E5.19727
G1 X122.392 Y97.424 E5.24836
G1 X122.408 Y97.408 E5.24862
G1 X120.576 Y95.681 E5.27865
G1 X118.894 Y94.878 E5.30087
G1 X116.361 Y94.139 E5.33234
G1 X116.170 Y94.109 E5.33464
G1 X116.170 Y94.109 E5.33464
G1 X113.585 Y93.707 E5.36584
G1 X110.581 Y93.747 E5.40167
G1 X110.581 Y93.423 E5.40553
G1 X107.427 Y94.391 E5.44487
G1 X106.296 Y95.577 E5.46441
G1 X107.187 Y97.059 E5.48504
G1 X115.671 Y102.383 E5.60448
G1 X118.504 Y105.264 E5.65267
G1 X119.368 Y107.785 E5.68444
G1 X119.081 Y111.329 E5.72685
G1 X116.883 Y117.302 E5.80274
G1 X116.718 Y120.364 E5.83931
G1 X117.177 Y122.414 E5.86436
G1 X116.899 Y122.523 E5.86793
G1 X116.514 Y121.859 E5.87708
G1 X115.963 Y120.257 E5.89728
G1 X116.029 Y117.319 E5.93232
G1 X116.647 Y114.311 E5.96894
G1 X117.338 Y111.785 E6.00018
G1 X117.338 Y111.785 E6.00018
G1 X117.490 Y111.230 E6.00703
G1 X117.726 Y106.863 E6.05919
G1 X117.382 Y106.863 E6.06329
G1 X116.531 Y105.029 E6.08739
G1 X114.351 Y103.500 E6.11915
G1 X114.351 Y103.479 E6.11941
G1 X112.329 Y102.778 E6.14493
G1 X111.145 Y102.705 E6.15908
G1 X111.145 Y102.490 E6.16163
G1 X110.182 Y102.645 E6.17326
G1 X110.182 Y102.645 E6.17326
G1 X107.623 Y103.057 E6.20417
G1 X104.169 Y104.971 E6.25126
G1 X103.204 Y106.894 E6.27691
G1 X100.559 Y111.143 E6.33660
G1 X99.859 Y111.759 E6.34772
G1 X99.853 Y111.756 E6.34780
G1 X98.829 Y112.672 E6.36418
G1 X95.122 Y113.653 E6.40991
G1 X93.498 Y118.752 E6.47373
G1 X93.604 Y120.869 E6.49900
G1 X93.604 Y120.869 E6.49900
G1 X93.629 Y121.355 E6.50480
G1 X94.733 Y123.910 E6.53799
G1 X95.880 Y125.550 E6.56186
G1 X98.328 Y127.115 E6.59651
G1 X100.393 Y128.892 E6.62899
G1 X101.403 Y130.997 E6.65684
G1 X101.691 Y133.271 E6.68418
G1 X101.538 Y134.299 E6.69656
G1 X101.178 Y134.268 E6.70087
G1 X101.201 Y133.277 E6.71270
G1 X101.099 Y132.900 E6.71735
G1 X101.099 Y132.900 E6.71735
G1 X100.746 Y131.593 E6.73350
G1 X99.460 Y130.002 E6.75789
G1 X99.296 Y129.859 E6.76048
G1 X99.296 Y129.859 E6.76048
G1 X97.268 Y128.089 E6.79258
G1 X95.153 Y126.968 E6.82113
G1 X92.961 Y125.384 E6.85338
G1 X91.500 Y123.504 E6.88178
G1 X90.215 Y121.271 E6.91250
G1 X89.509 Y119.001 E6.94085
G1 X89.315 Y115.551 E6.98205
G1 X89.805 Y112.577 E7.01800
G1 X87.757 Y108.923 E7.06795
G1 X87.490 Y106.604 E7.09578
G1 X85.679 Y104.571 E7.12826
G1 X82.783 Y103.254 E7.16619
G1 X82.783 Y103.122 E7.16776
G1 X79.819 Y102.645 E7.20356
G1 X79.398 Y102.671 E7.20859
G1 X79.398 Y102.671 E7.20859
G1 X77.671 Y102.778 E7.22922
G1 X75.710 Y103.458 E7.25398
G1 X73.469 Y105.029 E7.28662
G1 X72.191 Y107.783 E7.32282
G1 X72.324 Y107.783 E7.32441
G1 X72.510 Y111.230 E7.36558
G1 X73.353 Y114.311 E7.40367
G1 X73.971 Y117.319 E7.44029
G1 X74.037 Y120.257 E7.47533
G1 X73.486 Y121.859 E7.49553
G1 X73.101 Y122.523 E7.50468
G1 X72.878 Y122.436 E7.50753
G1 X72.440 Y122.046 F6000.000
G1 X72.515 Y121.908 F960.000 E7.50940
G1 X72.869 Y120.330 E7.52869
G1 X72.710 Y117.384 E7.56387
G1 X70.515 Y111.421 E7.63965
G1 X70.216 Y107.733 E7.68377
G1 X71.138 Y105.043 E7.71768
G1 X74.069 Y102.062 E7.76752
G1 X74.132 Y102.022 E7.76842
G1 X74.132 Y102.022 E7.76842
G1 X82.516 Y96.755 E7.88650
G1 X83.191 Y95.633 E7.90210
G1 X82.350 Y94.752 E7.91663
G1 X80.457 Y94.171 E7.94024
G1 X76.444 Y94.119 E7.98810
G1 X73.729 Y94.541 E8.02087
G1 X71.253 Y95.263 E8.05163
G1 X69.659 Y96.024 E8.07269
G1 X64.694 Y100.822 E8.15502
G1 X62.676 Y102.484 E8.18620
G1 X61.057 Y103.457 E8.20872
G1 X58.814 Y104.256 E8.23712
G1 X57.469 Y104.595 E8.25366
G1 X54.849 Y104.525 E8.28492
G1 X53.411 Y104.179 E8.30255
G1 X51.829 Y103.367 E8.32375
G1 X50.636 Y102.372 E8.34228
G1 X49.500 Y100.341 E8.37004
G1 X49.137 Y98.697 E8.39011
G1 X49.190 Y96.976 E8.41064
G1 X49.560 Y95.346 E8.43058
G1 X50.397 Y93.953 E8.44995
G1 X51.505 Y92.865 E8.46847
G1 X53.406 Y91.984 E8.49346
G1 X53.578 Y92.300 E8.49775
G1 X52.151 Y93.200 E8.51788
G1 X51.076 Y94.178 E8.53520
G1 X51.043 Y94.178 E8.53559
G1 X50.200 Y95.668 E8.55601
G1 X49.800 Y96.936 E8.57187
G1 X49.689 Y98.282 E8.58797
G1 X49.931 Y99.626 E8.60426
G1 X49.931 Y99.626 E8.60426
G1 X49.937 Y99.655 E8.60461
G1 X49.947 Y99.655 E8.60473
G1 X50.989 Y101.754 E8.63268
G1 X52.253 Y102.739 E8.65178
G1 X52.839 Y103.084 E8.65990
G1 X52.839 Y103.084 E8.65990
G1 X53.477 Y103.458 E8.66872
G1 X54.717 Y103.808 E8.68408
G1 X56.610 Y103.895 E8.70667
G1 X56.734 Y103.870 E8.70818
G1 X56.734 Y103.870 E8.70818
G1 X57.771 Y103.659 E8.72080
G1 X59.093 Y103.217 E8.73742
G1 X59.093 Y103.316 E8.73860
G1 X61.230 Y102.165 E8.76756
G1 X63.384 Y100.523 E8.79986
G1 X65.149 Y98.541 E8.83150
G1 X66.904 Y96.312 E8.86533
G1 X69.050 Y94.262 E8.90073
G1 X71.451 Y92.633 E8.93532
G1 X73.970 Y91.311 E8.96925
G1 X76.794 Y90.130 E9.00575
G1 X80.470 Y89.019 E9.05154
G1 X80.524 Y89.011 E9.05219
G1 X80.524 Y89.011 E9.05219
G1 X82.792 Y88.682 E9.07952
G1 X82.988 Y87.760 E9.09076
G1 X81.639 Y86.911 E9.10976
G1 X78.179 Y85.754 E9.15326
G1 X74.657 Y83.811 E9.20123
G1 X72.473 Y82.188 E9.23369
G1 X71.387 Y79.631 E9.26682
G1 X71.238 Y77.384 E9.29367
G1 X71.924 Y74.966 E9.32365
G1 X73.342 Y69.341 E9.39282
G1 X73.595 Y66.419 E9.42780
G1 X73.210 Y64.668 E9.44918
G1 X73.210 Y64.668 E9.44918
G1 X73.208 Y64.659 E9.44929
G1 X73.204 Y64.659 E9.44933
G1 X72.454 Y63.220 E9.46868
G1 X72.454 Y63.220 E9.46868
G1 X72.452 Y63.216 E9.46873
G1 X71.445 Y62.253 E9.48534
G1 X69.950 Y61.625 E9.50468
G1 X69.797 Y61.593 E9.50654
G1 X69.797 Y61.593 E9.50654
G1 X67.773 Y61.171 E9.53119
G1 X67.243 Y61.270 E9.53762
G1 X67.243 Y61.270 E9.53762
G1 X66.012 Y61.500 E9.55256
G1 X64.554 Y62.002 E9.57095
G1 X64.420 Y62.115 E9.57304
G1 X64.420 Y62.115 E9.57304
G1 X63.455 Y62.936 E9.58815
G1 X62.522 Y64.102 E9.60595
G1 X62.089 Y65.909 E9.62812
G1 X62.116 Y67.392 E9.64580
G1 X62.513 Y69.035 E9.66596
G1 X62.171 Y69.142 E9.67025
G1 X61.420 Y67.201 E9.69506
G1 X61.412 Y65.659 E9.71346
G1 X61.930 Y63.727 E9.73730
G1 X62.978 Y62.442 E9.75708
G1 X64.282 Y61.379 E9.77715
G1 X66.007 Y60.687 E9.79931
G1 X67.739 Y60.408 E9.82023
G1 X70.002 Y60.765 E9.84755
G1 X71.880 Y61.660 E9.87235
G1 X73.188 Y62.859 E9.89352
G1 X74.043 Y64.498 E9.91556
G1 X74.529 Y66.384 E9.93879
G1 X74.392 Y69.465 E9.97556
G1 X73.838 Y72.528 E10.01268
G1 X73.870 Y77.202 E10.06842
G1 X74.387 Y79.017 E10.09092
G1 X75.540 Y80.273 E10.11126
G1 X76.821 Y80.919 E10.12837
G1 X78.979 Y81.393 E10.15471
G1 X78.979 Y81.393 E10.15471
G1 X79.072 Y81.414 E10.15584
G1 X79.072 Y81.393 E10.15610
G1 X81.846 Y81.374 E10.18918
G1 X81.846 Y81.381 E10.18926
G1 X85.835 Y81.243 E10.23686
G1 X87.490 Y80.995 E10.25681
G1 X87.490 Y81.223 E10.25952
G1 X88.173 Y80.892 E10.26858
G1 X88.173 Y80.892 E10.26858
G1 X90.658 Y79.688 E10.30150
G1 X92.716 Y78.479 E10.32997
G1 X92.716 Y78.479 E10.32997
G1 X93.981 Y77.748 E10.34739
G1 X93.981 Y77.748 E10.34739
G1 X94.861 Y77.246 E10.35947
G1 X97.996 Y75.194 E10.40415
G1 X99.626 Y72.464 E10.44207
G1 X99.431 Y70.082 E10.47056
G1 X99.212 Y69.414 E10.47895
G1 X99.212 Y69.414 E10.47895
G1 X98.873 Y68.387 E10.49185
G1 X98.681 Y68.216 E10.49492
G1 X98.681 Y68.216 E10.49492
G1 X97.270 Y66.961 E10.51744
G1 X95.967 Y66.094 E10.53609
G1 X95.841 Y66.021 E10.53784
G1 X95.841 Y66.021 E10.53784
G1 X91.083 Y63.401 E10.60261
G1 X89.218 Y61.572 E10.63376
G1 X88.199 Y59.230 E10.66421
G1 X87.894 Y56.764 E10.69384
G1 X88.411 Y53.256 E10.73613
G1 X90.355 Y50.803 E10.77346
G1 X92.422 Y49.392 E10.80329
G1 X94.875 Y48.914 E10.83310
G1 X97.674 Y49.692 E10.86774
G1 X99.028 Y50.719 E10.88800
G1 X99.997 Y52.039 E10.90754
G1 X100.556 Y53.765 E10.92916
G1 X100.638 Y55.948 E10.95521
G1 X99.817 Y57.597 E10.97718
G1 X98.510 Y58.646 E10.99717
G1 X98.272 Y58.397 E11.00127
G1 X99.208 Y57.332 E11.01818
G1 X99.208 Y57.332 E11.01818
G1 X99.322 Y57.202 E11.02024
G1 X99.995 Y55.740 E11.03943
G1 X99.995 Y55.740 E11.03943
G1 X100.088 Y55.538 E11.04209
G1 X100.039 Y54.302 E11.05684
G1 X100.039 Y54.302 E11.05684
G1 X100.013 Y53.666 E11.06443
G1 X99.424 Y52.501 E11.07999
G1 X98.453 Y51.304 E11.09838
G1 X98.453 Y51.275 E11.09872
G1 X96.880 Y50.371 E11.12036
G1 X94.864 Y49.947 E11.14493
G1 X94.864 Y49.934 E11.14508
G1 X92.518 Y50.365 E11.17351
G1 X90.411 Y51.821 E11.20405
G1 X89.266 Y54.288 E11.23648
G1 X89.211 Y56.688 E11.26511
G1 X89.624 Y58.249 E11.28437
G1 X90.766 Y59.741 E11.30677
G1 X92.586 Y61.389 E11.33605
G1 X97.444 Y63.617 E11.39978
G1 X99.431 Y64.696 E11.42674
G1 X101.698 Y66.242 E11.45946
G1 X104.001 Y68.776 E11.50030
G1 X104.861 Y72.066 E11.54085
G1 X104.679 Y75.232 E11.57866
G1 X104.679 Y75.232 E11.57866
G1 X104.659 Y75.571 E11.58271
G1 X104.004 Y78.389 E11.61721
G1 X104.543 Y79.748 E11.63465
G1 X108.057 Y81.315 E11.68052
G1 X108.473 Y81.363 E11.68553
G1 X108.473 Y81.363 E11.68553
G1 X111.214 Y81.674 E11.71842
G1 X113.246 Y81.186 E11.74333
G1 X114.445 Y80.519 E11.75970
G1 X115.591 Y79.273 E11.77989
G1 X116.108 Y77.433 E11.80268
G1 X116.134 Y72.564 E11.86074
G1 X115.608 Y69.468 E11.89818
G1 X115.471 Y66.384 E11.93500
G1 X115.957 Y64.498 E11.95823
G1 X116.812 Y62.859 E11.98027
G1 X118.120 Y61.660 E12.00143
G1 X119.998 Y60.765 E12.02624
G1 X122.261 Y60.408 E12.05355
G1 X122.731 Y60.484 E12.05923
G1 X122.731 Y60.484 E12.05923
G1 X123.993 Y60.687 E12.07448
G1 X125.718 Y61.379 E12.09664
G1 X127.022 Y62.442 E12.11671
G1 X128.070 Y63.727 E12.13648
G1 X128.444 Y65.119 E12.15367
G1 X128.444 Y65.119 E12.15367
G1 X128.588 Y65.659 E12.16033
G1 X128.580 Y67.201 E12.17872
G1 X127.829 Y69.142 E12.20354
