; generated by Slic3r 0.9.1 on 2012-08-26 at 15:41:39

; layer_height = 0.3
; perimeters = 1
; solid_layers = 1
; fill_density = 0.3
; perimeter_speed = 40
; infill_speed = 100
; travel_speed = 100
; scale = 1
; nozzle_diameter = 0.5
; filament_diameter = 3
; extrusion_multiplier = 1
; single wall width = 0.70mm
; first layer single wall width = 0.60mm

M107
G28 ; go home
G92 E0 ; reset extruder distance to zero
G1 Z20 F300 ;  go up 20 mm
G1 E20 F100 ; extrude 20 mm filament
G4 S5 ; pause for 5 seconds, give user time to wipe
; G1 Z0 F300 ; go back to zero
G92 E0 ; reset extruder distance to zero
M107 ; Make sure fan is off
G90 ; use absolute coordinates
G21 ; set units to millimeters
G92 E0
M82 ; use absolute distances for extrusion
G1 Z0.400 F6000.000
G1 X58.004 Y57.657
G1 F1800.000 E2.00000
G1 X58.384 Y57.287 F960.000 E2.01302
G1 X60.194 Y55.817 E2.07028
G1 X60.704 Y55.467 E2.08546
G1 X61.244 Y55.177 E2.10051
G1 X89.924 Y42.947 E2.86608
G1 X90.364 Y42.797 E2.87749
G1 X93.924 Y42.067 E2.96672
G1 X94.234 Y42.027 E2.97440
G1 X94.844 Y41.997 E2.98939
G1 X95.764 Y42.057 E3.01203
G1 X96.364 Y42.167 E3.02701
G1 X99.584 Y43.067 E3.10910
G1 X100.344 Y43.327 E3.12883
G1 X128.704 Y55.157 E3.88333
G1 X128.984 Y55.297 E3.89102
G1 X129.534 Y55.627 E3.90677
G1 X129.794 Y55.807 E3.91453
G1 X131.604 Y57.287 E3.97194
G1 X132.164 Y57.847 E3.99139
G1 X133.634 Y59.637 E4.04826
G1 X133.804 Y59.877 E4.05548
G1 X134.244 Y60.637 E4.07704
G1 X146.864 Y92.827 E4.92601
G1 X147.144 Y93.757 E4.94986
G1 X147.634 Y95.947 E5.00496
G1 X147.704 Y96.707 E5.02370
G1 X147.764 Y98.837 E5.07602
G1 X147.714 Y99.507 E5.09252
G1 X147.604 Y100.167 E5.10895
G1 X147.134 Y102.197 E5.16011
G1 X146.944 Y102.787 E5.17533
G1 X146.834 Y103.067 E5.18272
G1 X146.704 Y103.347 E5.19030
G1 X133.854 Y126.717 E5.84515
G1 X133.274 Y127.607 E5.87123
G1 X131.984 Y129.237 E5.92227
G1 X131.314 Y129.907 E5.94554
G1 X131.074 Y130.107 E5.95321
G1 X128.514 Y131.787 E6.02839
G1 X100.514 Y146.847 E6.80904
G1 X100.214 Y146.987 E6.81717
G1 X99.904 Y147.107 E6.82533
G1 X99.264 Y147.297 E6.84172
G1 X96.054 Y147.917 E6.92200
G1 X95.754 Y147.957 E6.92943
G1 X95.144 Y147.987 E6.94443
G1 X94.234 Y147.927 E6.96682
G1 X93.634 Y147.817 E6.98180
G1 X90.154 Y146.857 E7.07044
G1 X89.614 Y146.657 E7.08458
G1 X61.964 Y132.077 E7.85210
G1 X59.174 Y130.287 E7.93349
G1 X58.684 Y129.907 E7.94872
G1 X58.454 Y129.697 E7.95636
G1 X58.034 Y129.257 E7.97130
G1 X56.734 Y127.627 E8.02249
G1 X56.134 Y126.717 E8.04926
G1 X43.284 Y103.347 E8.70411
G1 X43.034 Y102.767 E8.71962
G1 X42.844 Y102.167 E8.73507
G1 X42.324 Y99.817 E8.79417
G1 X42.234 Y98.857 E8.81784
G1 X42.284 Y96.747 E8.86967
G1 X42.354 Y95.967 E8.88889
G1 X42.394 Y95.707 E8.89535
G1 X42.844 Y93.757 E8.94449
G1 X43.124 Y92.827 E8.96834
G1 X55.744 Y60.637 E9.81731
G1 X56.184 Y59.877 E9.83887
G1 X56.354 Y59.637 E9.84609
G1 X57.824 Y57.847 E9.90296
G1 X57.943 Y57.722 E9.90718
G1 F1800.000 E7.90718
G92 E0
G1 X101.015 Y135.768 F6000.000
G1 F1800.000 E2.00000
G1 X101.434 Y135.894 F720.000 E2.01074
G1 X101.325 Y136.628 E2.02896
G1 X100.835 Y137.246 E2.04833
G1 X100.441 Y137.004 E2.05968
G1 X100.977 Y135.850 E2.09092
G1 F1800.000 E0.09092
G92 E0
G1 X71.880 Y123.660 F6000.000
G1 F1800.000 E2.00000
G1 X72.752 Y122.056 F960.000 E2.04482
G1 X72.752 Y122.056 E2.04482
G1 X72.778 Y122.007 E2.04620
G1 X73.100 Y120.574 E2.08225
G1 X73.100 Y120.574 E2.08225
G1 X73.149 Y120.353 E2.08781
G1 X72.986 Y117.328 E2.16219
G1 X70.789 Y111.359 E2.31838
G1 X70.498 Y107.768 E2.40684
G1 X71.381 Y105.193 E2.47367
G1 X74.245 Y102.280 E2.57399
G1 X79.382 Y99.007 E2.72355
G1 X79.382 Y99.007 E2.72355
G1 X82.718 Y96.961 E2.81963
G1 X83.539 Y95.595 E2.85877
G1 X82.501 Y94.507 E2.89569
G1 X80.501 Y93.893 E2.94707
G1 X76.425 Y93.840 E3.04717
G1 X76.163 Y93.880 E3.05366
G1 X76.163 Y93.880 E3.05366
G1 X73.668 Y94.268 E3.11566
G1 X71.153 Y95.002 E3.17998
G1 X69.500 Y95.791 E3.22498
G1 X64.627 Y100.504 E3.39143
G1 X64.627 Y100.504 E3.39143
G1 X64.511 Y100.612 E3.39532
G1 X63.906 Y101.110 E3.41455
G1 X63.557 Y100.747 E3.42691
G1 X65.362 Y98.720 E3.49355
G1 X67.111 Y96.500 E3.56294
G1 X67.224 Y96.392 E3.56677
G1 X67.224 Y96.392 E3.56677
G1 X69.226 Y94.479 E3.63477
G1 X71.595 Y92.873 E3.70505
G1 X74.089 Y91.563 E3.77422
G1 X76.889 Y90.392 E3.84873
G1 X80.531 Y89.292 E3.94216
G1 X83.024 Y88.930 E4.00401
G1 X83.300 Y87.628 E4.03669
G1 X81.726 Y86.636 E4.08239
G1 X81.714 Y86.642 E4.08272
G1 X78.292 Y85.498 E4.17131
G1 X74.808 Y83.577 E4.26900
G1 X72.699 Y82.010 E4.33351
G1 X71.661 Y79.565 E4.39871
G1 X71.519 Y77.414 E4.45165
G1 X72.194 Y75.035 E4.51238
G1 X72.826 Y72.254 E4.58239
G1 X72.829 Y72.254 E4.58245
G1 X73.496 Y69.831 E4.64418
G1 X74.021 Y69.950 E4.65739
G1 X73.676 Y71.855 E4.70493
G1 X73.676 Y71.855 E4.70493
G1 X73.559 Y72.505 E4.72113
G1 X73.591 Y77.240 E4.83742
G1 X74.137 Y79.157 E4.88634
G1 X75.270 Y80.390 E4.92747
G1 X75.270 Y80.449 E4.92890
G1 X76.727 Y81.183 E4.96898
G1 X78.245 Y81.517 E5.00714
G1 X78.245 Y81.517 E5.00714
G1 X78.949 Y81.672 E5.02483
G1 X82.070 Y81.651 E5.10146
G1 X82.070 Y81.652 E5.10147
G1 X85.861 Y81.520 E5.19461
G1 X88.253 Y81.163 E5.25399
G1 X88.545 Y81.021 E5.26197
G1 X88.545 Y81.021 E5.26197
G1 X90.789 Y79.934 E5.32321
G1 X95.006 Y77.484 E5.44295
G1 X98.202 Y75.392 E5.53674
G1 X99.911 Y72.530 E5.61860
G1 X99.706 Y70.027 E5.68026
G1 X99.114 Y68.228 E5.72675
G1 X97.440 Y66.740 E5.78176
G1 X96.566 Y66.158 E5.80755
G1 X96.566 Y66.158 E5.80755
G1 X96.115 Y65.858 E5.82085
G1 X91.249 Y63.173 E5.95732
G1 X89.452 Y61.411 E6.01911
G1 X88.471 Y59.156 E6.07950
G1 X88.175 Y56.767 E6.13859
G1 X88.455 Y54.865 E6.18580
G1 X88.973 Y54.909 E6.19856
G1 X88.932 Y56.721 E6.24306
G1 X89.369 Y58.374 E6.28505
G1 X90.561 Y59.930 E6.33317
G1 X92.430 Y61.624 E6.39512
G1 X94.674 Y62.662 E6.45581
G1 X94.674 Y62.662 E6.45581
G1 X97.319 Y63.866 E6.52719
G1 X99.285 Y64.934 E6.58212
G1 X101.513 Y66.454 E6.64834
G1 X103.749 Y68.913 E6.72994
G1 X104.580 Y72.094 E6.81068
G1 X104.411 Y75.035 E6.88300
G1 X104.411 Y75.035 E6.88300
G1 X104.382 Y75.531 E6.89521
G1 X103.714 Y78.406 E6.96768
G1 X103.714 Y78.406 E6.96768
G1 X103.567 Y79.039 E6.98363
G1 X103.962 Y79.039 E6.99334
G1 X104.326 Y79.956 E7.01757
G1 X107.883 Y81.543 E7.11321
G1 X107.883 Y81.543 E7.11321
G1 X108.880 Y81.988 E7.14001
G1 X108.880 Y81.689 E7.14734
G1 X111.231 Y81.956 E7.20545
G1 X111.516 Y81.888 E7.21262
G1 X111.516 Y81.888 E7.21262
G1 X113.348 Y81.448 E7.25889
G1 X113.831 Y81.179 E7.27247
G1 X113.831 Y81.179 E7.27247
G1 X114.620 Y80.740 E7.29463
G1 X115.835 Y79.419 E7.33871
G1 X115.835 Y79.419 E7.33871
G1 X115.841 Y79.412 E7.33893
G1 X116.387 Y77.470 E7.38847
G1 X116.413 Y72.543 E7.50946
G1 X115.967 Y69.920 E7.57478
G1 X116.493 Y69.806 E7.58798
G1 X118.460 Y77.616 E7.78574
G1 X118.316 Y79.830 E7.84021
G1 X117.296 Y82.348 E7.90692
G1 X115.400 Y84.117 E7.97059
G1 X115.359 Y84.076 E7.97202
G1 X112.259 Y85.707 E8.05803
G1 X108.326 Y86.650 E8.15732
G1 X106.715 Y87.603 E8.20330
G1 X106.977 Y88.930 E8.23652
G1 X109.469 Y89.292 E8.29835
G1 X113.111 Y90.392 E8.39179
G1 X115.911 Y91.563 E8.46630
G1 X118.405 Y92.873 E8.53546
G1 X120.774 Y94.479 E8.60574
G1 X122.889 Y96.500 E8.67757
G1 X124.638 Y98.720 E8.74696
G1 X126.443 Y100.747 E8.81361
G1 X126.094 Y101.110 E8.82596
G1 X125.489 Y100.612 E8.84519
G1 X120.500 Y95.791 E9.01553
G1 X118.847 Y95.002 E9.06053
G1 X116.332 Y94.268 E9.12485
G1 X116.087 Y94.230 E9.13093
G1 X116.087 Y94.230 E9.13093
G1 X113.575 Y93.840 E9.19335
G1 X109.499 Y93.893 E9.29344
G1 X108.843 Y94.094 E9.31030
G1 X108.843 Y94.094 E9.31030
G1 X107.499 Y94.507 E9.34482
G1 X106.461 Y95.595 E9.38174
G1 X107.282 Y96.961 E9.42088
G1 X115.755 Y102.280 E9.66652
G1 X118.619 Y105.193 E9.76683
G1 X119.390 Y107.443 E9.82524
G1 X119.390 Y107.443 E9.82524
G1 X119.502 Y107.768 E9.83366
G1 X119.211 Y111.359 E9.92212
G1 X118.346 Y113.633 E9.98186
G1 X118.346 Y113.633 E9.98186
G1 X117.014 Y117.328 E10.07832
G1 X116.885 Y119.722 E10.13718
G1 X116.885 Y119.722 E10.13718
G1 X116.851 Y120.353 E10.15270
G1 X117.221 Y122.007 E10.19431
G1 X118.120 Y123.660 E10.24051
G1 X117.800 Y123.914 E10.25055
G1 X117.291 Y123.464 E10.26726
G1 X116.393 Y121.914 E10.31123
G1 X115.831 Y120.278 E10.35370
G1 X115.897 Y117.304 E10.42674
G1 X116.518 Y114.281 E10.50254
G1 X117.275 Y111.516 E10.57293
G1 X117.275 Y111.516 E10.57293
G1 X117.359 Y111.209 E10.58073
G1 X117.558 Y107.517 E10.67153
G1 X117.558 Y107.517 E10.67153
G1 X117.582 Y107.075 E10.68239
G1 X117.335 Y107.075 E10.68846
G1 X116.426 Y105.117 E10.74145
G1 X116.095 Y104.885 E10.75139
G1 X116.095 Y104.885 E10.75139
G1 X114.229 Y103.576 E10.80734
G1 X113.991 Y103.494 E10.81354
G1 X113.991 Y103.494 E10.81354
G1 X112.303 Y102.908 E10.85741
G1 X110.187 Y102.778 E10.90945
G1 X107.667 Y103.184 E10.97213
G1 X106.878 Y103.621 E10.99429
G1 X106.878 Y103.621 E10.99429
G1 X104.269 Y105.067 E11.06752
G1 X103.320 Y106.957 E11.11946
G1 X102.350 Y108.579 E11.16585
G1 X102.350 Y108.579 E11.16585
G1 X100.659 Y111.231 E11.24309
G1 X98.895 Y112.791 E11.30090
G1 X95.227 Y113.763 E11.39409
G1 X93.631 Y118.770 E11.52313
G1 X93.730 Y120.725 E11.57118
G1 X93.730 Y120.725 E11.57118
G1 X93.760 Y121.324 E11.58592
G1 X94.849 Y123.845 E11.65335
G1 X95.973 Y125.453 E11.70152
G1 X95.995 Y125.466 E11.70215
G1 X95.995 Y125.466 E11.70215
G1 X98.407 Y127.009 E11.77245
G1 X100.500 Y128.809 E11.84024
G1 X101.532 Y130.959 E11.89879
G1 X101.825 Y133.273 E11.95605
G1 X101.543 Y135.161 E12.00294
G1 X101.026 Y135.117 E12.01568
G1 X101.062 Y133.576 E12.05354
G1 X101.062 Y133.576 E12.05354
G1 X101.068 Y133.293 E12.06049
G1 X100.701 Y131.931 E12.09512
G1 X100.701 Y131.931 E12.09512
G1 X100.626 Y131.654 E12.10215
G1 X99.365 Y130.094 E12.15142
G1 X97.193 Y128.199 E12.22219
G1 X95.083 Y127.081 E12.28082
G1 X92.868 Y125.480 E12.34793
G1 X91.390 Y123.578 E12.40708
G1 X90.093 Y121.324 E12.47093
G1 X89.378 Y119.025 E12.53005
G1 X89.226 Y116.332 E12.59628
G1 X89.226 Y116.332 E12.59628
G1 X89.182 Y115.544 E12.61566
G1 X89.667 Y112.601 E12.68888
G1 X89.297 Y111.956 E12.70716
G1 X89.297 Y111.956 E12.70716
G1 X87.904 Y109.464 E12.77724
G1 X87.904 Y109.464 E12.77724
G1 X87.628 Y108.964 E12.79127
G1 X87.364 Y106.661 E12.84819
G1 X86.160 Y105.309 E12.89264
G1 X86.160 Y105.309 E12.89264
G1 X85.599 Y104.680 E12.91334
G1 X82.297 Y103.178 E13.00239
G1 X79.813 Y102.778 E13.06419
G1 X77.697 Y102.908 E13.11623
G1 X75.771 Y103.576 E13.16630
G1 X75.533 Y103.743 E13.17342
G1 X75.533 Y103.743 E13.17342
G1 X73.574 Y105.117 E13.23218
G1 X72.444 Y107.552 E13.29810
G1 X72.590 Y110.254 E13.36455
G1 X72.590 Y110.254 E13.36455
G1 X72.641 Y111.209 E13.38802
G1 X73.482 Y114.281 E13.46621
G1 X74.103 Y117.304 E13.54201
G1 X74.169 Y120.278 E13.61505
G1 X73.759 Y121.472 E13.64604
G1 X73.759 Y121.472 E13.64604
G1 X73.607 Y121.914 E13.65752
G1 X72.709 Y123.464 E13.70149
G1 X72.200 Y123.914 E13.71820
G1 X71.950 Y123.716 E13.72603
G1 F1800.000 E11.72603
G92 E0
G1 X88.986 Y54.229 F6000.000
G1 F1800.000 E2.00000
G1 X88.568 Y54.104 F720.000 E2.01072
G1 X88.676 Y53.370 E2.02894
G1 X89.166 Y52.751 E2.04832
G1 X89.560 Y52.994 E2.05967
G1 X89.024 Y54.148 E2.09091
G1 X89.575 Y54.360 F6000.000
G1 X89.523 Y56.651 F960.000 E2.14717
G1 X89.909 Y58.109 E2.18422
G1 X90.996 Y59.529 E2.22813
G1 X92.759 Y61.127 E2.28656
G1 X97.583 Y63.338 E2.41684
G1 X99.593 Y64.431 E2.47301
G1 X101.903 Y66.006 E2.54167
G1 X104.282 Y68.623 E2.62853
G1 X105.174 Y72.035 E2.71511
G1 X104.968 Y75.615 E2.80316
G1 X104.329 Y78.364 E2.87246
G1 X104.329 Y78.364 E2.87246
G1 X104.309 Y78.449 E2.87461
G1 X104.362 Y78.449 E2.87592
G1 X104.786 Y79.516 E2.90409
G1 X108.291 Y81.080 E2.99833
G1 X108.291 Y81.029 E2.99957
G1 X111.195 Y81.359 E3.07133
G1 X113.132 Y80.894 E3.12025
G1 X113.242 Y80.832 E3.12334
G1 X113.242 Y80.832 E3.12334
G1 X114.251 Y80.272 E3.15168
G1 X115.312 Y79.117 E3.19018
G1 X115.797 Y77.391 E3.23420
G1 X115.823 Y72.588 E3.35214
G1 X115.299 Y69.501 E3.42902
G1 X115.158 Y66.352 E3.50643
G1 X115.665 Y64.386 E3.55628
G1 X116.561 Y62.667 E3.60388
G1 X117.945 Y61.400 E3.64994
G1 X119.905 Y60.465 E3.70327
G1 X122.261 Y60.093 E3.76184
G1 X124.076 Y60.386 E3.80698
G1 X125.877 Y61.108 E3.85462
G1 X127.243 Y62.222 E3.89788
G1 X128.353 Y63.582 E3.94101
G1 X128.899 Y65.619 E3.99278
G1 X128.890 Y67.260 E4.03308
G1 X128.225 Y68.982 E4.07841
G1 X126.794 Y70.782 E4.13487
G1 X124.851 Y71.653 E4.18715
G1 X124.410 Y71.667 E4.19797
G1 X124.410 Y71.667 E4.19797
G1 X122.319 Y71.730 E4.24934
G1 X121.148 Y71.106 E4.28194
G1 X121.337 Y70.650 E4.29406
G1 X122.432 Y70.988 E4.32218
G1 X124.216 Y70.701 E4.36657
G1 X124.216 Y70.784 E4.36859
G1 X124.514 Y70.646 E4.37664
G1 X124.514 Y70.646 E4.37664
G1 X126.173 Y69.882 E4.42150
G1 X127.297 Y68.496 E4.46531
G1 X127.574 Y67.352 E4.49421
G1 X127.599 Y65.943 E4.52881
G1 X127.192 Y64.241 E4.57178
G1 X126.321 Y63.154 E4.60599
G1 X125.797 Y62.708 E4.62289
G1 X125.797 Y62.708 E4.62289
G1 X125.290 Y62.277 E4.63924
G1 X123.908 Y61.801 E4.67511
G1 X123.772 Y61.776 E4.67851
G1 X123.772 Y61.776 E4.67851
G1 X122.230 Y61.488 E4.71703
G1 X122.029 Y61.530 E4.72207
G1 X122.029 Y61.530 E4.72207
G1 X120.143 Y61.923 E4.76938
G1 X118.729 Y62.518 E4.80705
G1 X117.800 Y63.405 E4.83859
G1 X117.085 Y64.777 E4.87658
G1 X116.719 Y66.439 E4.91837
G1 X116.917 Y68.735 E4.97495
G1 X116.917 Y68.735 E4.97495
G1 X116.965 Y69.285 E4.98850
G1 X118.955 Y77.201 E5.18893
G1 X118.955 Y77.201 E5.18893
G1 X119.054 Y77.554 E5.19793
G1 X118.898 Y79.963 E5.25720
G1 X117.793 Y82.690 E5.32944
G1 X115.898 Y84.458 E5.39308
G1 X112.468 Y86.263 E5.48826
G1 X108.550 Y87.202 E5.58719
G1 X107.373 Y87.898 E5.62074
G1 X107.474 Y88.407 E5.63349
G1 X109.597 Y88.715 E5.68616
G1 X113.311 Y89.837 E5.78142
G1 X116.162 Y91.030 E5.85731
G1 X118.708 Y92.366 E5.92792
G1 X121.145 Y94.019 E6.00023
G1 X123.326 Y96.103 E6.07428
G1 X125.090 Y98.341 E6.14426
G1 X126.828 Y100.294 E6.20844
G1 X128.939 Y101.903 E6.27361
G1 X130.546 Y102.769 E6.31845
G1 X132.310 Y103.358 E6.36410
G1 X132.403 Y103.377 E6.36643
G1 X132.403 Y103.377 E6.36643
G1 X133.415 Y103.583 E6.39179
G1 X135.233 Y103.499 E6.43648
G1 X136.400 Y103.170 E6.46625
G1 X137.572 Y102.482 E6.49964
G1 X138.764 Y101.552 E6.53674
G1 X139.771 Y99.524 E6.59233
G1 X139.998 Y98.267 E6.62372
G1 X139.893 Y96.996 E6.65502
G1 X139.514 Y95.792 E6.68601
G1 X138.746 Y94.436 E6.72428
G1 X137.660 Y93.449 E6.76031
G1 X136.667 Y92.822 E6.78914
G1 X134.898 Y92.605 E6.83292
G1 X134.714 Y92.670 E6.83769
G1 X134.714 Y92.670 E6.83769
G1 X133.149 Y93.217 E6.87840
G1 X133.000 Y93.321 E6.88287
G1 X133.000 Y93.321 E6.88287
G1 X131.438 Y94.409 E6.92961
G1 X130.886 Y95.409 E6.95765
G1 X130.433 Y95.213 E6.96978
G1 X130.842 Y93.955 E7.00227
G1 X132.717 Y92.251 E7.06447
G1 X134.718 Y91.527 E7.11674
G1 X134.817 Y91.540 E7.11918
G1 X134.817 Y91.540 E7.11918
G1 X136.997 Y91.828 E7.17318
G1 X138.769 Y92.649 E7.22113
G1 X138.769 Y92.698 E7.22234
G1 X139.849 Y93.759 E7.25950
G1 X140.732 Y95.228 E7.30159
G1 X141.119 Y96.936 E7.34459
G1 X141.172 Y98.630 E7.38621
G1 X141.172 Y98.630 E7.38621
G1 X141.175 Y98.726 E7.38855
G1 X140.794 Y100.452 E7.43196
G1 X139.607 Y102.574 E7.49165
G1 X138.343 Y103.628 E7.53206
G1 X136.698 Y104.472 E7.57747
G1 X135.192 Y104.835 E7.61549
G1 X132.497 Y104.906 E7.68171
G1 X131.096 Y104.554 E7.71717
G1 X128.809 Y103.739 E7.77678
G1 X127.145 Y102.739 E7.82447
G1 X125.101 Y101.056 E7.88947
G1 X120.163 Y96.283 E8.05809
G1 X118.636 Y95.554 E8.09964
G1 X116.203 Y94.845 E8.16186
G1 X113.534 Y94.430 E8.22820
G1 X109.591 Y94.481 E8.32500
G1 X109.432 Y94.530 E8.32910
G1 X109.432 Y94.530 E8.32910
G1 X107.819 Y95.025 E8.37053
G1 X107.197 Y95.676 E8.39263
G1 X107.708 Y96.525 E8.41695
G1 X116.128 Y101.820 E8.66118
G1 X119.134 Y104.875 E8.76642
G1 X120.099 Y107.693 E8.83955
G1 X119.837 Y110.930 E8.91928
G1 X119.837 Y110.930 E8.91928
G1 X119.792 Y111.490 E8.93309
G1 X117.598 Y117.446 E9.08893
G1 X117.443 Y120.304 E9.15921
G1 X117.778 Y121.797 E9.19680
G1 X118.537 Y123.192 E9.23577
G1 X119.701 Y124.384 E9.27670
G1 X121.319 Y125.148 E9.32063
G1 X122.896 Y125.243 E9.35941
G1 X124.821 Y124.823 E9.40781
G1 X126.193 Y123.814 E9.44962
G1 X127.046 Y122.759 E9.48292
G1 X127.656 Y121.047 E9.52756
G1 X127.584 Y119.380 E9.56852
