; generated by Slic3r 0.9.1 on 2012-08-25 at 10:32:56

; layer_height = 0.4
; perimeters = 2
; solid_layers = 1
; fill_density = 0.6
; perimeter_speed = 40
; infill_speed = 100
; travel_speed = 100
; scale = 1
; nozzle_diameter = 0.5
; filament_diameter = 3
; extrusion_multiplier = 1
; single wall width = 0.53mm
; first layer single wall width = 0.80mm

M107
G28 ; go home
G92 E0 ; reset extruder distance to zero
G1 Z20 F300 ;  go up 20 mm
G1 E20 F100 ; extrude 20 mm filament
G4 S5 ; pause for 5 seconds, give user time to wipe
G1 Z0 F300 ; go back to zero
G92 E0 ; reset extruder distance to zero
M107 ; Make sure fan is off
G90 ; use absolute coordinates
G21 ; set units to millimeters
G92 E0
M82 ; use absolute distances for extrusion
G1 Z0.400 F6000.000
G1 X73.170 Y66.679
G1 F1800.000 E2.00000
G1 X73.360 Y65.899 F960.000 E2.03342
G1 X73.440 Y65.639 E2.04474
G1 X73.750 Y64.889 E2.07853
G1 X74.150 Y64.179 E2.11245
G1 X74.460 Y63.739 E2.13485
G1 X74.990 Y63.129 E2.16849
G1 X75.180 Y62.939 E2.17968
G1 X75.590 Y62.579 E2.20239
G1 X76.020 Y62.259 E2.22470
G1 X76.250 Y62.109 E2.23613
G1 X76.960 Y61.729 E2.26966
G1 X77.710 Y61.429 E2.30328
G1 X78.230 Y61.279 E2.32581
G1 X78.760 Y61.169 E2.34834
G1 X79.300 Y61.099 E2.37101
G1 X98.150 Y61.069 E3.15569
G1 X110.200 Y61.089 E3.65730
G1 X110.740 Y61.159 E3.67997
G1 X111.280 Y61.269 E3.70291
G1 X111.550 Y61.339 E3.71452
G1 X112.320 Y61.619 E3.74863
G1 X113.060 Y61.989 E3.78307
G1 X113.740 Y62.449 E3.81724
G1 X114.170 Y62.799 E3.84032
G1 X114.560 Y63.179 E3.86299
G1 X114.750 Y63.389 E3.87478
G1 X115.090 Y63.809 E3.89727
G1 X115.540 Y64.499 E3.93157
G1 X115.790 Y64.989 E3.95446
G1 X116.000 Y65.499 E3.97742
G1 X116.170 Y66.019 E4.00020
G1 X119.860 Y85.089 E4.80876
G1 X120.860 Y92.519 E5.12084
G1 X120.920 Y93.419 E5.15839
G1 X120.920 Y98.459 E5.36819
G1 X120.830 Y99.549 E5.41372
G1 X119.780 Y105.949 E5.68370
G1 X119.650 Y106.469 E5.70601
G1 X119.480 Y106.989 E5.72878
G1 X119.380 Y107.239 E5.73999
G1 X119.010 Y107.969 E5.77406
G1 X118.720 Y108.429 E5.79670
G1 X118.400 Y108.869 E5.81935
G1 X118.040 Y109.269 E5.84175
G1 X117.840 Y109.469 E5.85352
G1 X117.440 Y109.829 E5.87592
G1 X116.780 Y110.299 E5.90965
G1 X116.310 Y110.579 E5.93243
G1 X79.550 Y128.089 E7.62739
G1 X78.750 Y128.339 E7.66228
G1 X78.200 Y128.449 E7.68562
G1 X77.650 Y128.509 E7.70866
G1 X77.090 Y128.529 E7.73198
G1 X76.530 Y128.499 E7.75533
G1 X75.980 Y128.429 E7.77841
G1 X75.430 Y128.309 E7.80184
G1 X74.900 Y128.139 E7.82501
G1 X74.080 Y127.819 E7.86165
G1 X73.580 Y127.569 E7.88492
G1 X73.110 Y127.279 E7.90791
G1 X72.660 Y126.949 E7.93114
G1 X72.230 Y126.589 E7.95449
G1 X71.840 Y126.189 E7.97774
G1 X71.490 Y125.769 E8.00050
G1 X71.160 Y125.309 E8.02407
G1 X70.880 Y124.829 E8.04720
G1 X70.530 Y124.069 E8.08203
G1 X70.280 Y123.279 E8.11652
G1 X69.170 Y116.609 E8.39800
G1 X69.080 Y115.519 E8.44353
G1 X69.110 Y109.879 E8.67831
G1 X73.130 Y66.949 E10.47320
G1 X73.152 Y66.798 E10.47956
G1 F1800.000 E8.47956
G92 E0
G1 X82.050 Y69.560 F6000.000
G1 F1800.000 E2.00000
G1 X89.350 Y69.560 F960.000 E2.30388
G1 X89.350 Y90.382 E3.17065
G1 X82.050 Y90.382 E3.47453
G1 X82.050 Y69.680 E4.33631
G1 F1800.000 E2.33631
G92 E0
G1 X77.618 Y119.801 F6000.000
G1 F1800.000 E2.00000
G1 X77.618 Y114.757 F960.000 E2.20998
G1 X76.618 Y114.757 E2.25161
G1 X76.618 Y111.282 E2.39625
G1 X77.618 Y111.282 E2.43787
G1 X77.618 Y103.414 E2.76540
G1 X78.983 Y101.740 E2.85532
G1 X80.618 Y97.142 E3.05847
G1 X80.618 Y91.150 E3.30788
G1 X90.582 Y91.150 E3.72268
G1 X90.582 Y93.659 E3.82713
G1 X82.854 Y102.489 E4.31558
G1 X82.854 Y102.489 E4.31558
G1 X82.715 Y102.647 E4.32433
G1 X79.223 Y108.870 E4.62142
G1 X79.223 Y108.870 E4.62142
G1 X78.782 Y109.655 E4.65888
G1 X78.782 Y119.049 E5.04993
G1 X77.911 Y119.922 E5.10127
G1 X77.729 Y119.847 E5.10948
G1 X79.550 Y119.367 F6000.000
G1 X77.155 Y121.766 F960.000 E5.25058
G1 X76.850 Y121.639 E5.26433
G1 X76.850 Y115.524 E5.51888
G1 X75.850 Y115.524 E5.56051
G1 X75.850 Y110.514 E5.76907
G1 X76.850 Y110.514 E5.81070
G1 X76.850 Y103.141 E6.11764
G1 X78.304 Y101.358 E6.21341
G1 X79.850 Y97.009 E6.40552
G1 X79.850 Y67.854 E7.61917
G1 X91.350 Y67.854 E8.09789
G1 X91.350 Y93.948 E9.18410
G1 X83.346 Y103.092 E9.68999
G1 X79.672 Y109.638 E10.00245
G1 X79.672 Y109.638 E10.00245
G1 X79.550 Y109.856 E10.01284
G1 X79.550 Y119.247 E10.40377
G1 F1800.000 E8.40377
G92 E0
G1 X100.150 Y91.002 F6000.000
G1 F1800.000 E2.00000
G1 X100.150 Y70.062 F960.000 E2.87168
G1 X107.450 Y70.062 E3.17556
G1 X107.450 Y91.002 E4.04724
G1 X100.270 Y91.002 E4.34613
G1 F1800.000 E2.34613
G92 E0
G1 X98.918 Y93.225 F6000.000
G1 F1800.000 E2.00000
G1 X98.918 Y91.770 F960.000 E2.06059
G1 X108.218 Y91.770 E2.44773
G1 X108.218 Y79.498 E2.95856
G1 X108.652 Y79.387 E2.97721
G1 X112.382 Y86.189 E3.30015
G1 X112.382 Y94.196 E3.63345
G1 X113.382 Y94.196 E3.67508
G1 X113.382 Y97.692 E3.82062
G1 X112.382 Y97.692 E3.86225
G1 X112.382 Y102.752 E4.07287
G1 X112.088 Y102.873 E4.08610
G1 X111.218 Y101.998 E4.13749
G1 X111.218 Y93.225 E4.50268
G1 X99.038 Y93.225 E5.00970
G1 X98.150 Y93.993 F6000.000
G1 X98.150 Y67.846 F960.000 E6.09814
G1 X109.650 Y67.846 E6.57686
G1 X109.650 Y79.611 E7.06658
G1 X113.150 Y85.993 E7.36957
G1 X113.150 Y93.428 E7.67910
G1 X114.150 Y93.428 E7.72073
G1 X114.150 Y98.460 E7.93020
G1 X113.150 Y98.460 E7.97182
G1 X113.150 Y104.595 E8.22720
G1 X112.844 Y104.721 E8.24099
G1 X110.450 Y102.315 E8.38228
G1 X110.450 Y93.993 E8.72870
G1 X98.270 Y93.993 E9.23572
G1 F1800.000 E7.23572
G92 E0
G1 X78.241 Y112.276 F6000.000
G1 F1800.000 E2.00000
G1 X77.788 Y111.823 F2160.000 E2.03134
G1 X77.159 Y112.479 E2.07578
G1 X78.241 Y113.560 E2.15064
G1 X77.159 Y113.762 E2.20450
G1 X77.612 Y114.215 E2.23583
G1 F1800.000 E0.23583
G92 E0
G1 X78.612 Y109.019 F6000.000
G1 F1800.000 E2.00000
G1 X78.159 Y108.566 F2160.000 E2.02671
G1 X79.003 Y108.322 F6000.000
G1 X78.159 Y107.478 F2160.000 E2.07651
G1 X78.159 Y106.389 E2.12194
G1 X79.395 Y107.625 E2.19483
G1 X79.786 Y106.927 F6000.000
G1 X78.159 Y105.301 F2160.000 E2.29081
G1 X78.159 Y104.212 E2.33623
G1 X80.177 Y106.230 E2.45531
G1 X80.568 Y105.533 F6000.000
G1 X78.311 Y103.275 F2160.000 E2.58852
G1 X78.800 Y102.675 F6000.000
G1 X80.960 Y104.835 F2160.000 E2.71598
G1 X81.351 Y104.138 F6000.000
G1 X79.289 Y102.076 F2160.000 E2.83769
G1 X79.635 Y101.334 F6000.000
G1 X81.742 Y103.441 F2160.000 E2.96203
G1 X82.134 Y102.744 F6000.000
G1 X79.921 Y100.531 F2160.000 E3.09262
G1 X80.206 Y99.728 E3.12818
G1 X82.589 Y102.110 E3.26877
G1 X83.097 Y101.530 F6000.000
G1 X80.492 Y98.925 F2160.000 E3.42249
G1 X80.777 Y98.122 E3.45805
G1 X83.605 Y100.949 E3.62490
G1 X84.113 Y100.369 F6000.000
G1 X81.063 Y97.318 F2160.000 E3.80489
G1 X81.159 Y96.326 F6000.000
G1 X84.621 Y99.788 F2160.000 E4.00919
G1 X85.130 Y99.208 F6000.000
G1 X81.159 Y95.237 F2160.000 E4.24346
G1 X81.159 Y94.149 E4.28889
G1 X85.638 Y98.627 E4.55315
G1 X86.146 Y98.047 F6000.000
G1 X81.159 Y93.060 F2160.000 E4.84739
G1 X81.159 Y91.972 E4.89282
G1 X86.654 Y97.466 E5.21705
G1 X87.162 Y96.886 F6000.000
G1 X81.968 Y91.692 F2160.000 E5.52354
G1 X83.056 Y91.692 E5.56897
G1 X87.670 Y96.305 E5.84121
G1 X88.179 Y95.725 F6000.000
G1 X84.145 Y91.691 F2160.000 E6.07920
G1 X85.233 Y91.692 E6.12460
G1 X88.686 Y95.145 E6.32834
G1 X89.194 Y94.564 F6000.000
G1 X86.322 Y91.692 F2160.000 E6.49783
G1 X87.411 Y91.692 E6.54326
G1 X89.703 Y93.983 E6.67849
G1 X90.041 Y93.233 F6000.000
G1 X88.500 Y91.691 F2160.000 E6.76944
G1 X89.588 Y91.692 E6.81485
G1 X90.040 Y92.145 E6.84156
G1 F1800.000 E4.84156
G92 E0
G1 X90.332 Y86.559 F6000.000
G1 F1800.000 E2.00000
G1 X90.349 Y90.918 F2160.000 E2.18146
G1 F1800.000 E0.18146
G92 E0
G1 X90.320 Y82.566 F6000.000
G1 F1800.000 E2.00000
G1 X90.332 Y86.559 F2160.000 E2.16620
G1 F1800.000 E0.16620
G92 E0
G1 X90.319 Y82.167 F6000.000
G1 F1800.000 E2.00000
G1 X90.320 Y82.566 F2160.000 E2.01662
G1 X90.319 Y81.768 F6000.000
G1 X90.319 Y82.167 F2160.000 E2.03324
G1 F1800.000 E0.03324
G92 E0
G1 X90.314 Y79.373 F6000.000
G1 F1800.000 E2.00000
G1 X90.383 Y68.797 F2160.000 E2.44024
G1 X89.984 Y68.643 E2.45803
G1 X86.468 Y68.767 E2.60448
G1 X86.397 Y68.634 E2.61079
G1 X86.084 Y68.778 E2.62513
G1 X85.999 Y68.624 E2.63245
G1 F1800.000 E0.63245
G92 E0
G1 X99.107 Y77.198 F6000.000
G1 F1800.000 E2.00000
G1 X99.114 Y69.213 F2160.000 E2.33239
G1 X99.266 Y68.962 E2.34458
G1 X108.284 Y68.928 E2.72000
G1 X108.575 Y69.214 E2.73696
G1 X108.528 Y78.910 E3.14059
G1 X108.784 Y79.208 E3.15693
G1 X108.482 Y79.174 F6000.000
G1 X108.551 Y79.067 F2160.000 E3.16227
G1 F1800.000 E1.16227
G92 E0
G1 X108.760 Y81.366 F6000.000
G1 F1800.000 E2.00000
G1 X109.212 Y81.819 F2160.000 E2.02667
G1 X110.531 Y84.225 E2.14097
G1 X108.759 Y82.453 E2.24537
G1 X108.759 Y83.539 E2.29061
G1 X111.841 Y86.621 E2.47212
G1 X111.841 Y87.707 E2.51737
G1 X108.759 Y84.626 E2.69888
G1 X108.760 Y85.712 E2.74413
G1 X111.841 Y88.793 E2.92564
G1 X111.841 Y89.880 E2.97091
G1 X108.759 Y86.799 E3.15242
G1 X108.759 Y87.885 E3.19766
G1 X111.841 Y90.967 E3.37918
G1 X111.841 Y92.053 E3.42442
G1 X108.759 Y88.972 E3.60594
G1 X108.759 Y90.059 E3.65121
G1 X111.385 Y92.684 E3.80588
G1 X110.298 Y92.684 E3.85112
G1 X108.759 Y91.145 E3.94179
G1 X108.759 Y92.231 E3.98703
G1 X109.212 Y92.684 E4.01370
G1 F1800.000 E2.01370
G92 E0
G1 X112.841 Y95.190 F6000.000
G1 F1800.000 E2.00000
G1 X112.388 Y94.737 F2160.000 E2.03162
G1 X111.759 Y95.404 E2.07687
G1 X112.841 Y96.485 E2.15239
G1 X111.759 Y96.698 E2.20680
G1 X112.212 Y97.151 E2.23842
G1 F1800.000 E0.23842
G92 E0
G1 X99.146 Y91.171 F6000.000
G1 F1800.000 E2.00000
G1 X99.149 Y91.504 F2160.000 E2.01384
G1 X99.144 Y90.772 F6000.000
G1 X99.146 Y91.171 F2160.000 E2.03046
G1 X99.142 Y90.373 F6000.000
G1 X99.107 Y77.198 F2160.000 E2.57890
G1 F1800.000 E0.57890
G92 E0
G1 X80.921 Y69.610 F6000.000
G1 F1800.000 E2.00000
G1 X80.950 Y90.818 F2160.000 E2.88283
G1 F1800.000 E0.88283
G92 E0
G1 X80.975 Y68.979 F6000.000
G1 F1800.000 E2.00000
G1 X80.921 Y69.610 F2160.000 E2.02637
G1 F1800.000 E0.02637
G92 E0
G1 Z0.800 F6000.000
G1 X81.665 Y69.150
G1 F1800.000 E2.00000
G1 X89.735 Y69.150 F2400.000 E2.23729
G1 X89.735 Y90.742 E2.87220
G1 X81.665 Y90.742 E3.10949
G1 X81.665 Y69.229 E3.74209
G1 X82.187 Y69.673 F6000.000
G1 X89.212 Y69.673 F2400.000 E3.94866
G1 X89.212 Y90.220 E4.55285
G1 X82.187 Y90.220 E4.75942
G1 X82.187 Y69.751 E5.36130
G1 F1800.000 E3.36130
G92 E0
G1 X90.965 Y93.778 F6000.000
G1 F1800.000 E2.00000
G1 X83.030 Y102.844 F2400.000 E2.35428
G1 X79.165 Y109.730 E2.58648
G1 X79.165 Y119.182 E2.86443
G1 X77.434 Y120.917 E2.93648
G1 X77.235 Y120.834 E2.94282
G1 X77.235 Y115.114 E3.11101
G1 X76.235 Y115.114 E3.14041
G1 X76.235 Y110.874 E3.26512
G1 X77.235 Y110.874 E3.29452
G1 X77.235 Y103.252 E3.51862
G1 X78.644 Y101.524 E3.58420
G1 X78.782 Y101.135 E3.59634
G1 X78.782 Y101.135 E3.59634
G1 X80.235 Y97.051 E3.72382
G1 X80.235 Y68.214 E4.57176
G1 X90.965 Y68.214 E4.88729
G1 X90.965 Y93.699 E5.63670
G1 X91.487 Y93.975 F6000.000
G1 X84.157 Y102.349 F2400.000 E5.96396
G1 X84.157 Y102.349 E5.96396
G1 X83.458 Y103.147 E5.99516
G1 X79.687 Y109.867 E6.22174
G1 X79.687 Y119.399 E6.50203
G1 X76.913 Y122.178 E6.61752
G1 X76.712 Y122.095 E6.62389
G1 X76.712 Y115.637 E6.81380
G1 X75.712 Y115.637 E6.84320
G1 X75.712 Y110.351 E6.99863
G1 X76.712 Y110.351 E7.02803
G1 X76.712 Y103.067 E7.24224
G1 X78.182 Y101.264 E7.31064
G1 X79.712 Y96.960 E7.44494
G1 X79.712 Y67.692 E8.30560
G1 X91.487 Y67.692 E8.65185
G1 X91.487 Y93.896 E9.42239
G1 F1800.000 E7.42239
G92 E0
G1 X99.765 Y91.345 F6000.000
G1 F1800.000 E2.00000
G1 X99.765 Y69.636 F2400.000 E2.63838
G1 X107.835 Y69.636 E2.87567
G1 X107.835 Y91.345 E3.51405
G1 X99.844 Y91.345 E3.74902
G1 X100.288 Y90.823 F6000.000
G1 X100.288 Y70.158 F2400.000 E4.35668
G1 X107.313 Y70.158 E4.56326
G1 X107.313 Y90.823 E5.17092
G1 X100.366 Y90.823 E5.37517
G1 F1800.000 E3.37517
G92 E0
G1 X112.243 Y102.506 F6000.000
G1 F1800.000 E2.00000
G1 X112.043 Y102.588 F2400.000 E2.00636
G1 X111.357 Y101.899 E2.03495
G1 X111.357 Y92.435 E2.31325
G1 X99.057 Y92.435 E2.67494
G1 X99.057 Y91.867 E2.69162
G1 X108.357 Y91.867 E2.96509
G1 X108.357 Y79.712 E3.32253
G1 X108.652 Y79.636 E3.33149
G1 X112.048 Y85.828 E3.53915
G1 X112.048 Y85.828 E3.53915
G1 X112.243 Y86.183 E3.55106
G1 X112.243 Y94.294 E3.78955
G1 X113.243 Y94.294 E3.81896
G1 X113.243 Y97.511 E3.91357
G1 X112.243 Y97.511 E3.94297
G1 X112.243 Y102.427 E4.08753
G1 X112.765 Y103.771 F6000.000
G1 X112.565 Y103.854 F2400.000 E4.09388
G1 X110.835 Y102.114 E4.16603
G1 X110.835 Y92.957 E4.43531
G1 X98.535 Y92.957 E4.79700
G1 X98.535 Y68.189 E5.52530
G1 X109.265 Y68.189 E5.84083
G1 X109.265 Y79.667 E6.17835
G1 X112.765 Y86.049 E6.39238
G1 X112.765 Y93.771 E6.61945
G1 X113.765 Y93.771 E6.64886
G1 X113.765 Y98.034 E6.77419
G1 X112.765 Y98.034 E6.80359
G1 X112.765 Y103.693 E6.97000
G1 X113.288 Y105.036 F6000.000
G1 X113.087 Y105.118 F2400.000 E6.97639
G1 X110.313 Y102.330 E7.09205
G1 X110.313 Y93.479 E7.35231
G1 X98.013 Y93.479 E7.71400
G1 X98.013 Y67.667 E8.47302
G1 X109.788 Y67.667 E8.81927
G1 X109.788 Y79.534 E9.16821
G1 X113.288 Y85.916 E9.38224
G1 X113.288 Y93.249 E9.59789
G1 X114.288 Y93.249 E9.62729
G1 X114.288 Y98.556 E9.78334
G1 X113.288 Y98.556 E9.81275
G1 X113.288 Y104.957 E10.00097
G1 F1800.000 E8.00097
G92 E0
G1 X112.870 Y96.841 F6000.000
G1 F1800.000 E2.00000
G1 X112.573 Y97.138 F5400.000 E2.01257
G1 X111.819 Y97.138 E2.03513
G1 X112.870 Y96.087 E2.07960
G1 X112.870 Y95.333 E2.10216
G1 X111.731 Y96.472 E2.15034
G1 X111.731 Y95.718 E2.17290
G1 X112.781 Y94.668 E2.21734
G1 X112.028 Y94.667 E2.23988
G1 X111.730 Y94.965 E2.25248
G1 F1800.000 E0.25248
G92 E0
G1 X111.870 Y91.764 F6000.000
G1 F1800.000 E2.00000
G1 X111.572 Y92.061 F5400.000 E2.01264
G1 X110.815 Y92.061 E2.03537
G1 X111.870 Y91.007 E2.08015
G1 X111.869 Y90.251 E2.10285
G1 X110.059 Y92.061 E2.17973
G1 X109.303 Y92.061 E2.20243
G1 X111.869 Y89.495 E2.31142
G1 X111.869 Y88.738 E2.33415
G1 X108.731 Y91.876 E2.46743
G1 X108.731 Y91.119 E2.49016
G1 X111.869 Y87.981 E2.62344
G1 X111.869 Y87.225 E2.64617
G1 X108.731 Y90.363 E2.77945
G1 X108.731 Y89.606 E2.80218
G1 X111.869 Y86.468 E2.93546
G1 X111.707 Y85.873 E2.95397
G1 X108.731 Y88.850 E3.08038
G1 X108.731 Y88.093 E3.10311
G1 X111.439 Y85.385 E3.21813
G1 X111.171 Y84.896 E3.23487
G1 X108.731 Y87.336 E3.33851
G1 X108.731 Y86.580 E3.36124
G1 X110.903 Y84.408 E3.45350
G1 X110.636 Y83.920 E3.47021
G1 X108.731 Y85.825 E3.55111
G1 X108.731 Y85.068 E3.57384
G1 X110.368 Y83.431 E3.64336
G1 X110.100 Y82.942 E3.66010
G1 X108.731 Y84.311 E3.71825
G1 X108.731 Y83.555 E3.74097
G1 X109.832 Y82.454 E3.78773
G1 X109.564 Y81.965 E3.80447
G1 X108.731 Y82.798 E3.83985
G1 X108.731 Y82.042 E3.86257
G1 X109.296 Y81.477 E3.88656
G1 X109.028 Y80.988 E3.90330
G1 X108.731 Y81.285 E3.91592
G1 F1800.000 E1.91592
G92 E0
G1 X99.123 Y76.647 F6000.000
G1 F1800.000 E2.00000
G1 X99.242 Y76.829 F5400.000 E2.00638
G1 F1800.000 E0.00638
G92 E0
G1 X99.119 Y74.826 F6000.000
G1 F1800.000 E2.00000
G1 X99.233 Y75.259 F5400.000 E2.01319
G1 X99.120 Y75.346 E2.01737
G1 X99.235 Y75.521 E2.02352
G1 X99.121 Y75.606 E2.02770
G1 X99.236 Y75.783 E2.03390
G1 X99.121 Y75.866 E2.03808
G1 X99.238 Y76.044 E2.04432
G1 X99.122 Y76.127 E2.04849
G1 X99.239 Y76.306 E2.05478
G1 X99.123 Y76.387 E2.05896
G1 X99.240 Y76.567 E2.06530
G1 X99.123 Y76.647 E2.06947
G1 F1800.000 E0.06947
G92 E0
G1 X99.118 Y74.565 F6000.000
G1 F1800.000 E2.00000
G1 X99.230 Y74.736 F5400.000 E2.00600
G1 X99.119 Y74.826 E2.01020
G1 X99.118 Y74.305 F6000.000
G1 X99.229 Y74.475 F5400.000 E2.01615
G1 X99.118 Y74.565 E2.02035
G1 X99.114 Y72.744 F6000.000
G1 X99.218 Y72.644 F5400.000 E2.02460
G1 X99.113 Y72.484 E2.03022
G1 X99.217 Y72.383 E2.03448
G1 X99.113 Y72.224 E2.04005
G1 X99.215 Y72.121 E2.04432
G1 X99.112 Y71.964 E2.04985
G1 X99.214 Y71.859 E2.05412
G1 X99.112 Y71.703 E2.05961
G1 X99.212 Y71.598 E2.06389
G1 X99.111 Y71.443 E2.06933
G1 X99.211 Y71.336 E2.07362
G1 X99.110 Y71.183 E2.07901
G1 X99.209 Y71.075 E2.08332
G1 X99.110 Y70.923 E2.08866
G1 X99.208 Y70.813 E2.09298
G1 X99.109 Y70.663 E2.09827
G1 X99.206 Y70.552 E2.10260
G1 X99.109 Y70.402 E2.10785
G1 X99.205 Y70.290 E2.11219
G1 X99.108 Y70.142 E2.11739
