; generated by Slic3r 0.9.1 on 2012-08-25 at 11:21:07

; layer_height = 0.4
; perimeters = 2
; solid_layers = 1
; fill_density = 0.6
; perimeter_speed = 40
; infill_speed = 100
; travel_speed = 100
; scale = 1
; nozzle_diameter = 0.5
; filament_diameter = 3
; extrusion_multiplier = 1
; single wall width = 0.53mm
; first layer single wall width = 0.80mm

M107
G28 ; go home
G92 E0 ; reset extruder distance to zero
G1 Z20 F300 ;  go up 20 mm
G1 E20 F100 ; extrude 20 mm filament
G4 S5 ; pause for 5 seconds, give user time to wipe
G1 Z0 F300 ; go back to zero
G92 E0 ; reset extruder distance to zero
M107 ; Make sure fan is off
G90 ; use absolute coordinates
G21 ; set units to millimeters
G92 E0
M82 ; use absolute distances for extrusion
G1 Z0.400 F6000.000
G1 X34.787 Y35.900
G1 F1800.000 E2.00000
G1 X34.807 Y35.360 F960.000 E2.02249
G1 X34.877 Y34.810 E2.04557
G1 X34.987 Y34.280 E2.06811
G1 X35.137 Y33.760 E2.09064
G1 X35.327 Y33.250 E2.11329
G1 X35.567 Y32.750 E2.13638
G1 X35.837 Y32.280 E2.15894
G1 X36.147 Y31.830 E2.18169
G1 X36.487 Y31.410 E2.20418
G1 X37.067 Y30.830 E2.23833
G1 X37.487 Y30.490 E2.26082
G1 X37.937 Y30.180 E2.28357
G1 X38.407 Y29.910 E2.30613
G1 X38.907 Y29.670 E2.32922
G1 X39.417 Y29.480 E2.35188
G1 X39.937 Y29.330 E2.37440
G1 X40.467 Y29.220 E2.39694
G1 X41.017 Y29.150 E2.42002
G1 X41.557 Y29.130 E2.44251
G1 X148.747 Y29.800 E6.90466
G1 X149.287 Y29.850 E6.92723
G1 X149.817 Y29.940 E6.94961
G1 X150.597 Y30.160 E6.98335
G1 X150.857 Y30.250 E6.99480
G1 X151.587 Y30.590 E7.02832
G1 X152.057 Y30.870 E7.05109
G1 X152.497 Y31.180 E7.07350
G1 X152.917 Y31.520 E7.09599
G1 X153.307 Y31.900 E7.11866
G1 X153.827 Y32.520 E7.15235
G1 X153.987 Y32.740 E7.16367
G1 X154.397 Y33.430 E7.19708
G1 X154.627 Y33.920 E7.21961
G1 X154.817 Y34.430 E7.24227
G1 X154.967 Y34.950 E7.26480
G1 X155.077 Y35.480 E7.28733
G1 X155.147 Y36.020 E7.31000
G1 X155.177 Y152.740 E12.16877
G1 X155.107 Y153.280 E12.19143
G1 X154.927 Y154.080 E12.22557
G1 X154.657 Y154.850 E12.25953
G1 X154.287 Y155.580 E12.29360
G1 X153.997 Y156.040 E12.31624
G1 X153.667 Y156.470 E12.33880
G1 X153.307 Y156.880 E12.36151
G1 X153.107 Y157.080 E12.37329
G1 X152.697 Y157.440 E12.39600
G1 X152.267 Y157.760 E12.41831
G1 X151.807 Y158.060 E12.44118
G1 X148.247 Y160.100 E12.61198
G1 X147.977 Y160.230 E12.62445
G1 X147.157 Y160.550 E12.66109
G1 X146.587 Y160.700 E12.68563
G1 X146.297 Y160.760 E12.69796
G1 X145.717 Y160.830 E12.72227
G1 X145.127 Y160.860 E12.74687
G1 X139.587 Y160.850 E12.97748
G1 X138.917 Y160.780 E13.00553
G1 X138.257 Y160.650 E13.03353
G1 X128.807 Y158.220 E13.43971
G1 X96.687 Y146.980 E14.85629
G1 X38.607 Y121.680 E17.49344
G1 X38.127 Y121.430 E17.51597
G1 X37.247 Y120.810 E17.56078
G1 X36.647 Y120.250 E17.59495
G1 X36.297 Y119.850 E17.61707
G1 X35.967 Y119.410 E17.63997
G1 X35.557 Y118.710 E17.67374
G1 X35.327 Y118.230 E17.69589
G1 X35.137 Y117.720 E17.71855
G1 X34.987 Y117.200 E17.74108
G1 X34.877 Y116.670 E17.76361
G1 X34.807 Y116.130 E17.78628
G1 X34.787 Y36.020 E21.12106
G1 F1800.000 E19.12106
G92 E0
G1 X42.334 Y89.332 F6000.000
G1 F1800.000 E2.00000
G1 X42.334 Y87.668 F960.000 E2.06928
G1 X91.299 Y87.668 E4.10755
G1 X91.299 Y89.382 E4.17892
G1 X79.959 Y89.382 E4.65098
G1 X78.128 Y88.716 E4.73209
G1 X75.806 Y88.716 E4.82875
G1 X75.576 Y88.799 E4.83891
G1 X75.576 Y88.799 E4.83891
G1 X73.624 Y89.510 E4.92541
G1 X71.845 Y91.002 E5.02207
G1 X71.723 Y91.214 E5.03223
G1 X71.723 Y91.214 E5.03223
G1 X70.684 Y93.013 E5.11872
G1 X70.281 Y95.300 E5.21538
G1 X70.684 Y97.587 E5.31204
G1 X71.723 Y99.386 E5.39853
G1 X71.723 Y99.386 E5.39853
G1 X71.845 Y99.598 E5.40870
G1 X73.624 Y101.090 E5.50535
G1 X75.806 Y101.884 E5.60201
G1 X78.128 Y101.884 E5.69867
G1 X79.959 Y101.218 E5.77978
G1 X91.299 Y101.218 E6.25185
G1 X91.299 Y102.932 E6.32321
G1 X86.998 Y102.932 E6.50226
G1 X86.998 Y104.832 E6.58136
G1 X83.336 Y104.832 E6.73379
G1 X83.336 Y102.932 E6.81288
G1 X77.059 Y102.932 E7.07418
G1 X74.613 Y102.545 E7.17727
G1 X72.489 Y101.463 E7.27648
G1 X70.804 Y99.778 E7.37569
G1 X69.722 Y97.654 E7.47491
G1 X69.349 Y95.300 E7.57412
G1 X69.722 Y92.946 E7.67333
G1 X71.563 Y89.332 E7.84217
G1 X42.454 Y89.332 E9.05389
G1 X41.567 Y90.100 F6000.000
G1 X41.567 Y86.900 F960.000 E9.18710
G1 X92.067 Y86.900 E11.28929
G1 X92.067 Y90.150 E11.42458
G1 X79.823 Y90.150 E11.93424
G1 X77.992 Y89.484 E12.01535
G1 X75.941 Y89.484 E12.10074
G1 X74.014 Y90.185 E12.18613
G1 X72.442 Y91.504 E12.27151
G1 X71.417 Y93.280 E12.35690
G1 X71.060 Y95.300 E12.44228
G1 X71.417 Y97.320 E12.52767
G1 X72.442 Y99.096 E12.61306
G1 X74.014 Y100.415 E12.69844
G1 X75.941 Y101.116 E12.78383
G1 X77.992 Y101.116 E12.86921
G1 X79.823 Y100.450 E12.95033
G1 X92.067 Y100.450 E13.45999
G1 X92.067 Y103.700 E13.59528
G1 X87.765 Y103.700 E13.77433
G1 X87.765 Y105.600 E13.85342
G1 X82.568 Y105.600 E14.06978
G1 X82.568 Y103.700 E14.14887
G1 X76.998 Y103.700 E14.38073
G1 X74.372 Y103.284 E14.49139
G1 X72.032 Y102.092 E14.60073
G1 X70.175 Y100.234 E14.71006
G1 X68.983 Y97.894 E14.81940
G1 X68.572 Y95.300 E14.92874
G1 X68.983 Y92.706 E15.03807
G1 X70.310 Y90.100 E15.15982
G1 X41.687 Y90.100 E16.35135
G1 F1800.000 E14.35135
G92 E0
G1 X79.829 Y102.391 F6000.000
G1 F1800.000 E2.00000
G1 X79.376 Y101.938 F2160.000 E2.02724
G1 X80.309 Y101.759 E2.06761
G1 X80.940 Y102.390 E2.10556
G1 X81.419 Y101.759 E2.13924
G1 X82.050 Y102.390 E2.17719
G1 X82.530 Y101.760 E2.21087
G1 X83.161 Y102.391 E2.24882
G1 X83.641 Y101.759 E2.28254
G1 X84.272 Y102.390 E2.32050
G1 X83.878 Y101.996 F6000.000
G1 X86.172 Y104.290 F2160.000 E2.45842
G1 X86.456 Y103.464 E2.49554
G1 X84.751 Y101.759 E2.59806
G1 X85.862 Y101.760 E2.64527
G1 X86.493 Y102.391 E2.68323
G1 X86.973 Y101.759 E2.71695
G1 X87.604 Y102.390 E2.75490
G1 X88.083 Y101.760 E2.78857
G1 X88.715 Y102.391 E2.82653
G1 X89.194 Y101.759 E2.86025
G1 X89.826 Y102.390 E2.89820
G1 X90.305 Y101.759 E2.93188
G1 X90.758 Y102.212 E2.95913
G1 F1800.000 E0.95913
G92 E0
G1 X85.061 Y104.291 F6000.000
G1 F1800.000 E2.00000
G1 X83.877 Y103.107 F2160.000 E2.07119
G1 F1800.000 E0.07119
G92 E0
G1 X79.829 Y88.662 F6000.000
G1 F1800.000 E2.00000
G1 X79.377 Y88.209 F2160.000 E2.02681
G1 X80.470 Y88.209 E2.07257
G1 X81.101 Y88.840 E2.10997
G1 X81.562 Y88.209 E2.14268
G1 X82.193 Y88.841 E2.18007
G1 X82.655 Y88.209 E2.21283
G1 X83.286 Y88.841 E2.25022
G1 X83.748 Y88.209 E2.28298
G1 X84.380 Y88.841 E2.32037
G1 X84.841 Y88.209 E2.35313
G1 X85.472 Y88.840 E2.39052
G1 X85.933 Y88.209 E2.42324
G1 X86.565 Y88.841 E2.46063
G1 X87.026 Y88.209 E2.49338
G1 X87.658 Y88.841 E2.53078
G1 X88.120 Y88.209 E2.56353
G1 X88.751 Y88.841 E2.60093
G1 X89.211 Y88.209 E2.63365
G1 X89.843 Y88.841 E2.67104
G1 X90.305 Y88.209 E2.70379
G1 X90.757 Y88.662 E2.73059
G1 F1800.000 E0.73059
G92 E0
G1 X74.557 Y88.662 F6000.000
G1 F1800.000 E2.00000
G1 X74.104 Y88.209 F2160.000 E2.02741
G1 X72.984 Y88.209 E2.07538
G1 X73.736 Y88.961 E2.12090
G1 X73.056 Y89.400 F6000.000
G1 X72.388 Y88.733 F2160.000 E2.16131
G1 X72.446 Y88.791 F6000.000
G1 X71.864 Y88.209 F2160.000 E2.19653
G1 X71.326 Y88.791 E2.23047
G1 X70.744 Y88.209 E2.26569
G1 X70.206 Y88.791 E2.29964
G1 X69.624 Y88.209 E2.33486
G1 X69.086 Y88.791 E2.36880
G1 X68.504 Y88.209 E2.40402
G1 X67.966 Y88.791 E2.43797
G1 X67.384 Y88.210 E2.47319
G1 X66.846 Y88.791 E2.50713
G1 X66.265 Y88.210 E2.54235
G1 X65.727 Y88.790 E2.57625
G1 X65.145 Y88.209 E2.61147
G1 X64.607 Y88.791 E2.64541
G1 X64.025 Y88.209 E2.68063
G1 X63.487 Y88.791 E2.71458
G1 X62.905 Y88.209 E2.74980
G1 X62.367 Y88.791 E2.78374
G1 X61.785 Y88.209 E2.81896
G1 X61.247 Y88.791 E2.85291
G1 X60.665 Y88.209 E2.88813
G1 X60.127 Y88.791 E2.92207
G1 X59.545 Y88.209 E2.95729
G1 X59.007 Y88.791 E2.99123
G1 X58.425 Y88.209 E3.02645
G1 X57.887 Y88.791 E3.06040
G1 X57.305 Y88.210 E3.09562
G1 X56.768 Y88.790 E3.12952
G1 X56.186 Y88.209 E3.16474
G1 X55.648 Y88.791 E3.19868
G1 X55.066 Y88.209 E3.23390
G1 X54.528 Y88.791 E3.26784
G1 X53.946 Y88.209 E3.30306
G1 X53.408 Y88.791 E3.33701
G1 X52.826 Y88.209 E3.37223
G1 X52.288 Y88.791 E3.40617
G1 X51.706 Y88.209 E3.44139
G1 X51.168 Y88.791 E3.47533
G1 X50.586 Y88.209 E3.51055
G1 X50.048 Y88.791 E3.54450
G1 X49.466 Y88.209 E3.57972
G1 X48.928 Y88.791 E3.61367
G1 X48.346 Y88.210 E3.64889
G1 X47.808 Y88.791 E3.68283
G1 X47.226 Y88.210 E3.71805
G1 X46.689 Y88.790 E3.75195
G1 X46.107 Y88.209 E3.78717
G1 X45.569 Y88.791 E3.82111
G1 X44.987 Y88.209 E3.85633
G1 X44.449 Y88.791 E3.89028
G1 X43.867 Y88.209 E3.92550
G1 X42.876 Y88.338 E3.96830
G1 X43.329 Y88.791 E3.99572
G1 F1800.000 E1.99572
G92 E0
G1 X42.334 Y63.832 F6000.000
G1 F1800.000 E2.00000
G1 X42.334 Y62.168 F960.000 E2.06928
G1 X91.299 Y62.168 E4.10755
G1 X91.299 Y63.882 E4.17892
G1 X79.959 Y63.882 E4.65098
G1 X78.128 Y63.216 E4.73209
G1 X75.806 Y63.216 E4.82875
G1 X75.576 Y63.299 E4.83891
G1 X75.576 Y63.299 E4.83891
G1 X73.624 Y64.010 E4.92541
G1 X71.845 Y65.502 E5.02207
G1 X71.723 Y65.714 E5.03223
G1 X71.723 Y65.714 E5.03223
G1 X70.684 Y67.513 E5.11872
G1 X70.281 Y69.800 E5.21538
G1 X70.684 Y72.087 E5.31204
G1 X71.723 Y73.886 E5.39853
G1 X71.723 Y73.886 E5.39853
G1 X71.845 Y74.098 E5.40870
G1 X73.624 Y75.590 E5.50535
G1 X75.806 Y76.384 E5.60201
G1 X78.128 Y76.384 E5.69867
G1 X79.959 Y75.718 E5.77978
G1 X91.299 Y75.718 E6.25185
G1 X91.299 Y77.432 E6.32321
G1 X86.998 Y77.432 E6.50226
G1 X86.998 Y79.332 E6.58136
G1 X83.336 Y79.332 E6.73379
G1 X83.336 Y77.432 E6.81288
G1 X77.059 Y77.432 E7.07418
G1 X74.613 Y77.045 E7.17727
G1 X72.489 Y75.963 E7.27648
G1 X70.804 Y74.278 E7.37569
G1 X69.722 Y72.154 E7.47491
G1 X69.349 Y69.800 E7.57412
G1 X69.722 Y67.446 E7.67333
G1 X71.563 Y63.832 E7.84217
G1 X42.454 Y63.832 E9.05389
G1 X41.567 Y64.600 F6000.000
G1 X41.567 Y61.400 F960.000 E9.18710
G1 X92.067 Y61.400 E11.28929
G1 X92.067 Y64.650 E11.42458
G1 X79.823 Y64.650 E11.93424
G1 X77.992 Y63.984 E12.01535
G1 X75.941 Y63.984 E12.10074
G1 X74.014 Y64.685 E12.18613
G1 X72.442 Y66.004 E12.27151
G1 X71.417 Y67.780 E12.35690
G1 X71.060 Y69.800 E12.44228
G1 X71.417 Y71.820 E12.52767
G1 X72.442 Y73.596 E12.61306
G1 X74.014 Y74.915 E12.69844
G1 X75.941 Y75.616 E12.78383
G1 X77.992 Y75.616 E12.86921
G1 X79.823 Y74.950 E12.95033
G1 X92.067 Y74.950 E13.45999
G1 X92.067 Y78.200 E13.59528
G1 X87.765 Y78.200 E13.77433
G1 X87.765 Y80.100 E13.85342
G1 X82.568 Y80.100 E14.06978
G1 X82.568 Y78.200 E14.14887
G1 X76.998 Y78.200 E14.38073
G1 X74.372 Y77.784 E14.49139
G1 X72.032 Y76.592 E14.60073
G1 X70.175 Y74.734 E14.71006
G1 X68.983 Y72.394 E14.81940
G1 X68.572 Y69.800 E14.92874
G1 X68.983 Y67.206 E15.03807
G1 X70.310 Y64.600 E15.15982
G1 X41.687 Y64.600 E16.35135
G1 F1800.000 E14.35135
G92 E0
G1 X79.829 Y76.891 F6000.000
G1 F1800.000 E2.00000
G1 X79.376 Y76.438 F2160.000 E2.02724
G1 X80.309 Y76.259 E2.06761
G1 X80.940 Y76.890 E2.10556
G1 X81.419 Y76.259 E2.13924
G1 X82.050 Y76.890 E2.17719
G1 X82.530 Y76.260 E2.21087
G1 X83.161 Y76.891 E2.24882
G1 X83.641 Y76.259 E2.28254
G1 X84.272 Y76.890 E2.32050
G1 X83.878 Y76.496 F6000.000
G1 X86.172 Y78.790 F2160.000 E2.45842
G1 X86.456 Y77.964 E2.49554
G1 X84.751 Y76.259 E2.59806
G1 X85.862 Y76.260 E2.64527
G1 X86.493 Y76.891 E2.68323
G1 X86.973 Y76.259 E2.71695
G1 X87.604 Y76.890 E2.75490
G1 X88.083 Y76.260 E2.78857
G1 X88.715 Y76.891 E2.82653
G1 X89.194 Y76.259 E2.86025
G1 X89.826 Y76.890 E2.89820
G1 X90.305 Y76.259 E2.93188
G1 X90.758 Y76.712 E2.95913
G1 F1800.000 E0.95913
G92 E0
G1 X85.061 Y78.791 F6000.000
G1 F1800.000 E2.00000
G1 X83.877 Y77.607 F2160.000 E2.07119
G1 F1800.000 E0.07119
G92 E0
G1 X79.829 Y63.162 F6000.000
G1 F1800.000 E2.00000
G1 X79.377 Y62.709 F2160.000 E2.02681
G1 X80.470 Y62.709 E2.07257
G1 X81.101 Y63.340 E2.10997
G1 X81.562 Y62.709 E2.14268
G1 X82.193 Y63.341 E2.18007
G1 X82.655 Y62.709 E2.21283
G1 X83.286 Y63.341 E2.25022
G1 X83.748 Y62.709 E2.28298
G1 X84.380 Y63.341 E2.32037
G1 X84.841 Y62.709 E2.35313
G1 X85.472 Y63.340 E2.39052
G1 X85.933 Y62.709 E2.42324
G1 X86.565 Y63.341 E2.46063
G1 X87.026 Y62.709 E2.49338
G1 X87.658 Y63.341 E2.53078
G1 X88.120 Y62.709 E2.56353
G1 X88.751 Y63.341 E2.60093
G1 X89.211 Y62.709 E2.63365
G1 X89.843 Y63.341 E2.67104
G1 X90.305 Y62.709 E2.70379
G1 X90.757 Y63.162 E2.73059
G1 F1800.000 E0.73059
G92 E0
G1 X74.557 Y63.162 F6000.000
G1 F1800.000 E2.00000
G1 X74.104 Y62.709 F2160.000 E2.02741
G1 X72.984 Y62.709 E2.07538
G1 X73.736 Y63.461 E2.12090
G1 X73.056 Y63.900 F6000.000
G1 X72.388 Y63.233 F2160.000 E2.16131
G1 X72.446 Y63.291 F6000.000
G1 X71.864 Y62.709 F2160.000 E2.19653
G1 X71.326 Y63.291 E2.23047
G1 X70.744 Y62.709 E2.26569
G1 X70.206 Y63.291 E2.29964
G1 X69.624 Y62.709 E2.33486
G1 X69.086 Y63.291 E2.36880
G1 X68.504 Y62.709 E2.40402
G1 X67.966 Y63.291 E2.43797
G1 X67.384 Y62.710 E2.47319
G1 X66.846 Y63.291 E2.50713
G1 X66.265 Y62.710 E2.54235
G1 X65.727 Y63.290 E2.57625
G1 X65.145 Y62.709 E2.61147
G1 X64.607 Y63.291 E2.64541
G1 X64.025 Y62.709 E2.68063
G1 X63.487 Y63.291 E2.71458
G1 X62.905 Y62.709 E2.74980
G1 X62.367 Y63.291 E2.78374
G1 X61.785 Y62.709 E2.81896
G1 X61.247 Y63.291 E2.85291
G1 X60.665 Y62.709 E2.88813
G1 X60.127 Y63.291 E2.92207
G1 X59.545 Y62.709 E2.95729
G1 X59.007 Y63.291 E2.99123
G1 X58.425 Y62.709 E3.02645
G1 X57.887 Y63.291 E3.06040
G1 X57.305 Y62.710 E3.09562
G1 X56.768 Y63.290 E3.12952
G1 X56.186 Y62.709 E3.16474
G1 X55.648 Y63.291 E3.19868
G1 X55.066 Y62.709 E3.23390
G1 X54.528 Y63.291 E3.26784
G1 X53.946 Y62.709 E3.30306
G1 X53.408 Y63.291 E3.33701
G1 X52.826 Y62.709 E3.37223
G1 X52.288 Y63.291 E3.40617
G1 X51.706 Y62.709 E3.44139
G1 X51.168 Y63.291 E3.47533
G1 X50.586 Y62.709 E3.51055
G1 X50.048 Y63.291 E3.54450
G1 X49.466 Y62.709 E3.57972
G1 X48.928 Y63.291 E3.61367
G1 X48.346 Y62.710 E3.64889
G1 X47.808 Y63.291 E3.68283
G1 X47.226 Y62.710 E3.71805
G1 X46.689 Y63.290 E3.75195
G1 X46.107 Y62.709 E3.78717
G1 X45.569 Y63.291 E3.82111
G1 X44.987 Y62.709 E3.85633
G1 X44.449 Y63.291 E3.89028
G1 X43.867 Y62.709 E3.92550
G1 X42.876 Y62.838 E3.96830
G1 X43.329 Y63.291 E3.99572
G1 F1800.000 E1.99572
G92 E0
G1 X42.334 Y114.832 F6000.000
G1 F1800.000 E2.00000
G1 X42.334 Y113.168 F960.000 E2.06928
G1 X91.299 Y113.168 E4.10755
G1 X91.299 Y114.882 E4.17892
G1 X79.959 Y114.882 E4.65098
G1 X78.128 Y114.216 E4.73209
G1 X75.806 Y114.216 E4.82875
G1 X75.576 Y114.299 E4.83891
G1 X75.576 Y114.299 E4.83891
G1 X73.624 Y115.010 E4.92541
G1 X71.845 Y116.502 E5.02207
G1 X71.723 Y116.714 E5.03223
G1 X71.723 Y116.714 E5.03223
G1 X70.684 Y118.513 E5.11872
G1 X70.281 Y120.800 E5.21538
G1 X70.684 Y123.087 E5.31204
G1 X71.723 Y124.886 E5.39853
G1 X71.723 Y124.886 E5.39853
G1 X71.845 Y125.098 E5.40870
G1 X73.624 Y126.590 E5.50535
G1 X75.806 Y127.384 E5.60201
G1 X78.128 Y127.384 E5.69867
G1 X79.959 Y126.718 E5.77978
G1 X91.299 Y126.718 E6.25185
G1 X91.299 Y128.432 E6.32321
G1 X86.998 Y128.432 E6.50226
G1 X86.998 Y130.332 E6.58136
G1 X83.336 Y130.332 E6.73379
G1 X83.336 Y128.432 E6.81288
G1 X77.059 Y128.432 E7.07418
G1 X74.613 Y128.045 E7.17727
G1 X72.489 Y126.963 E7.27648
G1 X70.804 Y125.278 E7.37569
G1 X69.722 Y123.154 E7.47491
G1 X69.349 Y120.800 E7.57412
G1 X69.722 Y118.446 E7.67333
G1 X71.563 Y114.832 E7.84217
G1 X42.454 Y114.832 E9.05389
G1 X41.567 Y115.600 F6000.000
G1 X41.567 Y112.400 F960.000 E9.18710
G1 X92.067 Y112.400 E11.28929
G1 X92.067 Y115.650 E11.42458
G1 X79.823 Y115.650 E11.93424
G1 X77.992 Y114.984 E12.01535
G1 X75.941 Y114.984 E12.10074
G1 X74.014 Y115.685 E12.18613
G1 X72.442 Y117.004 E12.27151
G1 X71.417 Y118.780 E12.35690
G1 X71.060 Y120.800 E12.44228
G1 X71.417 Y122.820 E12.52767
G1 X72.442 Y124.596 E12.61306
G1 X74.014 Y125.915 E12.69844
G1 X75.941 Y126.616 E12.78383
G1 X77.992 Y126.616 E12.86921
G1 X79.823 Y125.950 E12.95033
G1 X92.067 Y125.950 E13.45999
G1 X92.067 Y129.200 E13.59528
G1 X87.765 Y129.200 E13.77433
G1 X87.765 Y131.100 E13.85342
G1 X82.568 Y131.100 E14.06978
G1 X82.568 Y129.200 E14.14887
G1 X76.998 Y129.200 E14.38073
G1 X74.372 Y128.784 E14.49139
G1 X72.032 Y127.592 E14.60073
G1 X70.175 Y125.734 E14.71006
G1 X68.983 Y123.394 E14.81940
G1 X68.572 Y120.800 E14.92874
G1 X68.983 Y118.206 E15.03807
G1 X70.310 Y115.600 E15.15982
G1 X41.687 Y115.600 E16.35135
G1 F1800.000 E14.35135
G92 E0
G1 X79.829 Y127.891 F6000.000
G1 F1800.000 E2.00000
