; generated by Slic3r 0.8.4 on 2012-08-12 at 17:35:43

; layer_height = 0.3
; perimeters = 2
; solid_layers = 2
; fill_density = 0.3
; nozzle_diameter = 0.5
; filament_diameter = 3
; extrusion_multiplier = 1
; perimeter_speed = 40
; infill_speed = 100
; travel_speed = 100
; scale = 1
; single wall width = 0.53mm

M107
G28 X ; go home X
G28 Y ; go home Y
G92 E0 ; reset extruder distance to zero
G92 Z0 ; you are now at z zero
G1 Z20 F300 ;  go up 20 mm
G1 E20 F100 ; extrude 20 mm filament
G4 S5 ; pause for 5 seconds, give user time to wipe
G1 Z0 F300 ; go back to zero
G92 E0 ; reset extruder distance to zero
M107 ; Make sure fan is off
G90 ; use absolute coordinates
G21 ; set units to millimeters
G92 E0 ; reset extrusion distance
M82 ; use absolute distances for extrusion
G1 Z0.300 F6000.000
G1 X67.914 Y62.297
G1 F1800.000 E2.00000
G1 X67.984 Y62.227 F720.000 E2.00218
G1 X69.684 Y60.867 E2.05020
G1 X69.934 Y60.727 E2.05652
G1 X98.454 Y48.577 E2.74019
G1 X98.654 Y48.517 E2.74480
G1 X101.594 Y47.947 E2.81084
G1 X101.784 Y47.937 E2.81504
G1 X101.984 Y47.937 E2.81945
G1 X102.174 Y47.947 E2.82365
G1 X102.364 Y47.977 E2.82789
G1 X105.844 Y48.957 E2.90762
G1 X134.044 Y60.727 E3.58154
G1 X134.294 Y60.867 E3.58786
G1 X134.414 Y60.947 E3.59104
G1 X136.004 Y62.227 E3.63606
G1 X136.074 Y62.297 E3.63824
G1 X136.144 Y62.377 E3.64059
G1 X136.214 Y62.447 E3.64277
G1 X137.524 Y64.057 E3.68855
G1 X137.684 Y64.317 E3.69528
G1 X137.754 Y64.457 E3.69873
G1 X150.194 Y96.247 E4.45159
G1 X150.304 Y96.607 E4.45990
G1 X150.744 Y98.547 E4.50377
G1 X150.764 Y98.747 E4.50820
G1 X150.814 Y100.917 E4.55607
G1 X150.804 Y101.037 E4.55873
G1 X150.764 Y101.277 E4.56409
G1 X150.374 Y103.037 E4.60385
G1 X150.294 Y103.317 E4.61027
G1 X150.244 Y103.447 E4.61334
G1 X150.184 Y103.577 E4.61650
G1 X137.404 Y126.817 E5.20142
G1 X137.174 Y127.167 E5.21066
G1 X135.954 Y128.707 E5.25399
G1 X135.714 Y128.947 E5.26147
G1 X135.584 Y129.047 E5.26509
G1 X133.184 Y130.597 E5.32810
G1 X105.804 Y145.317 E6.01367
G1 X105.654 Y145.377 E6.01723
G1 X105.504 Y145.427 E6.02072
G1 X105.194 Y145.507 E6.02778
G1 X102.394 Y146.037 E6.09063
G1 X102.194 Y146.047 E6.09504
G1 X102.004 Y146.047 E6.09923
G1 X101.814 Y146.037 E6.10343
G1 X101.624 Y146.007 E6.10767
G1 X98.234 Y145.067 E6.18526
G1 X98.134 Y145.027 E6.18763
G1 X70.814 Y130.597 E6.86903
G1 X68.404 Y129.047 E6.93222
G1 X68.274 Y128.947 E6.93584
G1 X68.034 Y128.707 E6.94332
G1 X66.814 Y127.167 E6.98665
G1 X66.584 Y126.817 E6.99589
G1 X53.804 Y103.577 E7.58081
G1 X53.744 Y103.447 E7.58397
G1 X53.694 Y103.317 E7.58704
G1 X53.614 Y103.037 E7.59346
G1 X53.224 Y101.277 E7.63322
G1 X53.184 Y101.037 E7.63858
G1 X53.174 Y100.917 E7.64124
G1 X53.224 Y98.747 E7.68911
G1 X53.244 Y98.547 E7.69354
G1 X53.684 Y96.607 E7.73741
G1 X53.794 Y96.247 E7.74571
G1 X66.234 Y64.457 E8.49858
G1 X66.304 Y64.317 E8.50203
G1 X66.464 Y64.057 E8.50876
G1 X67.774 Y62.447 E8.55454
G1 X67.844 Y62.377 E8.55672
G1 X67.863 Y62.356 E8.55733
G1 F1800.000 E6.55733
G92 E0
G1 X71.432 Y127.403 F6000.000
G1 F1800.000 E2.00000
G1 X71.568 Y127.076 F720.000 E2.00781
G1 X74.075 Y127.624 E2.06439
G1 X75.776 Y127.521 E2.10199
G1 X77.521 Y126.697 E2.14455
G1 X78.770 Y125.418 E2.18397
G1 X79.579 Y123.932 E2.22129
G1 X79.936 Y122.336 E2.25736
G1 X79.777 Y119.371 E2.32285
G1 X77.581 Y113.406 E2.46302
G1 X77.284 Y109.741 E2.54411
G1 X78.196 Y107.079 E2.60617
G1 X81.111 Y104.115 E2.69786
G1 X86.269 Y100.828 E2.83276
G1 X86.269 Y100.828 E2.83276
G1 X89.565 Y98.804 E2.91804
G1 X90.275 Y97.624 E2.94841
G1 X89.386 Y96.693 E2.97680
G1 X88.917 Y96.549 E2.98763
G1 X88.917 Y96.549 E2.98763
G1 X87.468 Y96.104 E3.02106
G1 X83.440 Y96.052 E3.10990
G1 X81.161 Y96.406 E3.16076
G1 X81.161 Y96.345 E3.16211
G1 X78.229 Y97.200 E3.22946
G1 X76.621 Y97.968 E3.26876
G1 X71.650 Y102.772 E3.42120
G1 X69.637 Y104.429 E3.47872
G1 X67.835 Y105.512 E3.52508
G1 X67.784 Y105.483 E3.52639
G1 X65.794 Y106.192 E3.57297
G1 X64.462 Y106.528 E3.60327
G1 X61.857 Y106.458 E3.66072
G1 X61.815 Y106.448 E3.66170
G1 X61.815 Y106.448 E3.66170
G1 X60.435 Y106.115 E3.69300
G1 X58.866 Y105.311 E3.73187
G1 X57.688 Y104.329 E3.76570
G1 X57.386 Y103.788 E3.77936
G1 X57.643 Y103.568 E3.78682
G1 X59.215 Y104.795 E3.83081
G1 X60.451 Y105.521 E3.86241
G1 X61.706 Y105.874 E3.89119
G1 X61.909 Y105.884 E3.89566
G1 X61.909 Y105.884 E3.89566
G1 X63.615 Y105.962 E3.93332
G1 X64.788 Y105.724 E3.95972
G1 X65.302 Y105.552 E3.97168
G1 X65.302 Y105.552 E3.97168
G1 X66.604 Y105.117 E4.00195
G1 X68.267 Y104.221 E4.04360
G1 X70.430 Y102.572 E4.10360
G1 X72.200 Y100.584 E4.16229
G1 X73.657 Y98.734 E4.21424
G1 X73.657 Y98.734 E4.21424
G1 X73.954 Y98.357 E4.22481
G1 X76.093 Y96.314 E4.29004
G1 X78.486 Y94.691 E4.35382
G1 X79.013 Y94.414 E4.36695
G1 X79.013 Y94.414 E4.36695
G1 X80.999 Y93.372 E4.41641
G1 X83.817 Y92.193 E4.48378
G1 X87.485 Y91.085 E4.56828
G1 X90.141 Y90.699 E4.62747
G1 X90.313 Y89.887 E4.64579
G1 X88.668 Y88.850 E4.68868
G1 X87.666 Y88.515 E4.71197
G1 X87.666 Y88.515 E4.71197
G1 X85.206 Y87.693 E4.76918
G1 X81.694 Y85.755 E4.85766
G1 X79.527 Y84.145 E4.91718
G1 X78.453 Y81.615 E4.97780
G1 X78.305 Y79.391 E5.02695
G1 X78.989 Y76.982 E5.08218
G1 X80.409 Y71.353 E5.21021
G1 X80.637 Y68.715 E5.26860
G1 X80.637 Y68.715 E5.26860
G1 X80.663 Y68.414 E5.27527
G1 X80.273 Y66.647 E5.31518
G1 X79.506 Y65.175 E5.35178
G1 X78.482 Y64.197 E5.38302
G1 X76.970 Y63.561 E5.41919
G1 X74.774 Y63.103 E5.46866
G1 X73.537 Y63.334 E5.49641
G1 X73.537 Y62.670 E5.51105
G1 X74.739 Y62.476 E5.53790
G1 X74.807 Y62.487 E5.53942
G1 X74.807 Y62.487 E5.53942
G1 X76.982 Y62.830 E5.58797
G1 X78.842 Y63.716 E5.63341
G1 X80.135 Y64.900 E5.67207
G1 X80.980 Y66.522 E5.71240
G1 X81.462 Y68.391 E5.75498
G1 X81.325 Y71.458 E5.82267
G1 X80.771 Y74.522 E5.89135
G1 X80.803 Y79.211 E5.99477
G1 X81.327 Y81.051 E6.03694
G1 X82.345 Y82.160 E6.07016
G1 X82.345 Y82.160 E6.07016
G1 X82.499 Y82.327 E6.07517
G1 X83.799 Y82.982 E6.10727
G1 X86.379 Y83.550 E6.16554
G1 X86.379 Y83.457 E6.16757
G1 X92.841 Y83.309 E6.31013
G1 X95.189 Y82.958 E6.36249
G1 X97.690 Y81.748 E6.42375
G1 X101.454 Y79.556 E6.51982
G1 X101.485 Y79.572 E6.52060
G1 X105.046 Y77.242 E6.61445
G1 X106.479 Y74.840 E6.67613
G1 X106.479 Y74.840 E6.67613
G1 X106.694 Y74.480 E6.68540
G1 X106.497 Y72.069 E6.73874
G1 X105.931 Y70.348 E6.77868
G1 X104.311 Y68.908 E6.82651
G1 X103.003 Y68.038 E6.86115
G1 X98.123 Y65.346 E6.98406
G1 X96.274 Y63.533 E7.04116
G1 X95.304 Y61.303 E7.09479
G1 X95.304 Y61.303 E7.09479
G1 X95.265 Y61.212 E7.09698
G1 X94.937 Y58.572 E7.15564
G1 X94.990 Y58.572 E7.15679
G1 X95.475 Y55.283 E7.23011
G1 X97.401 Y52.852 E7.29852
G1 X99.448 Y51.455 E7.35317
G1 X101.872 Y50.983 E7.40764
G1 X104.643 Y51.753 E7.47108
G1 X105.980 Y52.766 E7.50806
G1 X106.937 Y54.070 E7.54373
G1 X107.229 Y54.972 E7.56465
G1 X106.822 Y55.140 E7.57435
G1 X106.549 Y54.600 E7.58769
G1 X106.549 Y54.600 E7.58769
G1 X106.481 Y54.465 E7.59103
G1 X105.454 Y53.198 E7.62699
G1 X103.904 Y52.308 E7.66641
G1 X101.832 Y51.872 E7.71310
G1 X101.764 Y51.885 E7.71462
G1 X101.764 Y51.885 E7.71462
G1 X99.492 Y52.302 E7.76558
G1 X97.358 Y53.777 E7.82278
G1 X96.199 Y56.272 E7.88346
G1 X96.144 Y58.696 E7.93692
G1 X96.563 Y60.279 E7.97304
G1 X97.717 Y61.786 E8.01490
G1 X99.549 Y63.446 E8.06941
G1 X104.414 Y65.677 E8.18746
G1 X106.396 Y66.753 E8.23719
G1 X108.653 Y68.293 E8.29746
G1 X110.940 Y70.809 E8.37245
G1 X111.793 Y74.073 E8.44685
G1 X111.593 Y77.561 E8.52391
G1 X111.072 Y79.800 E8.57461
G1 X111.072 Y79.800 E8.57461
G1 X110.934 Y80.394 E8.58805
G1 X111.491 Y81.798 E8.62136
G1 X115.039 Y83.381 E8.70703
G1 X118.218 Y83.742 E8.77760
G1 X120.270 Y83.249 E8.82414
G1 X121.487 Y82.572 E8.85485
G1 X122.651 Y81.306 E8.89277
G1 X123.175 Y79.442 E8.93549
G1 X123.201 Y74.559 E9.04318
G1 X122.675 Y71.461 E9.11247
G1 X122.544 Y68.520 E9.17741
G1 X122.544 Y68.520 E9.17741
G1 X122.538 Y68.391 E9.18024
G1 X123.020 Y66.522 E9.22282
G1 X123.865 Y64.900 E9.26315
G1 X125.158 Y63.716 E9.30181
G1 X127.018 Y62.830 E9.34725
G1 X129.261 Y62.476 E9.39732
G1 X129.984 Y62.593 E9.41349
G1 X129.992 Y62.943 E9.42123
G1 X127.030 Y63.561 E9.48796
G1 X125.518 Y64.197 E9.52414
G1 X124.494 Y65.175 E9.55537
G1 X123.727 Y66.647 E9.59198
G1 X123.340 Y68.403 E9.63163
G1 X123.340 Y68.403 E9.63163
G1 X123.337 Y68.414 E9.63189
G1 X123.591 Y71.350 E9.69687
G1 X124.145 Y73.445 E9.74466
G1 X124.145 Y73.445 E9.74466
G1 X125.653 Y79.522 E9.88276
G1 X125.653 Y79.522 E9.88276
G1 X125.673 Y79.594 E9.88440
G1 X125.561 Y81.326 E9.92268
G1 X125.561 Y81.326 E9.92268
G1 X125.525 Y81.878 E9.93487
G1 X124.475 Y84.471 E9.99658
G1 X122.677 Y86.147 E10.05078
G1 X119.334 Y87.907 E10.13411
G1 X119.137 Y87.954 E10.13857
G1 X119.137 Y87.954 E10.13857
G1 X115.406 Y88.848 E10.22317
G1 X113.692 Y89.862 E10.26709
G1 X113.858 Y90.699 E10.28591
G1 X116.122 Y91.028 E10.33638
G1 X116.122 Y91.028 E10.33638
G1 X116.515 Y91.085 E10.34513
G1 X120.183 Y92.193 E10.42964
G1 X123.001 Y93.372 E10.49701
G1 X125.386 Y94.624 E10.55641
G1 X125.402 Y94.615 E10.55682
G1 X127.907 Y96.314 E10.62357
G1 X130.046 Y98.357 E10.68880
G1 X131.800 Y100.584 E10.75132
G1 X132.855 Y101.769 E10.78630
G1 X132.855 Y101.769 E10.78630
G1 X133.570 Y102.572 E10.81001
G1 X135.733 Y104.221 E10.87001
G1 X137.396 Y105.117 E10.91166
G1 X139.212 Y105.724 E10.95389
G1 X140.385 Y105.962 E10.98029
G1 X142.294 Y105.874 E11.02242
G1 X143.549 Y105.521 E11.05119
G1 X144.785 Y104.795 E11.08280
G1 X146.357 Y103.568 E11.12679
G1 X146.614 Y103.788 E11.13425
G1 X146.312 Y104.329 E11.14791
G1 X145.134 Y105.311 E11.18174
G1 X143.565 Y106.115 E11.22061
G1 X143.532 Y106.124 E11.22137
G1 X143.532 Y106.124 E11.22137
G1 X142.143 Y106.458 E11.25288
G1 X139.538 Y106.528 E11.31034
G1 X138.206 Y106.192 E11.34064
G1 X137.382 Y105.898 E11.35993
G1 X137.382 Y105.898 E11.35993
G1 X135.971 Y105.396 E11.39295
G1 X134.363 Y104.429 E11.43434
G1 X132.350 Y102.772 E11.49186
G1 X127.379 Y97.968 E11.64430
G1 X125.771 Y97.200 E11.68360
G1 X123.286 Y96.475 E11.74070
G1 X122.460 Y96.347 E11.75912
G1 X122.460 Y96.347 E11.75912
G1 X120.560 Y96.052 E11.80152
G1 X116.648 Y96.103 E11.88782
G1 X116.648 Y96.069 E11.88856
G1 X114.614 Y96.693 E11.93550
G1 X113.725 Y97.624 E11.96388
G1 X114.435 Y98.804 E11.99425
G1 X120.705 Y102.717 E12.15725
G1 X120.705 Y102.717 E12.15725
G1 X122.889 Y104.115 E12.21443
G1 X125.517 Y106.787 E12.29707
G1 X125.517 Y106.787 E12.29707
G1 X125.804 Y107.079 E12.30612
G1 X126.807 Y110.006 E12.37434
G1 X126.695 Y110.006 E12.37681
G1 X126.457 Y112.945 E12.44185
G1 X126.457 Y112.945 E12.44185
G1 X126.419 Y113.406 E12.45205
G1 X124.391 Y118.900 E12.58120
G1 X124.391 Y118.900 E12.58120
G1 X124.223 Y119.371 E12.59223
G1 X124.064 Y122.335 E12.65769
G1 X124.064 Y122.335 E12.65769
G1 X124.064 Y122.336 E12.65771
G1 X124.422 Y123.932 E12.69379
G1 X124.422 Y123.932 E12.69379
G1 X124.422 Y123.936 E12.69388
G1 X124.424 Y123.936 E12.69391
G1 X125.230 Y125.418 E12.73113
G1 X126.479 Y126.697 E12.77054
G1 X128.224 Y127.521 E12.81311
G1 X129.925 Y127.624 E12.85070
G1 X132.432 Y127.076 E12.90728
G1 X132.568 Y127.403 E12.91509
G1 X131.806 Y127.893 E12.93506
G1 X130.419 Y128.141 E12.96614
G1 X130.419 Y128.141 E12.96614
G1 X129.719 Y128.266 E12.98182
G1 X127.997 Y128.212 E13.01982
G1 X127.227 Y127.840 E13.03867
G1 X127.227 Y127.840 E13.03867
G1 X125.971 Y127.233 E13.06944
G1 X124.125 Y125.599 E13.12382
G1 X123.239 Y124.070 E13.16279
G1 X123.239 Y124.070 E13.16279
G1 X123.200 Y124.002 E13.16452
G1 X122.618 Y122.311 E13.20396
G1 X122.686 Y119.280 E13.27082
G1 X123.312 Y116.231 E13.33947
G1 X123.967 Y113.839 E13.39417
G1 X123.967 Y113.839 E13.39417
G1 X124.149 Y113.175 E13.40935
G1 X124.305 Y110.272 E13.47347
G1 X124.305 Y110.272 E13.47347
G1 X124.342 Y109.593 E13.48846
G1 X123.258 Y107.258 E13.54524
G1 X121.132 Y105.767 E13.60252
G1 X119.261 Y105.118 E13.64619
G1 X117.558 Y105.013 E13.68381
G1 X117.558 Y104.933 E13.68558
G1 X114.737 Y105.387 E13.74860
G1 X114.035 Y105.776 E13.76630
G1 X114.035 Y105.776 E13.76630
G1 X111.428 Y107.220 E13.83202
G1 X110.506 Y109.059 E13.87740
G1 X107.820 Y113.371 E13.98944
G1 X106.150 Y114.846 E14.03858
G1 X106.150 Y114.846 E14.03858
G1 X106.001 Y114.980 E14.04300
G1 X102.393 Y115.938 E14.12531
G1 X100.842 Y120.805 E14.23796
G1 X100.842 Y120.805 E14.23796
G1 X100.819 Y120.877 E14.23964
G1 X100.848 Y120.877 E14.24030
G1 X100.969 Y123.275 E14.29325
G1 X102.034 Y125.740 E14.35246
G1 X102.034 Y125.740 E14.35246
G1 X102.035 Y125.741 E14.35249
G1 X102.519 Y126.433 E14.37112
G1 X102.519 Y126.433 E14.37112
G1 X103.123 Y127.297 E14.39436
G1 X105.534 Y128.838 E14.45748
G1 X107.671 Y130.678 E14.51967
G1 X108.737 Y132.899 E14.57399
G1 X109.038 Y135.275 E14.62682
G1 X108.526 Y138.715 E14.70353
G1 X106.599 Y141.147 E14.77195
G1 X104.552 Y142.545 E14.82661
G1 X102.128 Y143.017 E14.88108
G1 X99.357 Y142.247 E14.94452
G1 X98.020 Y141.234 E14.98150
G1 X97.063 Y139.930 E15.01717
G1 X96.772 Y139.029 E15.03806
G1 X97.178 Y138.861 E15.04775
G1 X97.519 Y139.535 E15.06441
G1 X98.546 Y140.802 E15.10036
G1 X100.096 Y141.692 E15.13979
G1 X102.168 Y142.128 E15.18648
G1 X102.751 Y142.021 E15.19955
G1 X102.751 Y142.021 E15.19955
G1 X104.508 Y141.698 E15.23895
G1 X106.642 Y140.222 E15.29617
G1 X107.668 Y138.013 E15.34988
G1 X107.668 Y138.013 E15.34988
G1 X107.801 Y137.728 E15.35683
G1 X107.856 Y135.318 E15.40998
G1 X107.496 Y133.986 E15.44042
G1 X107.496 Y133.986 E15.44042
G1 X107.433 Y133.753 E15.44575
G1 X106.212 Y132.241 E15.48860
G1 X104.072 Y130.375 E15.55122
G1 X101.971 Y129.261 E15.60367
G1 X99.720 Y127.634 E15.66493
G1 X98.214 Y125.696 E15.71905
G1 X96.898 Y123.409 E15.77724
G1 X96.407 Y121.829 E15.81373
G1 X96.407 Y121.829 E15.81373
G1 X96.168 Y121.063 E15.83144
G1 X95.969 Y117.532 E15.90942
G1 X96.446 Y114.641 E15.97404
G1 X94.423 Y111.030 E16.06534
G1 X94.161 Y108.752 E16.11591
G1 X92.471 Y106.854 E16.17196
G1 X89.236 Y105.382 E16.25033
G1 X86.802 Y104.991 E16.30469
G1 X84.739 Y105.118 E16.35028
G1 X82.868 Y105.767 E16.39396
G1 X80.742 Y107.258 E16.45123
G1 X79.658 Y109.593 E16.50802
G1 X79.835 Y112.864 E16.58025
G1 X79.835 Y112.864 E16.58025
G1 X79.851 Y113.175 E16.58712
G1 X80.724 Y116.363 E16.66001
G1 X80.715 Y116.363 E16.66021
G1 X81.314 Y119.280 E16.72590
G1 X81.382 Y122.311 E16.79276
G1 X80.800 Y124.002 E16.83219
G1 X79.875 Y125.599 E16.87290
G1 X78.029 Y127.233 E16.92727
G1 X76.003 Y128.212 E16.97689
G1 X74.281 Y128.266 E17.01489
G1 X74.187 Y128.249 E17.01700
G1 X74.187 Y128.249 E17.01700
G1 X72.194 Y127.893 E17.06165
G1 X71.498 Y127.446 E17.07988
G1 F1800.000 E15.07988
G92 E0
G1 X96.430 Y136.067 F6000.000
G1 F1800.000 E2.00000
G1 X96.965 Y134.991 F540.000 E2.02651
G1 X97.416 Y135.207 E2.03753
G1 X96.755 Y136.642 E2.07238
G1 X96.449 Y136.581 E2.07926
G1 X96.433 Y136.146 E2.08888
G1 F1800.000 E0.08888
G92 E0
G1 X131.639 Y127.425 F6000.000
G1 F1800.000 E2.00000
G1 X133.456 Y126.089 F540.000 E2.04974
G1 X134.654 Y124.609 E2.09172
G1 X134.977 Y124.797 E2.09997
G1 X134.758 Y125.357 E2.11323
G1 X133.738 Y126.650 E2.14954
G1 X133.423 Y126.852 E2.15781
G1 X133.423 Y126.852 E2.15781
G1 X131.914 Y127.824 E2.19739
G1 X131.684 Y127.490 E2.20632
G1 F1800.000 E0.20632
G92 E0
G1 X72.361 Y127.425 F6000.000
G1 F1800.000 E2.00000
G1 X72.086 Y127.824 F540.000 E2.01067
G1 X70.262 Y126.650 E2.05851
G1 X69.242 Y125.357 E2.09483
G1 X69.023 Y124.797 E2.10809
G1 X69.346 Y124.609 E2.11633
G1 X70.544 Y126.089 E2.15832
G1 X72.297 Y127.379 E2.20632
G1 F1800.000 E0.20632
G92 E0
G1 X134.367 Y124.984 F6000.000
G1 F1800.000 E2.00000
G1 X135.185 Y122.688 F540.000 E2.05375
G1 X135.534 Y122.746 E2.06156
G1 X135.543 Y123.346 E2.07481
G1 X134.835 Y125.159 E2.11772
G1 X134.441 Y125.011 E2.12701
G1 F1800.000 E0.12701
G92 E0
G1 X69.633 Y124.984 F6000.000
G1 F1800.000 E2.00000
G1 X69.165 Y125.159 F540.000 E2.01102
G1 X68.457 Y123.346 E2.05394
G1 X68.466 Y122.746 E2.06718
G1 X68.815 Y122.688 E2.07499
G1 X69.295 Y124.035 E2.10652
G1 X69.295 Y124.035 E2.10652
G1 X69.606 Y124.910 E2.12700
G1 F1800.000 E0.12700
G92 E0
G1 X134.949 Y121.090 F6000.000
G1 F1800.000 E2.00000
G1 X135.308 Y121.015 F540.000 E2.00807
G1 X135.516 Y121.552 E2.02078
G1 X135.540 Y123.163 E2.05630
G1 X135.040 Y123.177 E2.06735
