; generated by Slic3r 0.9.1 on 2012-08-25 at 16:42:01

; layer_height = 0.2
; perimeters = 1
; solid_layers = 1
; fill_density = 0.3
; perimeter_speed = 40
; infill_speed = 100
; travel_speed = 100
; scale = 1
; nozzle_diameter = 0.5
; filament_diameter = 3
; extrusion_multiplier = 1
; single wall width = 0.70mm
; first layer single wall width = 0.40mm

M107
G28 ; go home
G92 E0 ; reset extruder distance to zero
G1 Z20 F300 ;  go up 20 mm
G1 E20 F100 ; extrude 20 mm filament
G4 S5 ; pause for 5 seconds, give user time to wipe
G1 Z0 F300 ; go back to zero
G92 E0 ; reset extruder distance to zero
M107 ; Make sure fan is off
G90 ; use absolute coordinates
G21 ; set units to millimeters
G92 E0
M82 ; use absolute distances for extrusion
G1 Z0.200 F6000.000
G1 X58.064 Y57.707
G1 F1800.000 E2.00000
G1 X58.424 Y57.357 F960.000 E2.00599
G1 X60.244 Y55.867 E2.03404
G1 X60.484 Y55.697 E2.03754
G1 X61.004 Y55.387 E2.04476
G1 X61.554 Y55.117 E2.05207
G1 X89.994 Y42.997 E2.42073
G1 X90.504 Y42.827 E2.42714
G1 X90.764 Y42.757 E2.43035
G1 X93.954 Y42.147 E2.46908
G1 X94.254 Y42.107 E2.47269
G1 X94.844 Y42.077 E2.47973
G1 X95.144 Y42.077 E2.48331
G1 X95.444 Y42.097 E2.48689
G1 X96.034 Y42.177 E2.49399
G1 X96.324 Y42.237 E2.49752
G1 X99.584 Y43.147 E2.53789
G1 X100.324 Y43.397 E2.54720
G1 X128.674 Y55.227 E2.91352
G1 X129.224 Y55.517 E2.92094
G1 X129.744 Y55.867 E2.92841
G1 X131.564 Y57.357 E2.95646
G1 X132.094 Y57.887 E2.96540
G1 X133.604 Y59.727 E2.99378
G1 X133.964 Y60.287 E3.00172
G1 X134.124 Y60.577 E3.00567
G1 X134.404 Y61.187 E3.01368
G1 X146.794 Y92.847 E3.41910
G1 X147.074 Y93.777 E3.43068
G1 X147.514 Y95.747 E3.45475
G1 X147.584 Y96.227 E3.46054
G1 X147.684 Y98.837 E3.49168
G1 X147.674 Y99.157 E3.49550
G1 X147.644 Y99.477 E3.49933
G1 X147.074 Y102.167 E3.53212
G1 X146.884 Y102.747 E3.53940
G1 X146.644 Y103.307 E3.54667
G1 X133.794 Y126.677 E3.86470
G1 X133.204 Y127.557 E3.87734
G1 X131.894 Y129.207 E3.90246
G1 X131.474 Y129.647 E3.90971
G1 X131.014 Y130.047 E3.91698
G1 X128.454 Y131.727 E3.95350
G1 X100.554 Y146.767 E4.33146
G1 X99.964 Y147.017 E4.33910
G1 X99.664 Y147.117 E4.34288
G1 X96.044 Y147.847 E4.38691
G1 X95.744 Y147.887 E4.39052
G1 X95.154 Y147.917 E4.39757
G1 X94.854 Y147.917 E4.40114
G1 X94.554 Y147.897 E4.40473
G1 X93.964 Y147.817 E4.41183
G1 X93.664 Y147.757 E4.41548
G1 X90.144 Y146.767 E4.45908
G1 X89.634 Y146.577 E4.46557
G1 X89.134 Y146.347 E4.47213
G1 X62.014 Y132.007 E4.83796
G1 X59.224 Y130.237 E4.87737
G1 X58.514 Y129.657 E4.88830
G1 X58.094 Y129.217 E4.89555
G1 X56.784 Y127.557 E4.92077
G1 X56.194 Y126.677 E4.93340
G1 X43.344 Y103.307 E5.25144
G1 X42.994 Y102.437 E5.26262
G1 X42.454 Y100.077 E5.29149
G1 X42.354 Y99.477 E5.29874
G1 X42.324 Y99.167 E5.30246
G1 X42.374 Y96.487 E5.33442
G1 X42.474 Y95.727 E5.34356
G1 X42.944 Y93.657 E5.36888
G1 X43.224 Y92.747 E5.38023
G1 X55.714 Y60.877 E5.78842
G1 X56.024 Y60.287 E5.79637
G1 X56.194 Y60.007 E5.80027
G1 X57.894 Y57.887 E5.83268
G1 X58.023 Y57.750 E5.83491
G1 F1800.000 E3.83491
G92 E0
G1 X62.183 Y123.390 F6000.000
G1 F1800.000 E2.00000
G1 X61.390 Y121.358 F960.000 E2.02602
G1 X61.417 Y119.539 E2.04771
G1 X62.176 Y117.583 E2.07273
G1 X62.521 Y117.693 E2.07705
G1 X62.107 Y119.335 E2.09724
G1 X62.031 Y121.094 E2.11824
G1 X62.679 Y122.914 E2.14127
G1 X63.590 Y124.040 E2.15855
G1 X65.048 Y125.112 E2.18012
G1 X67.080 Y125.556 E2.20493
G1 X67.235 Y125.547 E2.20678
G1 X67.235 Y125.547 E2.20678
G1 X68.759 Y125.455 E2.22499
G1 X69.231 Y125.232 E2.23121
G1 X69.231 Y125.232 E2.23121
G1 X70.482 Y124.642 E2.24771
G1 X71.716 Y123.378 E2.26877
G1 X72.515 Y121.908 E2.28873
G1 X72.869 Y120.330 E2.30801
G1 X72.710 Y117.384 E2.34319
G1 X70.515 Y111.421 E2.41897
G1 X70.216 Y107.733 E2.46309
G1 X71.138 Y105.043 E2.49700
G1 X74.069 Y102.062 E2.54685
G1 X74.132 Y102.022 E2.54774
G1 X74.132 Y102.022 E2.54774
G1 X82.516 Y96.755 E2.66582
G1 X83.191 Y95.633 E2.68143
G1 X82.350 Y94.752 E2.69596
G1 X80.457 Y94.171 E2.71956
G1 X76.444 Y94.119 E2.76742
G1 X73.729 Y94.541 E2.80019
G1 X71.253 Y95.263 E2.83095
G1 X69.659 Y96.024 E2.85201
G1 X64.694 Y100.822 E2.93434
G1 X62.676 Y102.484 E2.96553
G1 X61.057 Y103.457 E2.98804
G1 X58.814 Y104.256 E3.01645
G1 X57.469 Y104.595 E3.03298
G1 X54.849 Y104.525 E3.06424
G1 X53.411 Y104.179 E3.08187
G1 X51.829 Y103.367 E3.10307
G1 X50.636 Y102.372 E3.12160
G1 X49.500 Y100.341 E3.14936
G1 X49.137 Y98.697 E3.16943
G1 X49.190 Y96.976 E3.18996
G1 X49.560 Y95.346 E3.20990
G1 X50.397 Y93.953 E3.22927
G1 X51.505 Y92.865 E3.24779
G1 X53.406 Y91.984 E3.27278
G1 X53.578 Y92.300 E3.27707
G1 X52.151 Y93.200 E3.29720
G1 X51.076 Y94.178 E3.31452
G1 X51.043 Y94.178 E3.31492
G1 X50.200 Y95.668 E3.33533
G1 X49.800 Y96.936 E3.35119
G1 X49.689 Y98.282 E3.36729
G1 X49.931 Y99.626 E3.38358
G1 X49.931 Y99.626 E3.38358
G1 X49.937 Y99.655 E3.38393
G1 X49.947 Y99.655 E3.38405
G1 X50.989 Y101.754 E3.41200
G1 X52.253 Y102.739 E3.43110
G1 X52.839 Y103.084 E3.43922
G1 X52.839 Y103.084 E3.43922
G1 X53.477 Y103.458 E3.44804
G1 X54.717 Y103.808 E3.46340
G1 X56.610 Y103.895 E3.48599
G1 X56.734 Y103.870 E3.48750
G1 X56.734 Y103.870 E3.48750
G1 X57.771 Y103.659 E3.50012
G1 X59.093 Y103.217 E3.51674
G1 X59.093 Y103.316 E3.51793
G1 X61.230 Y102.165 E3.54688
G1 X63.384 Y100.523 E3.57918
G1 X65.149 Y98.541 E3.61082
G1 X66.904 Y96.312 E3.64465
G1 X69.050 Y94.262 E3.68005
G1 X71.451 Y92.633 E3.71464
G1 X73.970 Y91.311 E3.74857
G1 X76.794 Y90.130 E3.78507
G1 X80.470 Y89.019 E3.83087
G1 X80.524 Y89.011 E3.83151
G1 X80.524 Y89.011 E3.83151
G1 X82.792 Y88.682 E3.85884
G1 X82.988 Y87.760 E3.87008
G1 X81.639 Y86.911 E3.88908
G1 X78.179 Y85.754 E3.93259
G1 X74.657 Y83.811 E3.98055
G1 X72.473 Y82.188 E4.01301
G1 X71.387 Y79.631 E4.04614
G1 X71.238 Y77.384 E4.07299
G1 X71.924 Y74.966 E4.10297
G1 X73.342 Y69.341 E4.17214
G1 X73.595 Y66.419 E4.20712
G1 X73.210 Y64.668 E4.22850
G1 X73.210 Y64.668 E4.22850
G1 X73.208 Y64.659 E4.22861
G1 X73.204 Y64.659 E4.22865
G1 X72.454 Y63.220 E4.24800
G1 X72.454 Y63.220 E4.24800
G1 X72.452 Y63.216 E4.24806
G1 X71.445 Y62.253 E4.26466
G1 X69.950 Y61.625 E4.28400
G1 X69.797 Y61.593 E4.28587
G1 X69.797 Y61.593 E4.28587
G1 X67.773 Y61.171 E4.31052
G1 X67.243 Y61.270 E4.31695
G1 X67.243 Y61.270 E4.31695
G1 X66.012 Y61.500 E4.33188
G1 X64.554 Y62.002 E4.35027
G1 X64.420 Y62.115 E4.35237
G1 X64.420 Y62.115 E4.35237
G1 X63.455 Y62.936 E4.36748
G1 X62.522 Y64.102 E4.38528
G1 X62.089 Y65.909 E4.40744
G1 X62.116 Y67.392 E4.42512
G1 X62.513 Y69.035 E4.44529
G1 X62.171 Y69.142 E4.44957
G1 X61.420 Y67.201 E4.47439
G1 X61.412 Y65.659 E4.49278
G1 X61.930 Y63.727 E4.51663
G1 X62.978 Y62.442 E4.53640
G1 X64.282 Y61.379 E4.55647
G1 X66.007 Y60.687 E4.57863
G1 X67.739 Y60.408 E4.59955
G1 X70.002 Y60.765 E4.62687
G1 X71.880 Y61.660 E4.65168
G1 X73.188 Y62.859 E4.67284
G1 X74.043 Y64.498 E4.69488
G1 X74.529 Y66.384 E4.71811
G1 X74.392 Y69.465 E4.75488
G1 X73.838 Y72.528 E4.79200
G1 X73.870 Y77.202 E4.84774
G1 X74.387 Y79.017 E4.87025
G1 X75.540 Y80.273 E4.89058
G1 X76.821 Y80.919 E4.90769
G1 X78.979 Y81.393 E4.93403
G1 X78.979 Y81.393 E4.93403
G1 X79.072 Y81.414 E4.93517
G1 X79.072 Y81.393 E4.93542
G1 X81.846 Y81.374 E4.96850
G1 X81.846 Y81.381 E4.96858
G1 X85.835 Y81.243 E5.01618
G1 X87.490 Y80.995 E5.03613
G1 X87.490 Y81.223 E5.03884
G1 X88.173 Y80.892 E5.04790
G1 X88.173 Y80.892 E5.04790
G1 X90.658 Y79.688 E5.08082
G1 X92.716 Y78.479 E5.10929
G1 X92.716 Y78.479 E5.10929
G1 X93.981 Y77.748 E5.12671
G1 X93.981 Y77.748 E5.12671
G1 X94.861 Y77.246 E5.13879
G1 X97.996 Y75.194 E5.18347
G1 X99.626 Y72.464 E5.22139
G1 X99.431 Y70.082 E5.24989
G1 X99.212 Y69.414 E5.25827
G1 X99.212 Y69.414 E5.25827
G1 X98.873 Y68.387 E5.27118
G1 X98.681 Y68.216 E5.27424
G1 X98.681 Y68.216 E5.27424
G1 X97.270 Y66.961 E5.29676
G1 X95.967 Y66.094 E5.31541
G1 X95.841 Y66.021 E5.31716
G1 X95.841 Y66.021 E5.31716
G1 X91.083 Y63.401 E5.38193
G1 X89.218 Y61.572 E5.41308
G1 X88.199 Y59.230 E5.44354
G1 X87.894 Y56.764 E5.47317
G1 X88.411 Y53.256 E5.51545
G1 X90.355 Y50.803 E5.55278
G1 X92.422 Y49.392 E5.58261
G1 X94.875 Y48.914 E5.61242
G1 X97.674 Y49.692 E5.64706
G1 X99.028 Y50.719 E5.66733
G1 X99.997 Y52.039 E5.68686
G1 X100.556 Y53.765 E5.70849
G1 X100.638 Y55.948 E5.73454
G1 X99.817 Y57.597 E5.75650
G1 X98.510 Y58.646 E5.77649
G1 X98.272 Y58.397 E5.78059
G1 X99.208 Y57.332 E5.79750
G1 X99.208 Y57.332 E5.79750
G1 X99.322 Y57.202 E5.79956
G1 X99.995 Y55.740 E5.81875
G1 X99.995 Y55.740 E5.81875
G1 X100.088 Y55.538 E5.82141
G1 X100.039 Y54.302 E5.83616
G1 X100.039 Y54.302 E5.83616
G1 X100.013 Y53.666 E5.84375
G1 X99.424 Y52.501 E5.85931
G1 X98.453 Y51.304 E5.87770
G1 X98.453 Y51.275 E5.87804
G1 X96.880 Y50.371 E5.89968
G1 X94.864 Y49.947 E5.92425
G1 X94.864 Y49.934 E5.92440
G1 X92.518 Y50.365 E5.95284
G1 X90.411 Y51.821 E5.98338
G1 X89.266 Y54.288 E6.01581
G1 X89.211 Y56.688 E6.04443
G1 X89.624 Y58.249 E6.06369
G1 X90.766 Y59.741 E6.08609
G1 X92.586 Y61.389 E6.11537
G1 X97.444 Y63.617 E6.17910
G1 X99.431 Y64.696 E6.20606
G1 X101.698 Y66.242 E6.23878
G1 X104.001 Y68.776 E6.27962
G1 X104.861 Y72.066 E6.32017
G1 X104.679 Y75.232 E6.35799
G1 X104.679 Y75.232 E6.35799
G1 X104.659 Y75.571 E6.36203
G1 X104.004 Y78.389 E6.39654
G1 X104.543 Y79.748 E6.41397
G1 X108.057 Y81.315 E6.45985
G1 X108.473 Y81.363 E6.46485
G1 X108.473 Y81.363 E6.46485
G1 X111.214 Y81.674 E6.49774
G1 X113.246 Y81.186 E6.52266
G1 X114.445 Y80.519 E6.53903
G1 X115.591 Y79.273 E6.55921
G1 X116.108 Y77.433 E6.58200
G1 X116.134 Y72.564 E6.64006
G1 X115.608 Y69.468 E6.67751
G1 X115.471 Y66.384 E6.71432
G1 X115.957 Y64.498 E6.73755
G1 X116.812 Y62.859 E6.75959
G1 X118.120 Y61.660 E6.78075
G1 X119.998 Y60.765 E6.80556
G1 X122.261 Y60.408 E6.83288
G1 X122.731 Y60.484 E6.83856
G1 X122.731 Y60.484 E6.83856
G1 X123.993 Y60.687 E6.85380
G1 X125.718 Y61.379 E6.87596
G1 X127.022 Y62.442 E6.89603
G1 X128.070 Y63.727 E6.91580
G1 X128.444 Y65.119 E6.93299
G1 X128.444 Y65.119 E6.93299
G1 X128.588 Y65.659 E6.93965
G1 X128.580 Y67.201 E6.95804
G1 X127.829 Y69.142 E6.98286
G1 X127.487 Y69.035 E6.98714
G1 X127.884 Y67.392 E7.00731
G1 X127.911 Y65.909 E7.02499
G1 X127.478 Y64.102 E7.04715
G1 X126.545 Y62.936 E7.06495
G1 X125.446 Y62.002 E7.08216
G1 X123.988 Y61.500 E7.10055
G1 X123.381 Y61.387 E7.10791
G1 X123.381 Y61.387 E7.10791
G1 X122.508 Y61.224 E7.11850
G1 X122.508 Y61.113 E7.11983
G1 X120.050 Y61.625 E7.14977
G1 X119.680 Y61.780 E7.15455
G1 X119.680 Y61.780 E7.15455
G1 X118.555 Y62.253 E7.16910
G1 X117.548 Y63.216 E7.18571
G1 X116.802 Y64.647 E7.20496
G1 X116.802 Y64.647 E7.20496
G1 X116.790 Y64.670 E7.20527
G1 X116.405 Y66.419 E7.22662
G1 X116.657 Y69.338 E7.26157
G1 X117.399 Y72.143 E7.29617
G1 X117.399 Y72.143 E7.29617
G1 X118.049 Y75.110 E7.33238
G1 X118.741 Y77.587 E7.36305
G1 X118.591 Y79.893 E7.39060
G1 X117.531 Y82.510 E7.42427
G1 X115.717 Y84.202 E7.45386
G1 X112.357 Y85.970 E7.49913
G1 X108.432 Y86.911 E7.54727
G1 X107.026 Y87.742 E7.56674
G1 X107.212 Y88.683 E7.57818
G1 X109.530 Y89.019 E7.60611
G1 X113.206 Y90.130 E7.65190
G1 X116.030 Y91.311 E7.68840
G1 X118.549 Y92.633 E7.72233
G1 X120.950 Y94.262 E7.75692
G1 X122.930 Y96.153 E7.78958
G1 X122.930 Y96.153 E7.78958
G1 X123.096 Y96.312 E7.79232
G1 X123.266 Y96.529 E7.79560
G1 X123.266 Y96.529 E7.79560
G1 X124.851 Y98.541 E7.82615
G1 X126.616 Y100.523 E7.85779
G1 X128.770 Y102.165 E7.89009
G1 X130.422 Y103.055 E7.91248
G1 X132.229 Y103.659 E7.93520
G1 X133.390 Y103.895 E7.94932
G1 X135.135 Y103.815 E7.97015
G1 X135.135 Y103.850 E7.97056
G1 X136.523 Y103.458 E7.98776
G1 X136.578 Y103.426 E7.98853
G1 X136.578 Y103.426 E7.98853
G1 X137.747 Y102.739 E8.00470
G1 X139.011 Y101.754 E8.02380
G1 X140.069 Y99.623 E8.05217
G1 X140.311 Y98.282 E8.06843
G1 X140.210 Y97.061 E8.08303
G1 X140.210 Y97.061 E8.08303
G1 X140.200 Y96.936 E8.08453
G1 X139.800 Y95.668 E8.10039
G1 X138.992 Y94.239 E8.11995
G1 X137.849 Y93.200 E8.13837
G1 X137.760 Y93.144 E8.13963
G1 X137.760 Y93.144 E8.13963
G1 X136.422 Y92.300 E8.15850
G1 X136.594 Y91.984 E8.16280
G1 X138.495 Y92.865 E8.18778
G1 X139.603 Y93.953 E8.20630
G1 X140.440 Y95.346 E8.22568
G1 X140.810 Y96.976 E8.24561
G1 X140.863 Y98.697 E8.26614
G1 X140.500 Y100.340 E8.28622
G1 X139.364 Y102.372 E8.31397
G1 X138.171 Y103.367 E8.33250
G1 X136.589 Y104.179 E8.35370
G1 X135.151 Y104.525 E8.37134
G1 X132.531 Y104.595 E8.40260
G1 X131.186 Y104.256 E8.41913
G1 X131.103 Y104.226 E8.42018
G1 X131.103 Y104.226 E8.42019
G1 X128.943 Y103.457 E8.44753
G1 X127.324 Y102.484 E8.47005
G1 X125.306 Y100.822 E8.50123
G1 X121.815 Y97.421 E8.55935
G1 X121.818 Y97.417 E8.55941
G1 X120.341 Y96.024 E8.58363
G1 X118.747 Y95.263 E8.60469
G1 X116.271 Y94.541 E8.63544
G1 X113.556 Y94.119 E8.66821
G1 X110.170 Y94.163 E8.70859
G1 X110.170 Y93.979 E8.71079
G1 X107.650 Y94.752 E8.74222
G1 X106.809 Y95.633 E8.75675
G1 X107.484 Y96.755 E8.77236
G1 X113.035 Y100.211 E8.85034
G1 X113.035 Y100.211 E8.85034
G1 X115.931 Y102.062 E8.89133
G1 X118.862 Y105.043 E8.94118
G1 X119.784 Y107.733 E8.97509
G1 X119.485 Y111.421 E9.01921
G1 X117.321 Y117.297 E9.09388
G1 X117.321 Y117.297 E9.09388
G1 X117.290 Y117.384 E9.09499
G1 X117.131 Y120.330 E9.13017
G1 X117.485 Y121.908 E9.14945
G1 X118.210 Y123.241 E9.16755
G1 X118.210 Y123.241 E9.16755
G1 X118.284 Y123.378 E9.16941
G1 X119.518 Y124.642 E9.19047
G1 X121.241 Y125.455 E9.21319
G1 X121.622 Y125.478 E9.21774
G1 X121.622 Y125.478 E9.21774
G1 X122.920 Y125.556 E9.23325
G1 X123.339 Y125.465 E9.23836
G1 X123.339 Y125.465 E9.23836
G1 X124.952 Y125.112 E9.25805
G1 X126.410 Y124.040 E9.27963
G1 X127.218 Y123.042 E9.29495
G1 X127.218 Y123.042 E9.29495
G1 X127.321 Y122.914 E9.29691
G1 X127.805 Y121.556 E9.31410
G1 X127.805 Y121.556 E9.31410
G1 X127.969 Y121.094 E9.31994
G1 X127.893 Y119.335 E9.34094
G1 X127.479 Y117.693 E9.36113
G1 X127.824 Y117.583 E9.36545
G1 X128.583 Y119.539 E9.39047
G1 X128.610 Y121.358 E9.41216
G1 X127.817 Y123.390 E9.43818
G1 X126.783 Y124.700 E9.45807
G1 X124.831 Y125.957 E9.48575
G1 X122.724 Y126.333 E9.51128
G1 X120.981 Y126.279 E9.53208
G1 X118.934 Y125.290 E9.55919
G1 X117.072 Y123.642 E9.58883
G1 X116.139 Y122.030 E9.61105
G1 X115.551 Y120.322 E9.63259
G1 X115.619 Y117.273 E9.66896
G1 X116.247 Y114.216 E9.70618
G1 X117.082 Y111.164 E9.74390
G1 X117.252 Y108.021 E9.78143
G1 X117.252 Y108.021 E9.78143
G1 X117.292 Y107.274 E9.79036
G1 X117.120 Y107.274 E9.79242
G1 X116.205 Y105.302 E9.81834
G1 X114.101 Y103.827 E9.84898
G1 X113.940 Y103.771 E9.85102
G1 X113.940 Y103.771 E9.85102
G1 X112.247 Y103.184 E9.87238
G1 X110.734 Y103.091 E9.89046
G1 X110.734 Y102.972 E9.89187
G1 X110.199 Y103.058 E9.89833
G1 X110.199 Y103.058 E9.89833
G1 X107.759 Y103.451 E9.92780
G1 X107.628 Y103.524 E9.92959
G1 X107.628 Y103.524 E9.92959
G1 X104.479 Y105.269 E9.97252
G1 X103.537 Y107.145 E9.99756
G1 X103.532 Y107.145 E9.99762
G1 X101.140 Y111.011 E10.05183
G1 X101.140 Y111.011 E10.05183
G1 X100.871 Y111.416 E10.05763
G1 X99.932 Y112.242 E10.07254
G1 X99.928 Y112.240 E10.07259
G1 X99.034 Y113.040 E10.08690
G1 X95.446 Y113.994 E10.13117
G1 X93.912 Y118.808 E10.19142
G1 X94.035 Y121.260 E10.22070
G1 X95.094 Y123.708 E10.25251
G1 X96.170 Y125.248 E10.27491
G1 X98.574 Y126.785 E10.30893
G1 X100.726 Y128.636 E10.34279
G1 X101.802 Y130.879 E10.37246
G1 X102.106 Y133.276 E10.40126
G1 X101.589 Y136.743 E10.44306
G1 X99.645 Y139.196 E10.48039
G1 X97.578 Y140.608 E10.51024
G1 X95.125 Y141.086 E10.54004
G1 X92.326 Y140.308 E10.57468
G1 X90.972 Y139.281 E10.59495
G1 X90.003 Y137.961 E10.61448
G1 X89.444 Y136.235 E10.63611
G1 X89.362 Y134.052 E10.66216
G1 X90.183 Y132.403 E10.68413
G1 X91.490 Y131.354 E10.70411
G1 X91.728 Y131.603 E10.70821
G1 X90.678 Y132.798 E10.72719
G1 X90.139 Y133.968 E10.74255
G1 X90.139 Y133.968 E10.74255
G1 X89.912 Y134.462 E10.74903
G1 X89.986 Y136.334 E10.77137
G1 X90.576 Y137.499 E10.78694
G1 X91.590 Y138.750 E10.80615
G1 X93.120 Y139.629 E10.82719
G1 X95.169 Y140.060 E10.85215
G1 X97.482 Y139.635 E10.88020
G1 X99.589 Y138.178 E10.91074
G1 X100.734 Y135.712 E10.94316
G1 X100.789 Y133.326 E10.97162
G1 X100.563 Y132.489 E10.98196
G1 X100.563 Y132.489 E10.98196
G1 X100.372 Y131.784 E10.99068
G1 X99.163 Y130.288 E11.01361
G1 X97.034 Y128.430 E11.04731
