; generated by Slic3r 0.9.1 on 2012-08-25 at 10:59:52

; layer_height = 0.4
; perimeters = 2
; solid_layers = 1
; fill_density = 0.6
; perimeter_speed = 40
; infill_speed = 100
; travel_speed = 100
; scale = 1
; nozzle_diameter = 0.5
; filament_diameter = 3
; extrusion_multiplier = 1
; single wall width = 0.53mm
; first layer single wall width = 0.80mm

M107
G28 ; go home
G92 E0 ; reset extruder distance to zero
G1 Z20 F300 ;  go up 20 mm
G1 E20 F100 ; extrude 20 mm filament
G4 S5 ; pause for 5 seconds, give user time to wipe
G1 Z0 F300 ; go back to zero
G92 E0 ; reset extruder distance to zero
M107 ; Make sure fan is off
G90 ; use absolute coordinates
G21 ; set units to millimeters
G92 E0
M82 ; use absolute distances for extrusion
G1 Z0.400 F6000.000
G1 X50.620 Y66.679
G1 F1800.000 E2.00000
G1 X50.810 Y65.899 F960.000 E2.03342
G1 X50.890 Y65.639 E2.04474
G1 X51.200 Y64.889 E2.07853
G1 X51.600 Y64.179 E2.11245
G1 X51.910 Y63.739 E2.13485
G1 X52.440 Y63.129 E2.16849
G1 X52.630 Y62.939 E2.17968
G1 X53.040 Y62.579 E2.20239
G1 X53.470 Y62.259 E2.22470
G1 X53.700 Y62.109 E2.23613
G1 X54.410 Y61.729 E2.26966
G1 X55.160 Y61.429 E2.30328
G1 X55.680 Y61.279 E2.32581
G1 X56.210 Y61.169 E2.34834
G1 X56.750 Y61.099 E2.37101
G1 X75.600 Y61.069 E3.15569
G1 X132.750 Y61.089 E5.53471
G1 X133.290 Y61.159 E5.55737
G1 X133.830 Y61.269 E5.58031
G1 X134.100 Y61.339 E5.59192
G1 X134.870 Y61.619 E5.62603
G1 X135.610 Y61.989 E5.66047
G1 X136.290 Y62.449 E5.69465
G1 X136.720 Y62.799 E5.71773
G1 X137.110 Y63.179 E5.74039
G1 X137.300 Y63.389 E5.75218
G1 X137.640 Y63.809 E5.77468
G1 X138.090 Y64.499 E5.80897
G1 X138.340 Y64.989 E5.83187
G1 X138.550 Y65.499 E5.85483
G1 X138.720 Y66.019 E5.87760
G1 X142.410 Y85.089 E6.68616
G1 X143.410 Y92.519 E6.99824
G1 X143.470 Y93.419 E7.03579
G1 X143.470 Y98.459 E7.24559
G1 X143.380 Y99.549 E7.29112
G1 X142.330 Y105.949 E7.56110
G1 X142.200 Y106.469 E7.58341
G1 X142.030 Y106.989 E7.60619
G1 X141.930 Y107.239 E7.61739
G1 X141.560 Y107.969 E7.65146
G1 X141.270 Y108.429 E7.67410
G1 X140.950 Y108.869 E7.69675
G1 X140.590 Y109.269 E7.71915
G1 X140.390 Y109.469 E7.73092
G1 X139.990 Y109.829 E7.75332
G1 X139.330 Y110.299 E7.78705
G1 X138.860 Y110.579 E7.80983
G1 X102.340 Y127.989 E9.49398
G1 X101.490 Y128.289 E9.53150
G1 X100.600 Y128.469 E9.56930
G1 X99.700 Y128.529 E9.60685
G1 X54.280 Y128.519 E11.49757
G1 X53.960 Y128.499 E11.51092
G1 X53.320 Y128.409 E11.53782
G1 X52.390 Y128.159 E11.57791
G1 X51.530 Y127.819 E11.61641
G1 X51.030 Y127.569 E11.63968
G1 X50.560 Y127.279 E11.66267
G1 X50.110 Y126.949 E11.68589
G1 X49.680 Y126.589 E11.70924
G1 X49.290 Y126.189 E11.73250
G1 X48.940 Y125.769 E11.75525
G1 X48.610 Y125.309 E11.77882
G1 X48.330 Y124.829 E11.80195
G1 X47.980 Y124.069 E11.83678
G1 X47.730 Y123.279 E11.87128
G1 X46.620 Y116.609 E12.15275
G1 X46.530 Y115.519 E12.19828
G1 X46.560 Y109.879 E12.43306
G1 X50.580 Y66.949 E14.22795
G1 X50.602 Y66.798 E14.23432
G1 F1800.000 E12.23432
G92 E0
G1 X104.600 Y69.560 F6000.000
G1 F1800.000 E2.00000
G1 X111.900 Y69.560 F960.000 E2.30388
G1 X111.900 Y90.382 E3.17065
G1 X104.600 Y90.382 E3.47453
G1 X104.600 Y69.680 E4.33631
G1 F1800.000 E2.33631
G92 E0
G1 X100.168 Y119.801 F6000.000
G1 F1800.000 E2.00000
G1 X100.168 Y114.757 F960.000 E2.20998
G1 X99.168 Y114.757 E2.25161
G1 X99.168 Y111.282 E2.39625
G1 X100.168 Y111.282 E2.43787
G1 X100.168 Y103.414 E2.76540
G1 X101.533 Y101.740 E2.85532
G1 X103.168 Y97.142 E3.05847
G1 X103.168 Y91.150 E3.30788
G1 X113.132 Y91.150 E3.72268
G1 X113.132 Y93.659 E3.82713
G1 X105.404 Y102.489 E4.31558
G1 X105.404 Y102.489 E4.31558
G1 X105.265 Y102.647 E4.32433
G1 X101.773 Y108.870 E4.62142
G1 X101.773 Y108.870 E4.62142
G1 X101.332 Y109.655 E4.65888
G1 X101.332 Y119.049 E5.04993
G1 X100.461 Y119.922 E5.10127
G1 X100.279 Y119.847 E5.10948
G1 X102.100 Y119.367 F6000.000
G1 X99.705 Y121.766 F960.000 E5.25058
G1 X99.400 Y121.639 E5.26433
G1 X99.400 Y115.524 E5.51888
G1 X98.400 Y115.524 E5.56051
G1 X98.400 Y110.514 E5.76907
G1 X99.400 Y110.514 E5.81070
G1 X99.400 Y103.141 E6.11764
G1 X100.854 Y101.358 E6.21341
G1 X102.400 Y97.009 E6.40552
G1 X102.400 Y67.854 E7.61917
G1 X113.900 Y67.854 E8.09789
G1 X113.900 Y93.948 E9.18410
G1 X105.896 Y103.092 E9.68999
G1 X102.222 Y109.638 E10.00245
G1 X102.222 Y109.638 E10.00245
G1 X102.100 Y109.856 E10.01284
G1 X102.100 Y119.247 E10.40377
G1 F1800.000 E8.40377
G92 E0
G1 X122.700 Y91.002 F6000.000
G1 F1800.000 E2.00000
G1 X122.700 Y70.062 F960.000 E2.87168
G1 X130.000 Y70.062 E3.17556
G1 X130.000 Y91.002 E4.04724
G1 X122.820 Y91.002 E4.34613
G1 F1800.000 E2.34613
G92 E0
G1 X121.468 Y93.225 F6000.000
G1 F1800.000 E2.00000
G1 X121.468 Y91.770 F960.000 E2.06059
G1 X130.768 Y91.770 E2.44773
G1 X130.768 Y79.498 E2.95856
G1 X131.202 Y79.387 E2.97721
G1 X134.932 Y86.189 E3.30015
G1 X134.932 Y94.196 E3.63345
G1 X135.932 Y94.196 E3.67508
G1 X135.932 Y97.692 E3.82062
G1 X134.932 Y97.692 E3.86225
G1 X134.932 Y102.752 E4.07287
G1 X134.638 Y102.873 E4.08610
G1 X133.768 Y101.998 E4.13749
G1 X133.768 Y93.225 E4.50268
G1 X121.588 Y93.225 E5.00970
G1 X120.700 Y93.993 F6000.000
G1 X120.700 Y67.846 F960.000 E6.09814
G1 X132.200 Y67.846 E6.57686
G1 X132.200 Y79.611 E7.06658
G1 X135.700 Y85.993 E7.36957
G1 X135.700 Y93.428 E7.67910
G1 X136.700 Y93.428 E7.72073
G1 X136.700 Y98.460 E7.93020
G1 X135.700 Y98.460 E7.97182
G1 X135.700 Y104.595 E8.22720
G1 X135.394 Y104.721 E8.24099
G1 X133.000 Y102.315 E8.38228
G1 X133.000 Y93.993 E8.72870
G1 X120.820 Y93.993 E9.23572
G1 F1800.000 E7.23572
G92 E0
G1 X100.791 Y112.276 F6000.000
G1 F1800.000 E2.00000
G1 X100.338 Y111.824 F2160.000 E2.03134
G1 X99.709 Y112.479 E2.07579
G1 X100.790 Y113.560 E2.15065
G1 X99.710 Y113.762 E2.20447
G1 X100.162 Y114.215 E2.23581
G1 F1800.000 E0.23581
G92 E0
G1 X101.162 Y109.019 F6000.000
G1 F1800.000 E2.00000
G1 X100.709 Y108.566 F2160.000 E2.02671
G1 X101.554 Y108.322 F6000.000
G1 X100.710 Y107.478 F2160.000 E2.07651
G1 X100.709 Y106.389 E2.12191
G1 X101.944 Y107.625 E2.19481
G1 X102.336 Y106.927 F6000.000
G1 X100.709 Y105.301 F2160.000 E2.29079
G1 X100.709 Y104.212 E2.33622
G1 X102.727 Y106.230 E2.45529
G1 X103.119 Y105.532 F6000.000
G1 X100.861 Y103.275 F2160.000 E2.58851
G1 X101.350 Y102.676 F6000.000
G1 X103.510 Y104.836 F2160.000 E2.71597
G1 X103.901 Y104.138 F6000.000
G1 X101.839 Y102.076 F2160.000 E2.83767
G1 X102.185 Y101.333 F6000.000
G1 X104.293 Y103.441 F2160.000 E2.96202
G1 X104.684 Y102.743 F6000.000
G1 X102.471 Y100.530 F2160.000 E3.09260
G1 X102.756 Y99.728 E3.12813
G1 X105.139 Y102.110 E3.26872
G1 X105.647 Y101.530 F6000.000
G1 X103.042 Y98.925 F2160.000 E3.42244
G1 X103.328 Y98.121 E3.45802
G1 X106.155 Y100.949 E3.62487
G1 X106.664 Y100.368 F6000.000
G1 X103.613 Y97.318 F2160.000 E3.80486
G1 X103.709 Y96.326 F6000.000
G1 X107.171 Y99.788 F2160.000 E4.00915
G1 X107.679 Y99.208 F6000.000
G1 X103.709 Y95.238 F2160.000 E4.24343
G1 X103.709 Y94.149 E4.28886
G1 X108.188 Y98.627 E4.55312
G1 X108.696 Y98.047 F6000.000
G1 X103.709 Y93.060 F2160.000 E4.84736
G1 X103.709 Y91.972 E4.89276
G1 X109.204 Y97.467 E5.21699
G1 X109.712 Y96.886 F6000.000
G1 X104.518 Y91.692 F2160.000 E5.52349
G1 X105.607 Y91.692 E5.56892
G1 X110.220 Y96.305 E5.84116
G1 X110.729 Y95.725 F6000.000
G1 X106.695 Y91.691 F2160.000 E6.07915
G1 X107.783 Y91.692 E6.12455
G1 X111.236 Y95.145 E6.32829
G1 X111.744 Y94.564 F6000.000
G1 X108.872 Y91.692 F2160.000 E6.49778
G1 X109.961 Y91.692 E6.54321
G1 X112.253 Y93.983 E6.67845
G1 X112.591 Y93.233 F6000.000
G1 X111.050 Y91.691 F2160.000 E6.76939
G1 X112.138 Y91.692 E6.81479
G1 X112.590 Y92.145 E6.84151
G1 F1800.000 E4.84151
G92 E0
G1 X112.882 Y86.559 F6000.000
G1 F1800.000 E2.00000
G1 X112.899 Y90.918 F2160.000 E2.18146
G1 F1800.000 E0.18146
G92 E0
G1 X112.870 Y82.566 F6000.000
G1 F1800.000 E2.00000
G1 X112.882 Y86.559 F2160.000 E2.16620
G1 F1800.000 E0.16620
G92 E0
G1 X112.869 Y82.167 F6000.000
G1 F1800.000 E2.00000
G1 X112.870 Y82.566 F2160.000 E2.01662
G1 X112.869 Y81.768 F6000.000
G1 X112.869 Y82.167 F2160.000 E2.03324
G1 F1800.000 E0.03324
G92 E0
G1 X112.864 Y79.373 F6000.000
G1 F1800.000 E2.00000
G1 X112.933 Y68.797 F2160.000 E2.44024
G1 X112.534 Y68.643 E2.45803
G1 X109.018 Y68.767 E2.60448
G1 X108.947 Y68.634 E2.61079
G1 X108.634 Y68.778 E2.62513
G1 X108.549 Y68.624 E2.63245
G1 F1800.000 E0.63245
G92 E0
G1 X121.657 Y77.198 F6000.000
G1 F1800.000 E2.00000
G1 X121.664 Y69.213 F2160.000 E2.33239
G1 X121.816 Y68.962 E2.34458
G1 X130.834 Y68.928 E2.72000
G1 X131.125 Y69.214 E2.73696
G1 X131.078 Y78.910 E3.14059
G1 X131.334 Y79.208 E3.15693
G1 X131.032 Y79.174 F6000.000
G1 X131.101 Y79.067 F2160.000 E3.16227
G1 F1800.000 E1.16227
G92 E0
G1 X131.310 Y81.366 F6000.000
G1 F1800.000 E2.00000
G1 X131.762 Y81.819 F2160.000 E2.02667
G1 X133.081 Y84.225 E2.14097
G1 X131.309 Y82.453 E2.24537
G1 X131.309 Y83.539 E2.29062
G1 X134.391 Y86.621 E2.47213
G1 X134.391 Y87.707 E2.51738
G1 X131.309 Y84.626 E2.69888
G1 X131.310 Y85.712 E2.74413
G1 X134.391 Y88.794 E2.92564
G1 X134.391 Y89.881 E2.97092
G1 X131.309 Y86.799 E3.15243
G1 X131.309 Y87.885 E3.19768
G1 X134.391 Y90.967 E3.37919
G1 X134.391 Y92.053 E3.42443
G1 X131.309 Y88.972 E3.60594
G1 X131.310 Y90.058 E3.65118
G1 X133.935 Y92.684 E3.80585
G1 X132.848 Y92.684 E3.85112
G1 X131.309 Y91.145 E3.94179
G1 X131.309 Y92.231 E3.98704
G1 X131.762 Y92.684 E4.01371
G1 F1800.000 E2.01371
G92 E0
G1 X135.391 Y95.190 F6000.000
G1 F1800.000 E2.00000
G1 X134.938 Y94.737 F2160.000 E2.03161
G1 X134.309 Y95.404 E2.07686
G1 X135.391 Y96.485 E2.15239
G1 X134.309 Y96.698 E2.20680
G1 X134.762 Y97.151 E2.23842
G1 F1800.000 E0.23842
G92 E0
G1 X121.696 Y91.171 F6000.000
G1 F1800.000 E2.00000
G1 X121.699 Y91.504 F2160.000 E2.01384
G1 X121.694 Y90.772 F6000.000
G1 X121.696 Y91.171 F2160.000 E2.03046
G1 X121.692 Y90.373 F6000.000
G1 X121.657 Y77.198 F2160.000 E2.57890
G1 F1800.000 E0.57890
G92 E0
G1 X103.471 Y69.610 F6000.000
G1 F1800.000 E2.00000
G1 X103.500 Y90.818 F2160.000 E2.88283
G1 F1800.000 E0.88283
G92 E0
G1 X103.525 Y68.979 F6000.000
G1 F1800.000 E2.00000
G1 X103.471 Y69.610 F2160.000 E2.02637
G1 F1800.000 E0.02637
G92 E0
G1 X59.500 Y69.560 F6000.000
G1 F1800.000 E2.00000
G1 X66.800 Y69.560 F960.000 E2.30388
G1 X66.800 Y90.382 E3.17065
G1 X59.500 Y90.382 E3.47453
G1 X59.500 Y69.680 E4.33631
G1 F1800.000 E2.33631
G92 E0
G1 X55.068 Y119.801 F6000.000
G1 F1800.000 E2.00000
G1 X55.068 Y114.757 F960.000 E2.20998
G1 X54.068 Y114.757 E2.25161
G1 X54.068 Y111.282 E2.39625
G1 X55.068 Y111.282 E2.43787
G1 X55.068 Y103.414 E2.76540
G1 X56.433 Y101.740 E2.85532
G1 X58.068 Y97.142 E3.05847
G1 X58.068 Y91.150 E3.30788
G1 X68.032 Y91.150 E3.72268
G1 X68.032 Y93.659 E3.82713
G1 X60.304 Y102.489 E4.31558
G1 X60.304 Y102.489 E4.31558
G1 X60.165 Y102.647 E4.32433
G1 X56.673 Y108.870 E4.62142
G1 X56.673 Y108.870 E4.62142
G1 X56.232 Y109.655 E4.65888
G1 X56.232 Y119.049 E5.04993
G1 X55.361 Y119.922 E5.10127
G1 X55.179 Y119.847 E5.10948
G1 X57.000 Y119.367 F6000.000
G1 X54.605 Y121.766 F960.000 E5.25058
G1 X54.300 Y121.639 E5.26433
G1 X54.300 Y115.524 E5.51888
G1 X53.300 Y115.524 E5.56051
G1 X53.300 Y110.514 E5.76907
G1 X54.300 Y110.514 E5.81070
G1 X54.300 Y103.141 E6.11764
G1 X55.754 Y101.358 E6.21341
G1 X57.300 Y97.009 E6.40552
G1 X57.300 Y67.854 E7.61917
G1 X68.800 Y67.854 E8.09789
G1 X68.800 Y93.948 E9.18410
G1 X60.796 Y103.092 E9.68999
G1 X57.122 Y109.638 E10.00245
G1 X57.122 Y109.638 E10.00245
G1 X57.000 Y109.856 E10.01284
G1 X57.000 Y119.247 E10.40377
G1 F1800.000 E8.40377
G92 E0
G1 X77.600 Y91.002 F6000.000
G1 F1800.000 E2.00000
G1 X77.600 Y70.062 F960.000 E2.87168
G1 X84.900 Y70.062 E3.17556
G1 X84.900 Y91.002 E4.04724
G1 X77.720 Y91.002 E4.34613
G1 F1800.000 E2.34613
G92 E0
G1 X76.368 Y93.225 F6000.000
G1 F1800.000 E2.00000
G1 X76.368 Y91.770 F960.000 E2.06059
G1 X85.668 Y91.770 E2.44773
G1 X85.668 Y79.498 E2.95856
G1 X86.102 Y79.387 E2.97721
G1 X89.832 Y86.189 E3.30015
G1 X89.832 Y94.196 E3.63345
G1 X90.832 Y94.196 E3.67508
G1 X90.832 Y97.692 E3.82062
G1 X89.832 Y97.692 E3.86225
G1 X89.832 Y102.752 E4.07287
G1 X89.538 Y102.873 E4.08610
G1 X88.668 Y101.998 E4.13749
G1 X88.668 Y93.225 E4.50268
G1 X76.488 Y93.225 E5.00970
G1 X75.600 Y93.993 F6000.000
G1 X75.600 Y67.846 F960.000 E6.09814
G1 X87.100 Y67.846 E6.57686
G1 X87.100 Y79.611 E7.06658
G1 X90.600 Y85.993 E7.36957
G1 X90.600 Y93.428 E7.67910
G1 X91.600 Y93.428 E7.72073
G1 X91.600 Y98.460 E7.93020
G1 X90.600 Y98.460 E7.97182
G1 X90.600 Y104.595 E8.22720
G1 X90.294 Y104.721 E8.24099
G1 X87.900 Y102.315 E8.38228
G1 X87.900 Y93.993 E8.72870
G1 X75.720 Y93.993 E9.23572
G1 F1800.000 E7.23572
G92 E0
G1 X55.691 Y112.276 F6000.000
G1 F1800.000 E2.00000
G1 X55.238 Y111.824 F2160.000 E2.03134
G1 X54.609 Y112.479 E2.07579
G1 X55.690 Y113.560 E2.15065
G1 X54.610 Y113.762 E2.20447
G1 X55.062 Y114.215 E2.23581
G1 F1800.000 E0.23581
G92 E0
G1 X56.062 Y109.019 F6000.000
G1 F1800.000 E2.00000
G1 X55.609 Y108.566 F2160.000 E2.02671
G1 X56.454 Y108.322 F6000.000
G1 X55.610 Y107.478 F2160.000 E2.07651
G1 X55.609 Y106.389 E2.12191
G1 X56.844 Y107.625 E2.19481
G1 X57.236 Y106.927 F6000.000
G1 X55.609 Y105.301 F2160.000 E2.29079
G1 X55.609 Y104.212 E2.33622
G1 X57.627 Y106.230 E2.45529
G1 X58.019 Y105.532 F6000.000
G1 X55.761 Y103.275 F2160.000 E2.58851
G1 X56.250 Y102.676 F6000.000
G1 X58.410 Y104.836 F2160.000 E2.71597
G1 X58.801 Y104.138 F6000.000
G1 X56.739 Y102.076 F2160.000 E2.83767
G1 X57.085 Y101.333 F6000.000
G1 X59.193 Y103.441 F2160.000 E2.96202
G1 X59.584 Y102.743 F6000.000
G1 X57.371 Y100.530 F2160.000 E3.09260
G1 X57.656 Y99.728 E3.12813
G1 X60.039 Y102.110 E3.26872
G1 X60.547 Y101.530 F6000.000
G1 X57.942 Y98.925 F2160.000 E3.42244
G1 X58.228 Y98.121 E3.45802
G1 X61.055 Y100.949 E3.62487
G1 X61.564 Y100.368 F6000.000
G1 X58.513 Y97.318 F2160.000 E3.80486
G1 X58.609 Y96.326 F6000.000
G1 X62.071 Y99.788 F2160.000 E4.00915
G1 X62.579 Y99.208 F6000.000
G1 X58.609 Y95.238 F2160.000 E4.24343
G1 X58.609 Y94.149 E4.28886
G1 X63.088 Y98.627 E4.55312
G1 X63.596 Y98.047 F6000.000
G1 X58.609 Y93.060 F2160.000 E4.84736
G1 X58.609 Y91.972 E4.89276
G1 X64.104 Y97.467 E5.21699
G1 X64.612 Y96.886 F6000.000
G1 X59.418 Y91.692 F2160.000 E5.52349
G1 X60.507 Y91.692 E5.56892
G1 X65.120 Y96.305 E5.84116
G1 X65.629 Y95.725 F6000.000
G1 X61.595 Y91.691 F2160.000 E6.07915
G1 X62.683 Y91.692 E6.12455
G1 X66.136 Y95.145 E6.32829
G1 X66.644 Y94.564 F6000.000
G1 X63.772 Y91.692 F2160.000 E6.49778
G1 X64.861 Y91.692 E6.54321
G1 X67.153 Y93.983 E6.67845
G1 X67.491 Y93.233 F6000.000
G1 X65.950 Y91.691 F2160.000 E6.76939
G1 X67.038 Y91.692 E6.81479
G1 X67.490 Y92.145 E6.84151
G1 F1800.000 E4.84151
G92 E0
G1 X67.782 Y86.559 F6000.000
G1 F1800.000 E2.00000
G1 X67.799 Y90.918 F2160.000 E2.18146
G1 F1800.000 E0.18146
G92 E0
G1 X67.770 Y82.566 F6000.000
G1 F1800.000 E2.00000
G1 X67.782 Y86.559 F2160.000 E2.16620
G1 F1800.000 E0.16620
G92 E0
G1 X67.769 Y82.167 F6000.000
G1 F1800.000 E2.00000
G1 X67.770 Y82.566 F2160.000 E2.01662
G1 X67.769 Y81.768 F6000.000
G1 X67.769 Y82.167 F2160.000 E2.03324
G1 F1800.000 E0.03324
G92 E0
G1 X67.764 Y79.373 F6000.000
G1 F1800.000 E2.00000
G1 X67.833 Y68.797 F2160.000 E2.44024
G1 X67.434 Y68.643 E2.45803
G1 X63.918 Y68.767 E2.60448
G1 X63.847 Y68.634 E2.61079
G1 X63.534 Y68.778 E2.62513
G1 X63.449 Y68.624 E2.63245
G1 F1800.000 E0.63245
G92 E0
G1 X76.557 Y77.198 F6000.000
G1 F1800.000 E2.00000
G1 X76.564 Y69.213 F2160.000 E2.33239
G1 X76.716 Y68.962 E2.34458
G1 X85.734 Y68.928 E2.72000
G1 X86.025 Y69.214 E2.73696
G1 X85.978 Y78.910 E3.14059
G1 X86.234 Y79.208 E3.15693
G1 X85.932 Y79.174 F6000.000
G1 X86.001 Y79.067 F2160.000 E3.16227
G1 F1800.000 E1.16227
G92 E0
G1 X86.210 Y81.366 F6000.000
G1 F1800.000 E2.00000
G1 X86.662 Y81.819 F2160.000 E2.02667
G1 X87.981 Y84.225 E2.14097
G1 X86.209 Y82.453 E2.24537
G1 X86.209 Y83.539 E2.29062
G1 X89.291 Y86.621 E2.47213
G1 X89.291 Y87.707 E2.51738
G1 X86.209 Y84.626 E2.69888
G1 X86.209 Y85.712 E2.74413
G1 X89.291 Y88.794 E2.92564
G1 X89.291 Y89.881 E2.97092
G1 X86.209 Y86.799 E3.15243
G1 X86.209 Y87.885 E3.19768
G1 X89.291 Y90.967 E3.37919
G1 X89.291 Y92.053 E3.42443
G1 X86.209 Y88.972 E3.60594
G1 X86.210 Y90.058 E3.65118
