; generated by Slic3r 0.9.1 on 2012-08-25 at 14:20:56

; layer_height = 0.4
; perimeters = 2
; solid_layers = 1
; fill_density = 0.9
; perimeter_speed = 40
; infill_speed = 100
; travel_speed = 100
; scale = 1
; nozzle_diameter = 0.5
; filament_diameter = 3
; extrusion_multiplier = 1
; single wall width = 0.53mm
; first layer single wall width = 0.80mm

M107
G28 ; go home
G92 E0 ; reset extruder distance to zero
G1 Z20 F300 ;  go up 20 mm
G1 E20 F100 ; extrude 20 mm filament
G4 S5 ; pause for 5 seconds, give user time to wipe
G1 Z0 F300 ; go back to zero
G92 E0 ; reset extruder distance to zero
M107 ; Make sure fan is off
G90 ; use absolute coordinates
G21 ; set units to millimeters
G92 E0
M82 ; use absolute distances for extrusion
G1 Z0.400 F6000.000
G1 X56.750 Y83.770
G1 F1800.000 E2.00000
G1 X57.520 Y82.920 F960.000 E2.04774
G1 X58.280 Y82.200 E2.09132
G1 X59.170 Y81.480 E2.13898
G1 X60.010 Y80.900 E2.18147
G1 X61.000 Y80.320 E2.22923
G1 X61.950 Y79.860 E2.27317
G1 X63.020 Y79.440 E2.32102
G1 X63.960 Y79.150 E2.36197
G1 X65.080 Y78.890 E2.40983
G1 X66.140 Y78.730 E2.45446
G1 X67.760 Y78.630 E2.52202
G1 X122.700 Y78.650 E4.80904
G1 X123.850 Y78.730 E4.85703
G1 X124.910 Y78.890 E4.90165
G1 X126.030 Y79.150 E4.94952
G1 X126.970 Y79.440 E4.99047
G1 X128.040 Y79.860 E5.03832
G1 X128.990 Y80.320 E5.08225
G1 X129.980 Y80.900 E5.13002
G1 X130.820 Y81.480 E5.17251
G1 X131.710 Y82.200 E5.22016
G1 X132.470 Y82.920 E5.26374
G1 X133.240 Y83.770 E5.31149
G1 X133.830 Y84.530 E5.35154
G1 X134.470 Y85.480 E5.39922
G1 X134.900 Y86.200 E5.43413
G1 X136.610 Y89.570 E5.59144
G1 X137.180 Y90.980 E5.65475
G1 X137.480 Y91.970 E5.69781
G1 X137.650 Y92.760 E5.73145
G1 X137.780 Y93.680 E5.77013
G1 X137.840 Y94.490 E5.80394
G1 X137.840 Y95.480 E5.84515
G1 X137.780 Y96.300 E5.87938
G1 X137.650 Y97.230 E5.91847
G1 X137.480 Y98.020 E5.95211
G1 X137.180 Y99.010 E5.99517
G1 X136.610 Y100.420 E6.05848
G1 X134.900 Y103.790 E6.21579
G1 X134.470 Y104.510 E6.25070
G1 X133.830 Y105.460 E6.29838
G1 X133.240 Y106.220 E6.33843
G1 X132.470 Y107.070 E6.38618
G1 X131.710 Y107.790 E6.42976
G1 X130.820 Y108.510 E6.47741
G1 X129.980 Y109.090 E6.51990
G1 X128.990 Y109.670 E6.56767
G1 X128.040 Y110.130 E6.61160
G1 X126.970 Y110.550 E6.65945
G1 X126.030 Y110.840 E6.70040
G1 X124.910 Y111.100 E6.74827
G1 X123.850 Y111.260 E6.79289
G1 X122.230 Y111.360 E6.86046
G1 X67.290 Y111.340 E9.14747
G1 X66.140 Y111.260 E9.19546
G1 X65.080 Y111.100 E9.24009
G1 X63.960 Y110.840 E9.28795
G1 X63.020 Y110.550 E9.32890
G1 X61.950 Y110.130 E9.37675
G1 X61.000 Y109.670 E9.42069
G1 X60.010 Y109.090 E9.46845
G1 X59.170 Y108.510 E9.51094
G1 X58.280 Y107.790 E9.55860
G1 X57.520 Y107.070 E9.60218
G1 X56.750 Y106.220 E9.64992
G1 X56.160 Y105.460 E9.68997
G1 X55.520 Y104.510 E9.73765
G1 X55.090 Y103.790 E9.77256
G1 X53.380 Y100.420 E9.92988
G1 X52.810 Y99.010 E9.99318
G1 X52.510 Y98.020 E10.03625
G1 X52.340 Y97.230 E10.06989
G1 X52.210 Y96.300 E10.10898
G1 X52.150 Y95.480 E10.14320
G1 X52.150 Y94.490 E10.18441
G1 X52.210 Y93.680 E10.21822
G1 X52.340 Y92.760 E10.25690
G1 X52.510 Y91.970 E10.29054
G1 X52.810 Y90.980 E10.33360
G1 X53.380 Y89.570 E10.39691
G1 X55.090 Y86.200 E10.55422
G1 X55.520 Y85.480 E10.58913
G1 X56.160 Y84.530 E10.63682
G1 X56.676 Y83.865 E10.67187
G1 F1800.000 E8.67187
G92 E0
G1 X122.165 Y94.337 F6000.000
G1 F1800.000 E2.00000
G1 X122.173 Y94.303 F720.000 E2.00143
G1 X122.173 Y94.303 E2.00143
G1 X122.246 Y94.013 E2.01389
G1 X122.358 Y93.699 E2.02778
G1 X122.501 Y93.397 E2.04168
G1 X122.673 Y93.111 E2.05557
G1 X122.871 Y92.843 E2.06946
G1 X123.096 Y92.595 E2.08335
G1 X123.446 Y92.278 E2.10304
G1 X123.446 Y92.271 E2.10331
G1 X123.609 Y92.174 E2.11123
G1 X123.609 Y92.174 E2.11123
G1 X123.897 Y92.001 E2.12520
G1 X124.199 Y91.858 E2.13909
G1 X124.513 Y91.746 E2.15298
G1 X125.115 Y91.595 E2.17881
G1 X125.115 Y91.581 E2.17942
G1 X125.333 Y91.591 E2.18850
G1 X125.591 Y91.553 E2.19939
G1 X125.591 Y91.580 E2.20052
G1 X126.163 Y91.665 E2.22459
G1 X126.487 Y91.746 E2.23848
G1 X126.769 Y91.847 E2.25094
G1 X126.769 Y91.847 E2.25094
G1 X126.801 Y91.858 E2.25237
G1 X127.103 Y92.001 E2.26626
G1 X127.389 Y92.173 E2.28015
G1 X127.657 Y92.371 E2.29405
G1 X127.905 Y92.596 E2.30794
G1 X128.129 Y92.843 E2.32183
G1 X128.327 Y93.111 E2.33572
G1 X128.499 Y93.397 E2.34961
G1 X128.642 Y93.699 E2.36350
G1 X128.754 Y94.013 E2.37739
G1 X128.835 Y94.337 E2.39129
G1 X128.884 Y94.667 E2.40518
G1 X128.900 Y95.000 E2.41907
G1 X128.863 Y95.761 E2.45080
G1 X128.897 Y95.761 E2.45221
G1 X128.641 Y96.302 E2.47712
G1 X128.641 Y96.302 E2.47712
G1 X128.499 Y96.603 E2.49097
G1 X128.327 Y96.889 E2.50486
G1 X128.129 Y97.157 E2.51875
G1 X127.905 Y97.404 E2.53264
G1 X127.657 Y97.629 E2.54653
G1 X127.389 Y97.827 E2.56043
G1 X127.103 Y97.999 E2.57432
G1 X126.801 Y98.142 E2.58821
G1 X126.487 Y98.254 E2.60210
G1 X126.163 Y98.335 E2.61599
G1 X125.833 Y98.384 E2.62988
G1 X125.500 Y98.400 E2.64378
G1 X125.500 Y98.400 E2.64379
G1 X125.332 Y98.409 E2.65076
G1 X124.837 Y98.335 E2.67162
G1 X124.513 Y98.254 E2.68552
G1 X124.199 Y98.142 E2.69941
G1 X123.897 Y97.999 E2.71330
G1 X123.365 Y97.680 E2.73912
G1 X123.355 Y97.690 E2.73973
G1 X123.095 Y97.404 E2.75582
G1 X123.095 Y97.404 E2.75582
G1 X122.871 Y97.157 E2.76968
G1 X122.673 Y96.889 E2.78357
G1 X122.501 Y96.603 E2.79746
G1 X122.358 Y96.301 E2.81135
G1 X122.246 Y95.987 E2.82525
G1 X122.165 Y95.663 E2.83914
G1 X122.116 Y95.333 E2.85303
G1 X122.100 Y95.000 E2.86692
G1 X122.116 Y94.667 E2.88081
G1 X122.147 Y94.455 E2.88971
G1 F1800.000 E0.88971
G92 E0
G1 X67.909 Y95.167 F6000.000
G1 F1800.000 E2.00000
G1 X67.835 Y95.663 F720.000 E2.02087
G1 X67.754 Y95.987 E2.03476
G1 X67.642 Y96.301 E2.04865
G1 X67.499 Y96.603 E2.06254
G1 X67.327 Y96.889 E2.07643
G1 X67.129 Y97.157 E2.09033
G1 X66.904 Y97.405 E2.10422
G1 X66.657 Y97.629 E2.11811
G1 X66.389 Y97.827 E2.13200
G1 X66.103 Y97.999 E2.14589
G1 X65.801 Y98.142 E2.15978
G1 X65.487 Y98.254 E2.17367
G1 X65.163 Y98.335 E2.18757
G1 X64.833 Y98.384 E2.20146
G1 X64.500 Y98.400 E2.21536
G1 X64.500 Y98.400 E2.21537
G1 X64.333 Y98.409 E2.22233
G1 X63.837 Y98.335 E2.24320
G1 X63.513 Y98.254 E2.25709
G1 X63.199 Y98.142 E2.27098
G1 X62.897 Y97.999 E2.28487
G1 X62.611 Y97.827 E2.29877
G1 X62.343 Y97.629 E2.31266
G1 X62.095 Y97.405 E2.32655
G1 X61.871 Y97.157 E2.34044
G1 X61.673 Y96.889 E2.35433
G1 X61.501 Y96.603 E2.36822
G1 X61.358 Y96.301 E2.38211
G1 X61.246 Y95.987 E2.39600
G1 X61.165 Y95.663 E2.40990
G1 X61.116 Y95.333 E2.42379
G1 X61.101 Y95.034 E2.43625
G1 X61.101 Y95.034 E2.43625
G1 X61.100 Y95.000 E2.43768
G1 X61.114 Y94.701 E2.45014
G1 X61.114 Y94.701 E2.45014
G1 X61.116 Y94.667 E2.45157
G1 X61.165 Y94.337 E2.46546
G1 X61.246 Y94.013 E2.47935
G1 X61.358 Y93.699 E2.49325
G1 X61.501 Y93.397 E2.50714
G1 X61.673 Y93.111 E2.52103
G1 X61.871 Y92.843 E2.53492
G1 X62.095 Y92.595 E2.54881
G1 X62.343 Y92.371 E2.56270
G1 X62.611 Y92.173 E2.57659
G1 X62.966 Y91.960 E2.59382
G1 X62.966 Y91.942 E2.59458
G1 X63.200 Y91.858 E2.60492
G1 X63.200 Y91.858 E2.60492
G1 X63.513 Y91.746 E2.61877
G1 X64.115 Y91.595 E2.64459
G1 X64.115 Y91.581 E2.64520
G1 X64.501 Y91.600 E2.66129
G1 X64.501 Y91.600 E2.66129
G1 X64.833 Y91.616 E2.67515
G1 X65.163 Y91.665 E2.68904
G1 X65.487 Y91.746 E2.70293
G1 X65.769 Y91.847 E2.71539
G1 X65.769 Y91.847 E2.71539
G1 X65.801 Y91.858 E2.71682
G1 X66.103 Y92.001 E2.73071
G1 X66.389 Y92.173 E2.74461
G1 X66.657 Y92.371 E2.75850
G1 X66.905 Y92.595 E2.77239
G1 X67.129 Y92.843 E2.78628
G1 X67.327 Y93.111 E2.80017
G1 X67.499 Y93.397 E2.81406
G1 X67.642 Y93.699 E2.82795
G1 X67.653 Y93.731 E2.82939
G1 X67.653 Y93.731 E2.82939
G1 X67.754 Y94.013 E2.84185
G1 X67.835 Y94.337 E2.85574
G1 X67.884 Y94.667 E2.86963
G1 X67.900 Y94.999 E2.88349
G1 X67.900 Y94.999 E2.88350
G1 X67.903 Y95.048 E2.88551
G1 F1800.000 E0.88551
G92 E0
G1 X63.076 Y101.975 F6000.000
G1 F1800.000 E2.00000
G1 X62.381 Y101.215 F960.000 E2.04287
G1 X61.808 Y100.359 E2.08573
G1 X60.964 Y98.515 E2.17015
G1 X60.910 Y98.422 E2.17462
G1 X60.910 Y98.422 E2.17462
G1 X60.480 Y97.682 E2.21024
G1 X60.980 Y97.317 E2.23601
G1 X61.552 Y97.948 E2.27147
G1 X61.855 Y98.223 E2.28850
G1 X62.184 Y98.467 E2.30553
G1 X62.535 Y98.677 E2.32257
G1 X62.904 Y98.852 E2.33960
G1 X63.290 Y98.990 E2.35663
G1 X63.687 Y99.089 E2.37366
G1 X64.295 Y99.179 E2.39925
G1 X64.501 Y99.169 E2.40785
G1 X64.501 Y99.169 E2.40785
G1 X64.909 Y99.149 E2.42484
G1 X65.313 Y99.089 E2.44187
G1 X65.710 Y98.990 E2.45890
G1 X66.095 Y98.852 E2.47593
G1 X66.465 Y98.677 E2.49297
G1 X66.816 Y98.467 E2.51000
G1 X67.145 Y98.223 E2.52703
G1 X67.448 Y97.948 E2.54406
G1 X67.723 Y97.645 E2.56109
G1 X67.967 Y97.316 E2.57813
G1 X68.177 Y96.965 E2.59516
G1 X68.352 Y96.595 E2.61219
G1 X68.490 Y96.210 E2.62922
G1 X68.589 Y95.813 E2.64625
G1 X68.679 Y95.205 E2.67184
G1 X68.669 Y95.002 E2.68033
G1 X68.669 Y95.002 E2.68033
G1 X68.649 Y94.591 E2.69743
G1 X68.600 Y94.258 E2.71146
G1 X68.600 Y94.258 E2.71146
G1 X68.589 Y94.187 E2.71446
G1 X68.490 Y93.790 E2.73149
G1 X68.194 Y92.963 E2.76804
G1 X68.134 Y92.963 E2.77053
G1 X67.967 Y92.684 E2.78409
G1 X67.723 Y92.355 E2.80113
G1 X67.448 Y92.052 E2.81816
G1 X67.145 Y91.777 E2.83519
G1 X66.816 Y91.533 E2.85222
G1 X66.465 Y91.323 E2.86925
G1 X66.095 Y91.148 E2.88628
G1 X65.001 Y90.757 E2.93467
G1 X65.001 Y90.855 E2.93878
G1 X64.196 Y90.816 E2.97233
G1 X64.196 Y90.816 E2.97233
G1 X63.347 Y90.774 E3.00773
G1 X63.347 Y90.990 E3.01671
G1 X62.917 Y91.144 E3.03572
G1 X62.917 Y91.144 E3.03572
G1 X62.198 Y91.401 E3.06750
G1 X62.198 Y91.523 E3.07258
G1 X61.855 Y91.777 E3.09035
G1 X61.552 Y92.052 E3.10738
G1 X60.980 Y92.683 E3.14284
G1 X60.480 Y92.318 E3.16861
G1 X60.964 Y91.485 E3.20870
G1 X61.808 Y89.641 E3.29312
G1 X62.381 Y88.785 E3.33599
G1 X63.076 Y88.025 E3.37885
G1 X63.877 Y87.378 E3.42172
G1 X64.766 Y86.859 E3.46458
G1 X65.724 Y86.480 E3.50745
G1 X66.727 Y86.249 E3.55032
G1 X67.798 Y86.168 E3.59502
G1 X122.202 Y86.168 E5.85972
G1 X123.273 Y86.249 E5.90443
G1 X124.276 Y86.480 E5.94729
G1 X125.234 Y86.859 E5.99016
G1 X126.123 Y87.378 E6.03302
G1 X126.924 Y88.025 E6.07589
G1 X127.619 Y88.785 E6.11876
G1 X128.192 Y89.641 E6.16162
G1 X129.036 Y91.485 E6.24604
G1 X129.520 Y92.318 E6.28613
G1 X129.020 Y92.683 E6.31190
G1 X128.448 Y92.052 E6.34736
G1 X128.145 Y91.777 E6.36439
G1 X127.874 Y91.576 E6.37843
G1 X127.874 Y91.576 E6.37843
G1 X127.816 Y91.533 E6.38143
G1 X127.465 Y91.323 E6.39846
G1 X127.161 Y91.179 E6.41249
G1 X127.161 Y91.179 E6.41249
G1 X127.095 Y91.148 E6.41549
G1 X126.359 Y90.885 E6.44804
G1 X126.359 Y90.663 E6.45728
G1 X125.921 Y90.728 E6.47572
G1 X125.921 Y90.728 E6.47572
G1 X125.295 Y90.821 E6.50208
G1 X124.347 Y90.774 E6.54158
G1 X124.347 Y90.990 E6.55056
G1 X123.904 Y91.148 E6.57012
G1 X123.535 Y91.323 E6.58715
G1 X123.182 Y91.535 E6.60429
G1 X123.181 Y91.535 E6.60429
G1 X122.678 Y91.836 E6.62872
G1 X122.678 Y91.938 E6.63293
G1 X122.552 Y92.052 E6.64001
G1 X122.277 Y92.355 E6.65704
G1 X122.033 Y92.684 E6.67408
G1 X121.823 Y93.035 E6.69111
G1 X121.648 Y93.405 E6.70814
G1 X121.510 Y93.790 E6.72518
G1 X121.189 Y95.071 E6.78016
G1 X121.301 Y95.071 E6.78480
G1 X121.411 Y95.813 E6.81604
G1 X121.510 Y96.210 E6.83307
G1 X121.624 Y96.528 E6.84710
G1 X121.624 Y96.528 E6.84710
G1 X121.648 Y96.596 E6.85011
G1 X121.823 Y96.965 E6.86714
G1 X122.033 Y97.316 E6.88417
G1 X122.277 Y97.645 E6.90120
G1 X122.551 Y97.947 E6.91817
G1 X122.551 Y97.947 E6.91817
G1 X123.327 Y98.804 E6.96629
G1 X123.480 Y98.651 E6.97527
G1 X123.904 Y98.852 E6.99483
G1 X124.290 Y98.990 E7.01186
G1 X124.687 Y99.089 E7.02890
G1 X125.295 Y99.179 E7.05448
G1 X125.501 Y99.169 E7.06310
G1 X125.502 Y99.169 E7.06311
G1 X125.909 Y99.149 E7.08007
G1 X126.313 Y99.089 E7.09710
G1 X126.640 Y99.007 E7.11113
G1 X126.640 Y99.007 E7.11113
G1 X126.710 Y98.990 E7.11413
G1 X127.095 Y98.852 E7.13117
G1 X127.465 Y98.677 E7.14819
G1 X127.816 Y98.467 E7.16523
G1 X128.145 Y98.223 E7.18226
G1 X128.448 Y97.948 E7.19930
G1 X129.020 Y97.317 E7.23475
G1 X129.520 Y97.682 E7.26052
G1 X129.036 Y98.515 E7.30061
G1 X128.192 Y100.359 E7.38503
G1 X127.619 Y101.215 E7.42790
G1 X126.924 Y101.975 E7.47076
G1 X126.123 Y102.622 E7.51363
G1 X125.234 Y103.141 E7.55650
G1 X124.276 Y103.520 E7.59936
G1 X123.273 Y103.751 E7.64223
G1 X122.202 Y103.832 E7.68693
G1 X67.798 Y103.832 E9.95163
G1 X66.727 Y103.751 E9.99634
G1 X65.724 Y103.520 E10.03920
G1 X64.766 Y103.141 E10.08207
G1 X63.877 Y102.622 E10.12494
G1 X63.169 Y102.050 E10.16281
G1 X62.548 Y102.536 F6000.000
G1 X61.775 Y101.690 F960.000 E10.21051
G1 X61.138 Y100.738 E10.25821
G1 X60.280 Y98.865 E10.34397
G1 X59.425 Y97.364 E10.41588
G1 X59.136 Y96.604 E10.44971
G1 X58.960 Y95.811 E10.48354
G1 X58.901 Y95.000 E10.51737
G1 X58.960 Y94.189 E10.55120
G1 X59.136 Y93.396 E10.58504
G1 X59.425 Y92.636 E10.61887
G1 X60.280 Y91.135 E10.69077
G1 X61.138 Y89.262 E10.77654
G1 X61.775 Y88.310 E10.82424
G1 X62.548 Y87.464 E10.87194
G1 X63.440 Y86.745 E10.91964
G1 X63.790 Y86.540 E10.93654
G1 X63.790 Y86.540 E10.93654
G1 X64.430 Y86.167 E10.96734
G1 X65.495 Y85.745 E11.01504
G1 X66.611 Y85.488 E11.06273
G1 X67.724 Y85.403 E11.10918
G1 X67.724 Y85.403 E11.10918
G1 X67.769 Y85.400 E11.11106
G1 X122.231 Y85.400 E13.37818
G1 X123.389 Y85.488 E13.42651
G1 X124.505 Y85.745 E13.47420
G1 X125.570 Y86.167 E13.52190
G1 X126.560 Y86.745 E13.56960
G1 X127.452 Y87.464 E13.61730
G1 X128.225 Y88.310 E13.66500
G1 X128.862 Y89.262 E13.71270
G1 X129.228 Y90.042 E13.74857
G1 X129.228 Y90.042 E13.74857
G1 X129.376 Y90.359 E13.76312
G1 X129.376 Y90.359 E13.76312
G1 X129.720 Y91.135 E13.79847
G1 X130.575 Y92.636 E13.87038
G1 X130.864 Y93.396 E13.90421
G1 X131.040 Y94.189 E13.93804
G1 X131.099 Y95.000 E13.97187
G1 X131.040 Y95.811 E14.00570
G1 X130.864 Y96.604 E14.03954
G1 X130.575 Y97.364 E14.07337
G1 X129.720 Y98.865 E14.14527
G1 X128.862 Y100.738 E14.23104
G1 X128.225 Y101.690 E14.27874
G1 X127.452 Y102.536 E14.32644
G1 X126.560 Y103.255 E14.37414
G1 X125.570 Y103.833 E14.42184
G1 X124.505 Y104.255 E14.46954
G1 X123.389 Y104.512 E14.51724
G1 X122.231 Y104.600 E14.56556
G1 X67.769 Y104.600 E16.83268
G1 X66.611 Y104.512 E16.88101
G1 X65.495 Y104.255 E16.92870
G1 X64.430 Y103.833 E16.97641
G1 X63.440 Y103.255 E17.02410
G1 X62.642 Y102.611 E17.06681
G1 X63.830 Y101.641 F6000.000
G1 X63.375 Y101.186 F2160.000 E17.09381
G1 X64.101 Y99.720 F6000.000
G1 X67.641 Y103.260 F2160.000 E17.30397
G1 X68.768 Y103.291 E17.35131
G1 X65.112 Y99.635 E17.56835
G1 X65.976 Y99.403 F6000.000
G1 X69.864 Y103.291 F2160.000 E17.79920
G1 X70.960 Y103.291 E17.84522
G1 X66.724 Y99.055 E18.09671
G1 X67.377 Y98.612 F6000.000
G1 X72.056 Y103.291 F2160.000 E18.37450
G1 X73.152 Y103.291 E18.42051
G1 X67.937 Y98.076 E18.73014
G1 X68.415 Y97.458 F6000.000
G1 X74.248 Y103.291 F2160.000 E19.07647
G1 X75.344 Y103.291 E19.12248
G1 X68.798 Y96.744 E19.51117
G1 X69.071 Y95.921 F6000.000
G1 X76.440 Y103.291 F2160.000 E19.94871
G1 X77.536 Y103.291 E19.99473
G1 X69.222 Y94.976 E20.48838
G1 X69.111 Y93.770 E20.53926
G1 X78.632 Y103.291 E21.10456
G1 X79.728 Y103.291 E21.15057
G1 X68.565 Y92.128 E21.81332
G1 X68.859 Y92.422 F6000.000
G1 X68.127 Y91.690 F2160.000 E21.85678
G1 X67.810 Y91.373 F6000.000
G1 X64.173 Y87.736 F2160.000 E22.07272
G1 X63.556 Y88.215 F6000.000
G1 X65.665 Y90.324 F2160.000 E22.19794
G1 X64.460 Y90.215 F6000.000
G1 X63.008 Y88.763 F2160.000 E22.28412
G1 X62.529 Y89.380 F6000.000
G1 X63.371 Y90.222 F2160.000 E22.33410
G1 X62.749 Y90.696 F6000.000
G1 X62.123 Y90.070 F2160.000 E22.37128
G1 F1800.000 E20.37128
G92 E0
G1 X64.865 Y87.332 F6000.000
G1 F1800.000 E2.00000
G1 X80.824 Y103.291 F2160.000 E2.94752
G1 X81.920 Y103.291 E2.99353
G1 X65.649 Y87.019 E3.95961
G1 X66.529 Y86.804 E3.99766
G1 X83.016 Y103.291 E4.97654
G1 X84.112 Y103.290 E5.02255
G1 X67.535 Y86.714 E6.00676
G1 X68.626 Y86.709 E6.05257
G1 X85.208 Y103.290 E7.03708
G1 X86.303 Y103.291 E7.08306
G1 X69.722 Y86.710 E8.06757
G1 X70.818 Y86.710 E8.11358
G1 X87.399 Y103.291 E9.09809
G1 X88.495 Y103.291 E9.14410
G1 X71.914 Y86.709 E10.12861
G1 X73.010 Y86.709 E10.17462
G1 X89.591 Y103.291 E11.15913
G1 X90.687 Y103.291 E11.20514
G1 X74.106 Y86.709 E12.18965
G1 X75.202 Y86.709 E12.23566
G1 X91.783 Y103.291 E13.22016
